; generated by PrusaSlicer 2.2.0+win64 on 2020-05-31 at 16:22:42 UTC

; 

; external perimeters extrusion width = 0.41mm
; perimeters extrusion width = 0.43mm
; infill extrusion width = 0.40mm
; solid infill extrusion width = 0.40mm
; top infill extrusion width = 0.42mm
; first layer extrusion width = 0.43mm

M73 P0 R162
M73 Q0 S169
M201 X9000 Y9000 Z500 E10000 ; sets maximum accelerations, mm/sec^2
M203 X500 Y500 Z80 E120 ; sets maximum feedrates, mm/sec
M204 P1500 R1500 T1500 ; sets acceleration (P, T) and retract acceleration (R), mm/sec^2
M205 X10.00 Y10.00 Z0.20 E2.50 ; sets the jerk limits, mm/sec
M205 S0 T0 ; sets the minimum extruding and travel feed rate, mm/sec
M107
G90 ; use absolute coordinates
M83 ; extruder relative mode
M104 S220 ; set extruder temp
M140 S60 ; set bed temp
G28 ; home all
G1 Z2 F240
M190 S60 ; wait for bed temp
M109 S220 ; wait for extruder temp
G1 X219 Y190 F3000
G1 Z0.28 F240
G92 E0.0
G1 Y20 E15.0 F1500.0 ; intro line
M73 Q0 S169
M73 P0 R162
G1 X219.3 F5000
G1 Y190 E30 F1200.0 ; intro line
G92 E0.0
G21 ; set units to millimeters
G90 ; use absolute coordinates
M82 ; use absolute distances for extrusion
G92 E0
;BEFORE_LAYER_CHANGE
;0.2
G1 Z0.200 F12000.000
;AFTER_LAYER_CHANGE
;0.2
G1 E-6.50000 F3000.00000
G92 E0
G1 Z0.300 F12000.000
G1 X126.263 Y192.941
G1 Z0.200
G1 E6.50000 F2700.00000
G1 F1500.000
G1 X125.519 Y193.228 E6.52565
G1 X123.834 Y194.375 E6.59128
G1 X123.097 Y194.493 E6.61528
G1 X122.129 Y193.891 E6.65199
G1 X122.197 Y193.447 E6.66644
G1 X122.569 Y192.703 E6.69323
G1 X123.069 Y192.024 E6.72037
G1 X124.385 Y190.836 E6.77743
G1 X124.803 Y190.670 E6.79190
G1 X125.347 Y190.654 E6.80941
G1 X125.842 Y190.761 E6.82571
G1 X126.180 Y190.986 E6.83879
G1 X126.380 Y191.303 E6.85084
G1 X126.448 Y191.766 E6.86592
G1 X126.272 Y192.881 E6.90225
G1 X126.610 Y193.221 F12000.000
G1 F1500.000
G1 X125.700 Y193.573 E6.93365
G1 X123.980 Y194.744 E7.00063
G1 X123.016 Y194.898 E7.03206
G1 X121.707 Y194.085 E7.08165
G1 X121.824 Y193.329 E7.10628
G1 X122.238 Y192.500 E7.13609
G1 X122.781 Y191.763 E7.16556
G1 X124.178 Y190.502 E7.22612
G1 X124.723 Y190.285 E7.24503
G1 X125.383 Y190.265 E7.26626
G1 X125.995 Y190.399 E7.28643
G1 X126.463 Y190.709 E7.30451
G1 X126.752 Y191.165 E7.32187
G1 X126.839 Y191.769 E7.34149
G1 X126.620 Y193.162 E7.38689
G1 X126.228 Y193.103 F12000.000
G1 E0.88689 F3000.00000
G92 E0
G1 Z0.300 F12000.000
G1 X122.406 Y193.219
G1 Z0.200
G1 E6.50000 F2700.00000
G1 F1500.000
G1 X123.373 Y194.186 E6.54527
G1 X123.736 Y194.128 E6.55742
G1 X123.820 Y194.071 E6.56082
G1 X122.724 Y192.974 E6.61217
G1 X122.791 Y192.839 E6.61717
G1 X122.944 Y192.631 E6.62570
G1 X124.155 Y193.843 E6.68241
G1 X124.490 Y193.614 E6.69583
G1 X123.183 Y192.307 E6.75704
G1 X123.262 Y192.199 E6.76149
G1 X123.460 Y192.021 E6.77029
G1 X124.825 Y193.386 E6.83422
G1 X125.160 Y193.158 E6.84764
G1 X123.756 Y191.754 E6.91340
G1 X124.052 Y191.487 E6.92660
G1 X125.516 Y192.951 E6.99516
G1 X125.922 Y192.794 E7.00957
G1 X124.347 Y191.219 E7.08329
G1 X124.524 Y191.060 E7.09118
G1 X124.686 Y190.995 E7.09695
G1 X126.086 Y192.395 E7.16248
G1 X126.163 Y191.909 E7.17879
G1 X125.172 Y190.918 E7.22515
G1 X125.323 Y190.914 E7.23013
G1 X125.739 Y191.004 E7.24422
G1 X125.985 Y191.168 E7.25403
G1 X126.324 Y191.507 E7.26988
G1 E0.76988 F3000.00000
G92 E0
G1 Z0.300 F12000.000
G1 X102.864 Y122.356
G1 Z0.200
G1 E6.50000 F2700.00000
G1 F1500.000
G1 X103.821 Y121.687 E6.53756
G1 X108.106 Y126.577 E6.74683
G1 X113.993 Y133.720 E7.04476
G1 X117.189 Y137.287 E7.19892
G1 X120.057 Y139.961 E7.32512
G1 X122.196 Y141.586 E7.41157
G1 X103.911 Y145.226 E8.01161
G1 X101.864 Y139.062 E8.22065
G1 X100.727 Y135.953 E8.32719
G1 X99.177 Y132.327 E8.45412
G1 X100.260 Y131.803 E8.49283
G1 X103.022 Y136.120 E8.65780
G1 X103.629 Y136.902 E8.68964
G1 X104.144 Y137.304 E8.71067
G1 X104.566 Y137.461 E8.72515
G1 X104.593 Y137.600 E8.72971
G1 X105.718 Y137.076 E8.76965
G1 X106.960 Y135.437 E8.83582
G1 X107.325 Y134.645 E8.86389
G1 X107.568 Y133.739 E8.89409
G1 X107.606 Y132.773 E8.92522
G1 X107.367 Y131.724 E8.95984
G1 X105.708 Y127.793 E9.09718
G1 X104.341 Y125.052 E9.19574
G1 X102.893 Y122.408 E9.29275
G1 X103.370 Y122.474 F12000.000
G1 F1500.000
G1 X103.758 Y122.203 E9.30799
G1 X107.811 Y126.828 E9.50590
G1 X113.699 Y133.973 E9.80390
G1 X116.913 Y137.558 E9.95887
G1 X119.807 Y140.258 E10.08626
G1 X121.277 Y141.374 E10.14567
G1 X106.387 Y144.338 E10.63432
G1 X105.085 Y137.797 E10.84897
G1 X105.969 Y137.386 E10.88033
G1 X107.294 Y135.638 E10.95093
G1 X107.691 Y134.777 E10.98143
G1 X107.953 Y133.797 E11.01408
G1 X107.995 Y132.737 E11.04825
G1 X107.737 Y131.605 E11.08561
G1 X106.060 Y127.631 E11.22444
G1 X104.684 Y124.873 E11.32364
G1 X103.399 Y122.527 E11.40973
G1 X103.156 Y122.137 F12000.000
G1 E4.90973 F3000.00000
G92 E0
G1 Z0.300 F12000.000
G1 X100.119 Y132.301
G1 Z0.200
G1 E6.50000 F2700.00000
G1 F1500.000
G1 X102.706 Y136.344 E6.65447
G1 X103.353 Y137.177 E6.68842
G1 X103.953 Y137.646 E6.71294
G1 X104.228 Y137.748 E6.72239
G1 X105.572 Y144.500 E6.94398
G1 X104.171 Y144.779 E6.98996
G1 X102.230 Y138.935 E7.18818
G1 X101.087 Y135.810 E7.29525
G1 X99.678 Y132.515 E7.41062
G1 X100.065 Y132.327 E7.42445
G1 X100.337 Y131.966 F12000.000
G1 E0.92445 F3000.00000
G92 E0
G1 Z0.300 F12000.000
G1 X70.725 Y156.721
G1 Z0.200
G1 E6.50000 F2700.00000
G1 F1500.000
G1 X71.779 Y160.227 E6.61784
G1 X74.023 Y166.095 E6.82004
G1 X76.501 Y171.544 E7.01271
G1 X79.072 Y176.498 E7.19235
G1 X81.590 Y180.880 E7.35500
G1 X83.912 Y184.612 E7.49648
G1 X87.428 Y189.873 E7.70015
G1 X88.829 Y192.785 E7.80415
G1 X87.968 Y193.426 E7.83872
G1 X86.223 Y191.836 E7.91471
G1 X83.478 Y188.711 E8.04856
G1 X76.014 Y179.574 E8.42831
G1 X68.506 Y170.183 E8.81528
G1 X59.159 Y159.023 E9.28382
G1 X70.666 Y156.733 E9.66145
G1 X70.455 Y157.169 F12000.000
G1 F1500.000
G1 X71.412 Y160.352 E9.76843
G1 X73.665 Y166.245 E9.97147
G1 X76.153 Y171.713 E10.16484
G1 X78.732 Y176.684 E10.34507
G1 X81.258 Y181.078 E10.50820
G1 X83.587 Y184.822 E10.65011
G1 X87.091 Y190.065 E10.85310
G1 X88.342 Y192.665 E10.94595
G1 X87.993 Y192.925 E10.95997
G1 X86.500 Y191.564 E11.02499
G1 X83.774 Y188.461 E11.15793
G1 X76.315 Y179.331 E11.53739
G1 X68.805 Y169.938 E11.92444
G1 X59.875 Y159.275 E12.37210
G1 X70.397 Y157.181 E12.71739
G1 X70.768 Y156.919 F12000.000
G1 E6.21739 F3000.00000
G92 E0
G1 Z0.300 F12000.000
G1 X75.759 Y150.829
G1 Z0.200
G1 E6.50000 F2700.00000
G1 F1500.000
G1 X75.862 Y148.680 E6.56924
G1 X76.110 Y148.081 E6.59010
G1 X76.651 Y147.615 E6.61311
G1 X77.747 Y147.693 E6.64847
G1 X80.269 Y149.932 E6.75700
G1 X75.818 Y150.817 E6.90307
G1 X76.169 Y150.353 F12000.000
G1 F1500.000
G1 X76.246 Y148.766 E6.95419
G1 X76.432 Y148.314 E6.96992
G1 X76.783 Y148.012 E6.98482
G1 X77.588 Y148.070 E7.01082
G1 X79.429 Y149.704 E7.09004
G1 X76.228 Y150.341 E7.19510
G1 X75.788 Y150.473 F12000.000
G1 E0.69510 F3000.00000
G92 E0
G1 Z0.300 F12000.000
G1 X82.135 Y145.244
G1 Z0.200
G1 E6.50000 F2700.00000
G1 F1500.000
G1 X84.133 Y145.134 E6.56441
G1 X85.425 Y144.681 E6.60847
G1 X87.330 Y143.652 E6.67818
G1 X88.068 Y143.334 E6.70404
G1 X88.780 Y143.858 E6.73246
G1 X91.617 Y147.673 E6.88548
G1 X85.350 Y148.920 E7.09114
G1 X84.507 Y147.793 E7.13645
G1 X82.176 Y145.288 E7.24659
G1 X82.981 Y145.585 F12000.000
G1 F1500.000
G1 X84.209 Y145.517 E7.28619
G1 X85.582 Y145.036 E7.33300
G1 X87.499 Y144.001 E7.40314
G1 X88.018 Y143.777 E7.42130
G1 X88.503 Y144.135 E7.44072
G1 X90.941 Y147.413 E7.57218
G1 X85.514 Y148.493 E7.75028
G1 X84.804 Y147.544 E7.78841
G1 X83.022 Y145.629 E7.87263
G1 X82.872 Y145.200 F12000.000
G1 E1.37263 F3000.00000
G92 E0
G1 Z0.300 F12000.000
G1 X97.877 Y151.317
G1 Z0.200
G1 E6.50000 F2700.00000
G1 F1500.000
G1 X104.078 Y150.082 E6.70351
G1 X104.206 Y150.875 E6.72935
G1 X104.209 Y152.101 E6.76881
G1 X103.833 Y153.457 E6.81412
G1 X103.307 Y153.895 E6.83614
G1 X102.756 Y153.889 E6.85386
G1 X101.001 Y153.378 E6.91270
G1 X99.474 Y152.514 E6.96917
G1 X97.925 Y151.353 E7.03149
G1 X98.803 Y151.527 F12000.000
G1 F1500.000
G1 X103.760 Y150.540 E7.19416
G1 X103.819 Y150.907 E7.20610
G1 X103.822 Y152.049 E7.24286
G1 X103.492 Y153.237 E7.28256
G1 X103.169 Y153.507 E7.29610
G1 X102.814 Y153.502 E7.30753
G1 X101.152 Y153.019 E7.36322
G1 X99.687 Y152.189 E7.41743
G1 X98.851 Y151.563 E7.45104
G1 X98.623 Y151.170 F12000.000
G1 E0.95104 F3000.00000
G92 E0
G1 Z0.300 F12000.000
G1 X109.655 Y148.972
G1 Z0.200
G1 E6.50000 F2700.00000
G1 F1500.000
G1 X121.391 Y146.636 E6.88514
G1 X120.683 Y148.917 E6.96200
G1 X120.490 Y150.371 E7.00921
G1 X120.546 Y151.850 E7.05685
G1 X121.880 Y158.263 E7.26766
G1 X122.335 Y159.616 E7.31361
G1 X121.410 Y160.148 E7.34795
G1 X119.763 Y158.269 E7.42837
G1 X115.309 Y153.678 E7.63425
G1 X113.174 Y151.725 E7.72740
G1 X109.702 Y149.009 E7.86924
G1 X110.558 Y149.187 F12000.000
G1 F1500.000
G1 X120.828 Y147.143 E8.20629
G1 X120.304 Y148.834 E8.26326
G1 X120.102 Y150.353 E8.31258
G1 X120.160 Y151.897 E8.36233
G1 X121.505 Y158.364 E8.57493
G1 X121.867 Y159.438 E8.61141
G1 X121.492 Y159.654 E8.62534
G1 X120.047 Y158.007 E8.69586
G1 X115.578 Y153.400 E8.90242
G1 X113.424 Y151.429 E8.99642
G1 X110.605 Y149.224 E9.11159
G1 X110.394 Y148.822 F12000.000
G1 E2.61159 F3000.00000
G92 E0
G1 Z0.300 F12000.000
G1 X130.610 Y144.801
G1 Z0.200
G1 E6.50000 F2700.00000
G1 F1500.000
G1 X156.422 Y139.664 E7.34707
G1 X155.745 Y141.556 E7.41174
G1 X155.554 Y143.149 E7.46339
G1 X155.568 Y145.045 E7.52441
G1 X155.752 Y147.085 E7.59035
G1 X156.458 Y151.105 E7.72171
G1 X157.742 Y155.831 E7.87934
G1 X157.240 Y157.051 E7.92179
G1 X155.658 Y155.722 E7.98827
G1 X154.230 Y153.910 E8.06254
G1 X151.643 Y150.151 E8.20939
G1 X150.928 Y149.519 E8.24011
G1 X149.127 Y148.446 E8.30759
G1 X148.452 Y148.190 E8.33082
G1 X147.686 Y148.202 E8.35549
G1 X146.082 Y148.595 E8.40864
G1 X143.526 Y150.621 E8.51360
G1 X143.184 Y151.286 E8.53769
G1 X142.939 Y152.101 E8.56508
G1 X142.651 Y153.941 E8.62503
G1 X142.463 Y156.258 E8.69985
G1 X142.509 Y157.265 E8.73229
G1 X141.650 Y157.614 E8.76213
G1 X130.649 Y144.847 E9.30453
G1 X131.336 Y145.052 F12000.000
G1 F1500.000
G1 X155.827 Y140.177 E10.10826
G1 X155.366 Y141.466 E10.15234
G1 X155.166 Y143.127 E10.20618
G1 X155.181 Y145.064 E10.26850
G1 X155.368 Y147.136 E10.33548
G1 X156.079 Y151.190 E10.46793
G1 X157.334 Y155.806 E10.62189
G1 X157.083 Y156.414 E10.64307
G1 X155.938 Y155.451 E10.69123
G1 X154.542 Y153.680 E10.76382
G1 X151.935 Y149.893 E10.91180
G1 X151.157 Y149.205 E10.94521
G1 X149.296 Y148.097 E11.01495
G1 X148.520 Y147.802 E11.04165
G1 X147.636 Y147.816 E11.07010
G1 X145.908 Y148.239 E11.12738
G1 X143.220 Y150.369 E11.23776
G1 X142.823 Y151.141 E11.26568
G1 X142.561 Y152.015 E11.29507
G1 X142.266 Y153.896 E11.35633
G1 X142.075 Y156.251 E11.43240
G1 X142.110 Y157.009 E11.45682
G1 X141.762 Y157.150 E11.46891
G1 X131.376 Y145.097 E11.98102
G1 X131.190 Y144.679 F12000.000
G1 E5.48102 F3000.00000
G92 E0
G1 Z0.300 F12000.000
G1 X147.443 Y152.242
G1 Z0.200
G1 E6.50000 F2700.00000
G1 F1500.000
G1 X148.437 Y152.289 E6.53203
G1 X150.854 Y153.811 E6.62397
G1 X156.488 Y158.967 E6.86979
G1 X160.243 Y162.240 E7.03012
G1 X163.609 Y167.579 E7.23324
G1 X164.084 Y168.675 E7.27169
G1 X164.351 Y169.761 E7.30769
G1 X164.852 Y170.922 E7.34837
G1 X164.579 Y173.188 E7.42185
G1 X163.825 Y174.206 E7.46263
G1 X162.806 Y173.927 E7.49661
G1 X161.537 Y173.035 E7.54655
G1 X159.025 Y171.869 E7.63569
G1 X157.876 Y171.093 E7.68032
G1 X155.988 Y169.283 E7.76450
G1 X150.931 Y162.946 E8.02542
G1 X150.208 Y161.953 E8.06497
G1 X147.622 Y156.109 E8.27067
G1 X147.128 Y153.631 E8.35199
G1 X147.430 Y152.300 E8.39589
G1 X147.749 Y152.644 F12000.000
G1 F1500.000
G1 X148.317 Y152.670 E8.41420
G1 X150.618 Y154.120 E8.50174
G1 X156.231 Y159.256 E8.74659
G1 X159.946 Y162.495 E8.90524
G1 X163.266 Y167.760 E9.10558
G1 X163.716 Y168.799 E9.14202
G1 X163.983 Y169.885 E9.17801
G1 X164.455 Y170.979 E9.21636
G1 X164.207 Y173.040 E9.28319
G1 X163.671 Y173.763 E9.31213
G1 X162.973 Y173.572 E9.33542
G1 X161.731 Y172.698 E9.38430
G1 X159.216 Y171.531 E9.47355
G1 X158.120 Y170.790 E9.51612
G1 X156.274 Y169.021 E9.59841
G1 X151.239 Y162.712 E9.85823
G1 X150.545 Y161.759 E9.89617
G1 X147.993 Y155.991 E10.09916
G1 X147.524 Y153.636 E10.17646
G1 X147.735 Y152.702 E10.20727
G1 X147.752 Y152.244 F12000.000
G1 E3.70727 F3000.00000
G92 E0
G1 Z0.300 F12000.000
G1 X156.423 Y197.999
G1 Z0.200
G1 E6.50000 F2700.00000
G1 F1500.000
G1 X161.886 Y203.154 E6.74177
G1 X168.342 Y209.617 E7.03579
G1 X169.175 Y210.559 E7.07627
G1 X169.683 Y212.085 E7.12803
G1 X168.271 Y212.082 E7.17350
G1 X166.286 Y210.898 E7.24788
G1 X164.502 Y209.522 E7.32037
G1 X161.379 Y206.461 E7.46114
G1 X157.590 Y201.773 E7.65515
G1 X155.534 Y198.757 E7.77263
G1 X156.377 Y198.038 E7.80831
G1 X156.410 Y198.519 F12000.000
G1 F1500.000
G1 X161.616 Y203.432 E8.03872
G1 X168.060 Y209.882 E8.33217
G1 X168.833 Y210.757 E8.36974
G1 X169.146 Y211.697 E8.40163
G1 X168.378 Y211.695 E8.42635
G1 X166.504 Y210.577 E8.49657
G1 X164.757 Y209.230 E8.56758
G1 X161.666 Y206.200 E8.70689
G1 X157.901 Y201.542 E8.89967
G1 X156.049 Y198.826 E9.00547
G1 X156.364 Y198.557 E9.01879
G1 X156.547 Y198.143 F12000.000
G1 E2.51879 F3000.00000
G92 E0
G1 Z0.300 F12000.000
G1 X186.655 Y192.626
G1 Z0.200
G1 E6.50000 F2700.00000
G1 F1500.000
G1 X186.943 Y190.333 E6.57437
G1 X188.555 Y192.154 E6.65264
G1 X195.142 Y198.820 E6.95426
G1 X199.153 Y203.472 E7.15197
G1 X202.219 Y207.821 E7.32323
G1 X202.560 Y208.461 E7.34656
G1 X202.638 Y209.713 E7.38693
G1 X201.466 Y209.946 E7.42538
G1 X200.238 Y209.039 E7.47453
G1 X189.450 Y196.646 E8.00336
G1 X188.025 Y194.789 E8.07869
G1 X186.687 Y192.677 E8.15917
G1 X187.056 Y192.536 F12000.000
G1 F1500.000
G1 X187.220 Y191.231 E8.20152
G1 X188.272 Y192.419 E8.25258
M73 Q0 S168
G1 X194.857 Y199.083 E8.55413
G1 X198.848 Y203.710 E8.75080
G1 X201.888 Y208.025 E8.92068
G1 X202.179 Y208.569 E8.94053
G1 X202.230 Y209.399 E8.96731
G1 X201.558 Y209.533 E8.98936
G1 X200.502 Y208.752 E9.03163
G1 X189.750 Y196.401 E9.55871
M73 P0 R161
G1 X188.343 Y194.567 E9.63309
G1 X187.088 Y192.587 E9.70854
G1 X186.688 Y192.379 F12000.000
G1 E3.20854 F3000.00000
G92 E0
G1 Z0.300 F12000.000
G1 X102.887 Y145.430
G1 Z0.200
G1 E6.50000 F2700.00000
G1 F1500.000
G1 X94.203 Y147.158 E6.78496
G1 X90.849 Y142.449 E6.97104
G1 X89.803 Y140.462 E7.04333
G1 X88.393 Y138.704 E7.11585
G1 X84.615 Y132.182 E7.35843
G1 X79.973 Y122.908 E7.69223
G1 X79.040 Y120.746 E7.76801
G1 X78.412 Y118.621 E7.83935
G1 X77.788 Y118.205 E7.86348
G1 X77.740 Y118.123 E7.86655
G1 X77.194 Y118.175 E7.88421
G1 X76.762 Y118.417 E7.90016
G1 X76.047 Y119.305 E7.93683
G1 X76.021 Y119.618 E7.94696
G1 X76.413 Y121.540 E8.01008
G1 X77.103 Y123.464 E8.07586
G1 X78.675 Y126.881 E8.19693
G1 X80.982 Y131.354 E8.35891
G1 X83.365 Y135.510 E8.51311
G1 X83.581 Y136.598 E8.54881
G1 X82.313 Y136.539 E8.58966
G1 X81.961 Y136.303 E8.60330
G1 X78.685 Y133.630 E8.73941
G1 X75.064 Y129.970 E8.90509
G1 X72.272 Y126.942 E9.03765
G1 X69.667 Y123.668 E9.17232
G1 X67.450 Y120.043 E9.30909
G1 X66.288 Y117.900 E9.38755
G1 X64.236 Y114.612 E9.51228
G1 X60.298 Y106.828 E9.79307
G1 X58.612 Y102.936 E9.92958
G1 X56.630 Y96.719 E10.13962
G1 X55.499 Y91.870 E10.29986
G1 X55.166 Y86.835 E10.46229
G1 X55.497 Y83.777 E10.56128
G1 X55.889 Y82.715 E10.59770
G1 X57.037 Y82.455 E10.63557
G1 X58.202 Y82.601 E10.67338
G1 X60.041 Y83.168 E10.73532
G1 X61.761 Y83.934 E10.79591
G1 X63.386 Y84.890 E10.85659
G1 X64.944 Y86.033 E10.91880
G1 X68.783 Y89.848 E11.09299
G1 X69.677 Y91.000 E11.13992
G1 X72.650 Y94.358 E11.28429
G1 X73.938 Y96.253 E11.35803
G1 X77.038 Y100.305 E11.52224
G1 X88.229 Y116.538 E12.15682
G1 X91.640 Y121.697 E12.35588
G1 X93.516 Y124.846 E12.47387
G1 X95.223 Y128.084 E12.59168
G1 X98.804 Y135.342 E12.85216
G1 X101.050 Y140.417 E13.03081
G1 X102.866 Y145.373 E13.20068
G1 X102.368 Y145.138 F12000.000
G1 F1500.000
G1 X94.373 Y146.729 E13.46304
G1 X91.180 Y142.246 E13.64022
G1 X90.128 Y140.248 E13.71286
G1 X88.714 Y138.484 E13.78564
G1 X84.956 Y131.999 E14.02689
G1 X80.324 Y122.745 E14.35997
G1 X79.404 Y120.614 E14.43464
G1 X78.714 Y118.275 E14.51314
G1 X78.531 Y118.234 E14.51919
