; generated by PrusaSlicer 2.2.0+win64 on 2020-07-29 at 13:52:54 UTC

; 

; external perimeters extrusion width = 0.41mm
; perimeters extrusion width = 0.43mm
; infill extrusion width = 0.40mm
; solid infill extrusion width = 0.40mm
; top infill extrusion width = 0.42mm
; support material extrusion width = 0.35mm
; first layer extrusion width = 0.44mm

M73 P0 R12
M73 Q0 S12
M201 X1500 Y1500 Z500 E350 ; sets maximum accelerations, mm/sec^2
M203 X500 Y500 Z80 E120 ; sets maximum feedrates, mm/sec
M204 P1500 R1500 T1500 ; sets acceleration (P, T) and retract acceleration (R), mm/sec^2
M205 X10.00 Y10.00 Z0.20 E1.25 ; sets the jerk limits, mm/sec
M205 S0 T0 ; sets the minimum extruding and travel feed rate, mm/sec
M107 ; disable fan
G90 ; use absolute coordinates
M900 K0.1 ; Set Linear Advance
M83 ; extruder relative mode
M104 S220 ; set extruder temp
M140 S60 ; set bed temp
G28 ; home all
G1 Z2 F240
M190 S60 ; wait for bed temp
M109 S220 ; wait for extruder temp
G1 X219 Y190 F3000
G1 Z0.28 F240
G92 E0.0
G1 Y20 E15.0 F1500.0 ; intro line
M73 Q1 S12
M73 P1 R12
G1 X219.3 F5000
G1 Y190 E30 F1200.0 ; intro line
G92 E0.0
G21 ; set units to millimeters
G90 ; use absolute coordinates
M82 ; use absolute distances for extrusion
G92 E0 ; reset extrusion distance
;BEFORE_LAYER_CHANGE
;0.2
G1 Z0.200 F12000.000 ; move to next layer (0)
;AFTER_LAYER_CHANGE
;0.2
G1 E-1.00000 F3000.00000 ; retract
G92 E0 ; reset extrusion distance
G1 X35.171 Y44.047 F12000.000 ; move to first brim point
G1 E1.00000 F2700.00000 ; unretract
G1 F1080.000
G1 X69.299 Y44.047 E2.14934 ; brim
G1 X70.415 Y44.286 E2.18777 ; brim
G1 X71.500 Y44.835 E2.22873 ; brim
G1 X70.582 Y42.703 E2.30690 ; brim
G1 X69.959 Y40.577 E2.38150 ; brim
G1 X69.602 Y38.420 E2.45515 ; brim
G1 X69.506 Y37.000 E2.50307 ; brim
G1 X69.587 Y34.692 E2.58086 ; brim
G1 X69.914 Y32.614 E2.65169 ; brim
G1 X70.516 Y30.717 E2.71872 ; brim
G1 X71.556 Y29.337 E2.77693 ; brim
G1 X72.813 Y28.410 E2.82951 ; brim
G1 X73.968 Y27.906 E2.87195 ; brim
G1 X74.797 Y27.754 E2.90033 ; brim
G1 X75.628 Y27.752 E2.92832 ; brim
G1 X77.392 Y28.168 E2.98934 ; brim
G1 X78.576 Y28.774 E3.03414 ; brim
G1 X79.193 Y29.302 E3.06150 ; brim
G1 X79.716 Y29.934 E3.08911 ; brim
G1 X80.514 Y31.597 E3.15125 ; brim
G1 X80.765 Y32.628 E3.18696 ; brim
G1 X80.771 Y33.667 E3.22197 ; brim
G1 X80.392 Y35.840 E3.29626 ; brim
G1 X80.366 Y36.658 E3.32380 ; brim
G1 X80.560 Y38.193 E3.37591 ; brim
G1 X80.801 Y39.024 E3.40505 ; brim
G1 X81.173 Y39.884 E3.43662 ; brim
G1 X81.651 Y40.691 E3.46819 ; brim
G1 X82.292 Y41.518 E3.50345 ; brim
G1 X83.355 Y42.704 E3.55709 ; brim
G1 X84.220 Y44.018 E3.61005 ; brim
G1 X85.025 Y45.901 E3.67904 ; brim
G1 X85.429 Y47.896 E3.74758 ; brim
G1 X85.454 Y49.504 E3.80173 ; brim
G1 X85.192 Y51.243 E3.86097 ; brim
G1 X84.666 Y52.818 E3.91688 ; brim
G1 X83.900 Y54.265 E3.97200 ; brim
G1 X82.921 Y55.555 E4.02656 ; brim
G1 X81.710 Y56.702 E4.08274 ; brim
G1 X80.449 Y57.560 E4.13411 ; brim
G1 X79.026 Y58.238 E4.18719 ; brim
G1 X77.303 Y58.723 E4.24748 ; brim
G1 X75.546 Y58.898 E4.30695 ; brim
G1 X26.374 Y58.898 E5.96293 ; brim
G1 X25.449 Y58.853 E5.99414 ; brim
G1 X23.063 Y58.317 E6.07649 ; brim
G1 X21.416 Y57.553 E6.13762 ; brim
G1 X19.932 Y56.509 E6.19875 ; brim
G1 X18.343 Y54.798 E6.27736 ; brim
G1 X17.181 Y52.745 E6.35683 ; brim
G1 X16.565 Y50.671 E6.42968 ; brim
G1 X16.403 Y48.875 E6.49042 ; brim
G1 X16.564 Y47.078 E6.55117 ; brim
G1 X17.161 Y45.046 E6.62251 ; brim
G1 X18.167 Y43.190 E6.69358 ; brim
G1 X19.611 Y41.520 E6.76795 ; brim
G1 X21.380 Y40.208 E6.84212 ; brim
G1 X23.393 Y39.315 E6.91629 ; brim
G1 X25.572 Y38.880 E6.99114 ; brim
G1 X27.488 Y38.900 E7.05566 ; brim
G1 X29.367 Y39.283 E7.12025 ; brim
G1 X31.490 Y40.215 E7.19832 ; brim
G1 X33.237 Y41.509 E7.27154 ; brim
G1 X34.465 Y42.873 E7.33336 ; brim
G1 X35.140 Y43.995 E7.37747 ; brim
G1 X34.945 Y44.444 F12000.000 ; move to first brim point
G1 F1080.000
G1 X69.277 Y44.444 E8.53368 ; brim
G1 X70.303 Y44.668 E8.56904 ; brim
G1 X71.195 Y45.130 E8.60288 ; brim
G1 X72.298 Y46.222 E8.65516 ; brim
G1 X72.830 Y47.261 E8.69445 ; brim
G1 X72.993 Y47.973 E8.71905 ; brim
G1 X73.008 Y48.441 E8.73482 ; brim
G1 X74.495 Y48.440 E8.78491 ; brim
G1 X73.733 Y47.578 E8.82366 ; brim
G1 X72.962 Y46.523 E8.86766 ; brim
G1 X71.829 Y44.594 E8.94302 ; brim
G1 X70.959 Y42.579 E9.01692 ; brim
G1 X70.343 Y40.477 E9.09069 ; brim
G1 X69.995 Y38.365 E9.16280 ; brim
G1 X69.903 Y37.004 E9.20874 ; brim
G1 X69.984 Y34.717 E9.28578 ; brim
G1 X70.297 Y32.720 E9.35388 ; brim
G1 X70.884 Y30.869 E9.41926 ; brim
G1 X71.815 Y29.639 E9.47121 ; brim
G1 X73.030 Y28.743 E9.52206 ; brim
G1 X74.103 Y28.280 E9.56142 ; brim
G1 X74.848 Y28.149 E9.58689 ; brim
G1 X75.604 Y28.149 E9.61235 ; brim
G1 X77.275 Y28.548 E9.67021 ; brim
G1 X78.371 Y29.116 E9.71178 ; brim
G1 X78.921 Y29.592 E9.73626 ; brim
G1 X79.369 Y30.128 E9.75980 ; brim
G1 X80.147 Y31.750 E9.82037 ; brim
G1 X80.373 Y32.697 E9.85318 ; brim
G1 X80.377 Y33.616 E9.88413 ; brim
G1 X79.996 Y35.800 E9.95878 ; brim
G1 X79.968 Y36.676 E9.98832 ; brim
G1 X80.170 Y38.273 E10.04253 ; brim
G1 X80.427 Y39.158 E10.07357 ; brim
G1 X80.819 Y40.065 E10.10682 ; brim
G1 X81.322 Y40.914 E10.14007 ; brim
G1 X81.987 Y41.773 E10.17666 ; brim
G1 X83.032 Y42.936 E10.22931 ; brim
G1 X83.863 Y44.191 E10.28000 ; brim
G1 X84.640 Y46.000 E10.34632 ; brim
G1 X85.036 Y47.957 E10.41354 ; brim
G1 X85.059 Y49.461 E10.46420 ; brim
G1 X84.802 Y51.167 E10.52229 ; brim
G1 X84.295 Y52.676 E10.57590 ; brim
G1 X83.557 Y54.064 E10.62884 ; brim
G1 X82.615 Y55.302 E10.68123 ; brim
G1 X81.449 Y56.402 E10.73523 ; brim
G1 X80.239 Y57.223 E10.78448 ; brim
G1 X78.871 Y57.872 E10.83546 ; brim
G1 X77.213 Y58.336 E10.89346 ; brim
G1 X75.536 Y58.501 E10.95020 ; brim
G1 X26.379 Y58.501 E12.60570 ; brim
G1 X25.485 Y58.457 E12.63584 ; brim
G1 X23.210 Y57.947 E12.71436 ; brim
G1 X21.630 Y57.218 E12.77297 ; brim
G1 X20.177 Y56.196 E12.83278 ; brim
G1 X18.651 Y54.546 E12.90848 ; brim
G1 X17.538 Y52.569 E12.98487 ; brim
G1 X16.959 Y50.616 E13.05350 ; brim
G1 X16.800 Y48.857 E13.11297 ; brim
G1 X16.957 Y47.134 E13.17126 ; brim
G1 X17.520 Y45.216 E13.23854 ; brim
G1 X18.505 Y43.399 E13.30817 ; brim
G1 X19.896 Y41.797 E13.37961 ; brim
G1 X21.598 Y40.541 E13.45085 ; brim
G1 X23.533 Y39.687 E13.52208 ; brim
G1 X25.629 Y39.273 E13.59403 ; brim
G1 X27.464 Y39.296 E13.65583 ; brim
G1 X29.266 Y39.667 E13.71781 ; brim
G1 X31.309 Y40.569 E13.79301 ; brim
G1 X32.955 Y41.789 E13.86202 ; brim
G1 X34.157 Y43.124 E13.92251 ; brim
G1 X34.915 Y44.392 E13.97226 ; brim
G1 X34.719 Y44.841 F12000.000 ; move to first brim point
G1 F1080.000
G1 X69.256 Y44.841 E15.13539 ; brim
G1 X70.147 Y45.034 E15.16609 ; brim
G1 X70.940 Y45.436 E15.19604 ; brim
G1 X71.961 Y46.434 E15.24412 ; brim
G1 X72.449 Y47.375 E15.27980 ; brim
G1 X72.601 Y48.040 E15.30278 ; brim
G1 X72.614 Y48.838 E15.32966 ; brim
G1 X75.378 Y48.837 E15.42277 ; brim
G1 X74.048 Y47.337 E15.49031 ; brim
G1 X73.289 Y46.297 E15.53365 ; brim
G1 X72.178 Y44.403 E15.60760 ; brim
G1 X71.337 Y42.456 E15.67903 ; brim
G1 X70.728 Y40.377 E15.75198 ; brim
G1 X70.388 Y38.310 E15.82255 ; brim
G1 X70.300 Y37.007 E15.86651 ; brim
G1 X70.380 Y34.744 E15.94279 ; brim
G1 X70.687 Y32.797 E16.00917 ; brim
G1 X71.251 Y31.023 E16.07184 ; brim
G1 X72.111 Y29.905 E16.11936 ; brim
G1 X73.245 Y29.078 E16.16662 ; brim
G1 X74.237 Y28.655 E16.20291 ; brim
G1 X74.897 Y28.543 E16.22547 ; brim
G1 X75.578 Y28.546 E16.24843 ; brim
G1 X77.158 Y28.928 E16.30314 ; brim
G1 X78.166 Y29.456 E16.34146 ; brim
G1 X78.628 Y29.860 E16.36215 ; brim
G1 X79.022 Y30.324 E16.38264 ; brim
G1 X79.780 Y31.903 E16.44161 ; brim
G1 X79.977 Y32.723 E16.47003 ; brim
G1 X79.982 Y33.566 E16.49841 ; brim
G1 X79.600 Y35.759 E16.57339 ; brim
G1 X79.570 Y36.695 E16.60493 ; brim
G1 X79.780 Y38.354 E16.66125 ; brim
G1 X80.053 Y39.293 E16.69418 ; brim
G1 X80.464 Y40.245 E16.72911 ; brim
G1 X80.993 Y41.138 E16.76405 ; brim
G1 X81.683 Y42.028 E16.80198 ; brim
G1 X82.710 Y43.168 E16.85365 ; brim
G1 X83.505 Y44.364 E16.90204 ; brim
G1 X84.267 Y46.138 E16.96704 ; brim
G1 X84.643 Y48.017 E17.03157 ; brim
G1 X84.664 Y49.418 E17.07876 ; brim
G1 X84.412 Y51.090 E17.13571 ; brim
G1 X83.924 Y52.533 E17.18700 ; brim
G1 X83.215 Y53.862 E17.23775 ; brim
G1 X82.310 Y55.048 E17.28797 ; brim
G1 X81.189 Y56.102 E17.33979 ; brim
G1 X80.030 Y56.885 E17.38692 ; brim
G1 X78.717 Y57.506 E17.43581 ; brim
G1 X77.123 Y57.949 E17.49152 ; brim
G1 X75.527 Y58.103 E17.54555 ; brim
G1 X26.384 Y58.103 E19.20056 ; brim
G1 X25.521 Y58.061 E19.22965 ; brim
G1 X23.357 Y57.578 E19.30434 ; brim
G1 X21.813 Y56.865 E19.36161 ; brim
G1 X20.424 Y55.884 E19.41888 ; brim
G1 X18.959 Y54.294 E19.49168 ; brim
G1 X17.896 Y52.395 E19.56499 ; brim
G1 X17.352 Y50.560 E19.62945 ; brim
G1 X17.197 Y48.875 E19.68643 ; brim
G1 X17.351 Y47.189 E19.74344 ; brim
G1 X17.894 Y45.350 E19.80804 ; brim
G1 X18.843 Y43.608 E19.87482 ; brim
G1 X20.180 Y42.075 E19.94335 ; brim
G1 X21.815 Y40.874 E20.01164 ; brim
G1 X23.672 Y40.059 E20.07995 ; brim
G1 X25.644 Y39.671 E20.14764 ; brim
G1 X27.439 Y39.693 E20.20811 ; brim
G1 X29.165 Y40.052 E20.26744 ; brim
G1 X31.128 Y40.923 E20.33978 ; brim
G1 X32.673 Y42.069 E20.40459 ; brim
G1 X33.848 Y43.375 E20.46375 ; brim
G1 X34.689 Y44.789 E20.51914 ; brim
G1 X34.492 Y45.238 F12000.000 ; move to first brim point
G1 F1080.000
G1 X69.235 Y45.238 E21.68921 ; brim
G1 X69.991 Y45.399 E21.71522 ; brim
G1 X70.732 Y45.776 E21.74324 ; brim
G1 X71.659 Y46.693 E21.78714 ; brim
G1 X72.067 Y47.487 E21.81721 ; brim
G1 X72.209 Y48.107 E21.83862 ; brim
G1 X72.218 Y49.235 E21.87662 ; brim
G1 X75.247 Y49.234 E21.97863 ; brim
G1 X75.575 Y49.172 E21.98986 ; brim
G1 X75.714 Y49.064 E21.99579 ; brim
G1 X75.805 Y48.846 E22.00375 ; brim
G1 X75.720 Y48.648 E22.01100 ; brim
G1 X75.621 Y48.513 E22.01663 ; brim
G1 X74.351 Y47.080 E22.08112 ; brim
G1 X73.626 Y46.088 E22.12251 ; brim
G1 X72.526 Y44.213 E22.19571 ; brim
G1 X71.706 Y42.310 E22.26549 ; brim
G1 X71.118 Y40.301 E22.33600 ; brim
G1 X70.782 Y38.255 E22.40584 ; brim
G1 X70.697 Y37.011 E22.44781 ; brim
G1 X70.776 Y34.770 E22.52334 ; brim
G1 X71.077 Y32.873 E22.58803 ; brim
G1 X71.589 Y31.235 E22.64581 ; brim
G1 X72.370 Y30.207 E22.68930 ; brim
G1 X73.424 Y29.433 E22.73333 ; brim
G1 X74.327 Y29.042 E22.76646 ; brim
G1 X74.945 Y28.937 E22.78759 ; brim
G1 X75.551 Y28.943 E22.80799 ; brim
G1 X77.039 Y29.308 E22.85959 ; brim
G1 X77.923 Y29.771 E22.89319 ; brim
G1 X78.335 Y30.129 E22.91159 ; brim
G1 X78.702 Y30.561 E22.93068 ; brim
G1 X79.412 Y32.053 E22.98631 ; brim
G1 X79.585 Y32.790 E23.01182 ; brim
G1 X79.585 Y33.548 E23.03733 ; brim
G1 X79.204 Y35.718 E23.11154 ; brim
G1 X79.172 Y36.714 E23.14509 ; brim
G1 X79.390 Y38.435 E23.20351 ; brim
G1 X79.678 Y39.428 E23.23834 ; brim
G1 X80.110 Y40.426 E23.27495 ; brim
G1 X80.663 Y41.362 E23.31157 ; brim
G1 X81.378 Y42.283 E23.35085 ; brim
G1 X82.388 Y43.401 E23.40157 ; brim
G1 X83.148 Y44.539 E23.44766 ; brim
G1 X83.882 Y46.237 E23.50995 ; brim
G1 X84.250 Y48.077 E23.57315 ; brim
G1 X84.269 Y49.375 E23.61689 ; brim
G1 X84.030 Y50.981 E23.67154 ; brim
G1 X83.566 Y52.361 E23.72057 ; brim
G1 X82.872 Y53.661 E23.77020 ; brim
G1 X82.005 Y54.793 E23.81824 ; brim
G1 X80.929 Y55.801 E23.86788 ; brim
G1 X79.821 Y56.547 E23.91289 ; brim
G1 X78.564 Y57.139 E23.95968 ; brim
G1 X77.035 Y57.562 E24.01310 ; brim
G1 X75.517 Y57.706 E24.06443 ; brim
G1 X26.389 Y57.706 E25.71897 ; brim
G1 X25.558 Y57.665 E25.74700 ; brim
G1 X23.504 Y57.208 E25.81785 ; brim
G1 X21.996 Y56.513 E25.87379 ; brim
G1 X20.671 Y55.573 E25.92849 ; brim
G1 X19.267 Y54.043 E25.99841 ; brim
G1 X18.270 Y52.260 E26.06720 ; brim
G1 X17.746 Y50.503 E26.12897 ; brim
G1 X17.594 Y48.893 E26.18344 ; brim
G1 X17.745 Y47.245 E26.23915 ; brim
G1 X18.269 Y45.483 E26.30106 ; brim
G1 X19.181 Y43.818 E26.36501 ; brim
G1 X20.434 Y42.381 E26.42921 ; brim
G1 X21.995 Y41.228 E26.49458 ; brim
G1 X23.771 Y40.444 E26.55996 ; brim
G1 X25.661 Y40.068 E26.62485 ; brim
G1 X27.378 Y40.086 E26.68266 ; brim
G1 X29.063 Y40.436 E26.74062 ; brim
G1 X30.946 Y41.276 E26.81007 ; brim
G1 X32.391 Y42.350 E26.87070 ; brim
G1 X33.540 Y43.626 E26.92852 ; brim
G1 X34.462 Y45.186 E26.98956 ; brim
G1 X34.265 Y45.635 F12000.000 ; move to first brim point
G1 F1080.000
G1 X69.213 Y45.635 E28.16655 ; brim
G1 X69.879 Y45.781 E28.18949 ; brim
G1 X70.521 Y46.114 E28.21386 ; brim
G1 X71.355 Y46.951 E28.25363 ; brim
G1 X71.686 Y47.602 E28.27826 ; brim
G1 X71.812 Y48.133 E28.29663 ; brim
G1 X71.824 Y49.632 E28.34712 ; brim
G1 X75.285 Y49.631 E28.46367 ; brim
G1 X75.695 Y49.553 E28.47774 ; brim
G1 X75.894 Y49.444 E28.48539 ; brim
G1 X76.050 Y49.278 E28.49304 ; brim
G1 X76.184 Y48.993 E28.50366 ; brim
G1 X76.186 Y48.726 E28.51264 ; brim
G1 X76.067 Y48.450 E28.52276 ; brim
G1 X75.931 Y48.264 E28.53052 ; brim
G1 X74.655 Y46.824 E28.59533 ; brim
G1 X73.964 Y45.878 E28.63477 ; brim
G1 X72.875 Y44.023 E28.70722 ; brim
G1 X72.076 Y42.164 E28.77535 ; brim
G1 X71.507 Y40.225 E28.84342 ; brim
G1 X71.175 Y38.199 E28.91254 ; brim
G1 X71.094 Y37.015 E28.95253 ; brim
G1 X71.171 Y34.820 E29.02649 ; brim
G1 X71.467 Y32.948 E29.09032 ; brim
G1 X71.928 Y31.445 E29.14326 ; brim
G1 X72.629 Y30.510 E29.18264 ; brim
G1 X73.641 Y29.766 E29.22492 ; brim
G1 X74.419 Y29.429 E29.25347 ; brim
G1 X74.961 Y29.335 E29.27198 ; brim
G1 X75.524 Y29.340 E29.29096 ; brim
G1 X76.920 Y29.687 E29.33940 ; brim
G1 X77.680 Y30.086 E29.36831 ; brim
G1 X78.063 Y30.419 E29.38540 ; brim
G1 X78.382 Y30.797 E29.40205 ; brim
G1 X79.043 Y32.202 E29.45435 ; brim
G1 X79.192 Y32.855 E29.47692 ; brim
G1 X79.189 Y33.528 E29.49959 ; brim
G1 X78.808 Y35.677 E29.57308 ; brim
G1 X78.774 Y36.733 E29.60865 ; brim
G1 X79.000 Y38.516 E29.66918 ; brim
G1 X79.304 Y39.563 E29.70590 ; brim
G1 X79.755 Y40.606 E29.74420 ; brim
G1 X80.334 Y41.585 E29.78250 ; brim
G1 X81.074 Y42.539 E29.82313 ; brim
G1 X82.067 Y43.634 E29.87291 ; brim
G1 X82.791 Y44.713 E29.91669 ; brim
G1 X83.509 Y46.375 E29.97764 ; brim
G1 X83.857 Y48.136 E30.03810 ; brim
G1 X83.873 Y49.333 E30.07844 ; brim
G1 X83.648 Y50.871 E30.13078 ; brim
G1 X83.195 Y52.218 E30.17863 ; brim
G1 X82.530 Y53.459 E30.22603 ; brim
G1 X81.700 Y54.538 E30.27188 ; brim
G1 X80.670 Y55.500 E30.31934 ; brim
G1 X79.612 Y56.209 E30.36224 ; brim
G1 X78.411 Y56.772 E30.40693 ; brim
G1 X76.947 Y57.174 E30.45806 ; brim
G1 X75.508 Y57.309 E30.50672 ; brim
G1 X26.394 Y57.309 E32.16078 ; brim
M73 Q10 S11
M73 P10 R11
G1 X25.594 Y57.270 E32.18775 ; brim
G1 X23.650 Y56.838 E32.25480 ; brim
G1 X22.210 Y56.178 E32.30816 ; brim
G1 X20.918 Y55.261 E32.36152 ; brim
G1 X19.602 Y53.828 E32.42703 ; brim
G1 X18.644 Y52.125 E32.49286 ; brim
G1 X18.139 Y50.446 E32.55190 ; brim
G1 X17.991 Y48.874 E32.60507 ; brim
G1 X18.138 Y47.302 E32.65824 ; brim
G1 X18.643 Y45.618 E32.71745 ; brim
G1 X19.518 Y44.029 E32.77855 ; brim
G1 X20.718 Y42.659 E32.83986 ; brim
G1 X22.213 Y41.561 E32.90233 ; brim
G1 X23.871 Y40.829 E32.96338 ; brim
G1 X25.678 Y40.465 E33.02545 ; brim
G1 X27.354 Y40.483 E33.08190 ; brim
G1 X28.960 Y40.820 E33.13716 ; brim
G1 X30.763 Y41.630 E33.20374 ; brim
G1 X32.109 Y42.630 E33.26022 ; brim
G1 X33.231 Y43.876 E33.31669 ; brim
G1 X34.234 Y45.583 E33.38337 ; brim
G1 X33.986 Y46.074 F12000.000 ; move to first brim point
G1 F1080.000
G1 X34.240 Y46.032 E33.39204 ; brim
G1 X69.190 Y46.032 E34.56910 ; brim
G1 X69.764 Y46.162 E34.58890 ; brim
G1 X70.309 Y46.450 E34.60966 ; brim
G1 X71.015 Y47.159 E34.64334 ; brim
G1 X71.321 Y47.760 E34.66606 ; brim
G1 X71.420 Y48.198 E34.68120 ; brim
G1 X71.428 Y50.029 E34.74288 ; brim
G1 X75.323 Y50.028 E34.87403 ; brim
G1 X75.831 Y49.931 E34.89148 ; brim
G1 X76.141 Y49.761 E34.90336 ; brim
G1 X76.382 Y49.504 E34.91524 ; brim
G1 X76.573 Y49.098 E34.93034 ; brim
G1 X76.594 Y48.768 E34.94148 ; brim
G1 X76.560 Y48.590 E34.94759 ; brim
G1 X76.414 Y48.252 E34.95998 ; brim
G1 X76.241 Y48.015 E34.96987 ; brim
G1 X74.958 Y46.567 E35.03502 ; brim
G1 X74.301 Y45.668 E35.07251 ; brim
G1 X73.224 Y43.833 E35.14420 ; brim
G1 X72.446 Y42.019 E35.21067 ; brim
G1 X71.897 Y40.148 E35.27632 ; brim
G1 X71.568 Y38.144 E35.34470 ; brim
G1 X71.492 Y37.018 E35.38273 ; brim
