;FLAVOR:Marlin
;TIME:2258
;Filament used: 2.61183m
;Layer height: 0.28
;MINX:104.917
;MINY:70.672
;MINZ:0.24
;MAXX:153.692
;MAXY:144.405
;MAXZ:18.44
;Generated with Cura_SteamEngine 4.6.1
M82 ;absolute extrusion mode
M201 X500.00 Y500.00 Z100.00 E5000.00 ;Setup machine max acceleration
M203 X500.00 Y500.00 Z10.00 E50.00 ;Setup machine max feedrate
M204 P500.00 R1000.00 T500.00 ;Setup Print/Retract/Travel acceleration
M205 X8.00 Y8.00 Z0.40 E5.00 ;Setup Jerk
M220 S100 ;Reset Feedrate
M221 S100 ;Reset Flowrate

G90
M140 S50; start preheating the bed
M104 S220 T0; start preheating hotend
G28 ;Home
G1 Z2.0 F3000 ;Move Z Axis up
M190 S50; heat to bed setting in Cura and WAIT
M109 S220 T0; heat hotend to setting in Cura and WAIT


G92 E0 ;Reset Extruder
G1 Z2.0 F3000 ;Move Z Axis up
G1 X2.1 Y20 Z0.28 F5000.0 ;Move to start position
G1 X2.1 Y200.0 Z0.28 F1500.0 E15 ;Draw the first line
G1 X2.4 Y200.0 Z0.28 F5000.0 ;Move to side a little
G1 X2.4 Y20 Z0.28 F1500.0 E30 ;Draw the second line
G92 E0 ;Reset Extruder
G1 Z2.0 F3000 ;Move Z Axis up
G92 E0
G92 E0
G1 F3000 E-6.5
;LAYER_COUNT:66
;LAYER:0
M107
M204 S500
G0 F6000 X112.167 Y72.401 Z0.24
;TYPE:SKIRT
G1 F2700 E0
G1 F2400 X112.304 Y72.209 E0.01059
G1 X112.793 Y71.677 E0.04304
G1 X112.971 Y71.526 E0.05352
G1 X113.364 Y71.245 E0.07521
G1 X113.584 Y71.126 E0.08644
G1 X113.798 Y71.022 E0.09712
G1 X114.449 Y70.796 E0.12807
G1 X114.681 Y70.745 E0.13873
G1 X115.281 Y70.677 E0.16585
G1 X115.811 Y70.672 E0.18964
G1 X116.293 Y70.708 E0.21135
G1 X116.708 Y70.804 E0.23047
G1 X116.962 Y70.883 E0.24242
G1 X117.41 Y71.064 E0.26411
G1 X117.809 Y71.307 E0.28509
G1 X117.896 Y71.37 E0.28991
G1 X118.262 Y71.685 E0.31159
G1 X118.695 Y72.246 E0.34341
G1 X118.803 Y72.428 E0.35292
G1 X119.015 Y72.863 E0.37464
G1 X119.097 Y73.107 E0.3862
G1 X119.311 Y73.846 E0.42075
G1 X120.655 Y78.42 E0.63481
G1 X120.752 Y78.893 E0.65649
G1 X120.773 Y79.22 E0.6712
G1 X121.084 Y116.704 E2.35434
G1 X121.102 Y118.005 E2.41276
G1 X121.128 Y122.031 E2.59353
G1 X121.084 Y122.557 E2.61723
G1 X120.897 Y123.596 E2.66464
G1 X120.788 Y124.54 E2.7073
G1 X120.748 Y125.485 E2.74977
G1 X120.773 Y126.449 E2.79307
G1 X120.867 Y127.406 E2.83625
G1 X121.029 Y128.362 E2.87979
G1 X121.252 Y129.282 E2.92229
G1 X121.542 Y130.196 E2.96535
G1 X121.588 Y130.306 E2.9707
G1 X121.905 Y131.128 E3.01026
G1 X122.041 Y131.592 E3.03197
G1 X122.09 Y131.936 E3.04757
G1 X122.119 Y132.284 E3.06325
G1 X122.201 Y132.817 E3.08747
G1 X122.293 Y133.128 E3.10203
G1 X122.439 Y133.468 E3.11864
G1 X122.622 Y133.783 E3.135
G1 X122.841 Y134.077 E3.15146
G1 X123.086 Y134.338 E3.16754
G1 X123.367 Y134.573 E3.18398
G1 X123.673 Y134.774 E3.20042
G1 X124.001 Y134.939 E3.21691
G1 X124.344 Y135.064 E3.2333
G1 X124.691 Y135.146 E3.24931
G1 X125.062 Y135.19 E3.26609
G1 X125.415 Y135.19 E3.28194
G1 X125.784 Y135.146 E3.29862
G1 X126.132 Y135.064 E3.31467
G1 X126.476 Y134.939 E3.33111
G1 X126.808 Y134.772 E3.3478
G1 X127.11 Y134.573 E3.36404
G1 X127.389 Y134.34 E3.38036
G1 X127.632 Y134.081 E3.3963
G1 X127.855 Y133.782 E3.41305
G1 X128.04 Y133.462 E3.42965
G1 X128.183 Y133.132 E3.4458
G1 X128.285 Y132.789 E3.46186
G1 X128.349 Y132.424 E3.4785
G1 X128.376 Y131.974 E3.49875
G1 X128.375 Y131.289 E3.5295
G1 X128.376 Y87.563 E5.49285
G1 X128.416 Y87.081 E5.51457
G1 X128.535 Y86.613 E5.53625
G1 X128.729 Y86.17 E5.55797
G1 X128.993 Y85.766 E5.57964
G1 X129.321 Y85.41 E5.60137
G1 X129.702 Y85.113 E5.62306
G1 X130.128 Y84.884 E5.64478
G1 X130.585 Y84.727 E5.66648
G1 X131.301 Y84.638 E5.69887
G1 X150.767 Y84.638 E6.57292
G1 X151.249 Y84.678 E6.59464
G1 X151.717 Y84.797 E6.61632
G1 X152.16 Y84.991 E6.63803
G1 X152.564 Y85.255 E6.6597
G1 X152.92 Y85.583 E6.68144
G1 X153.216 Y85.964 E6.7031
G1 X153.446 Y86.39 E6.72484
G1 X153.603 Y86.847 E6.74654
G1 X153.692 Y87.563 E6.77893
G1 X153.692 Y91.038 E6.93496
G1 X153.644 Y91.566 E6.95877
G1 X153.57 Y91.969 E6.97717
G1 X153.444 Y92.436 E6.99889
G1 X153.26 Y92.844 E7.01898
G1 X152.947 Y93.333 E7.04505
G1 X152.618 Y93.687 E7.06675
G1 X152.235 Y93.983 E7.08849
G1 X151.809 Y94.211 E7.11018
G1 X151.351 Y94.366 E7.13189
G1 X150.654 Y94.452 E7.16342
G1 X147.588 Y94.46 E7.30109
G1 X145.997 Y94.455 E7.37253
G1 X142.503 Y94.454 E7.52942
G1 X142.178 Y94.473 E7.54403
G1 X141.846 Y94.526 E7.55913
G1 X141.556 Y94.608 E7.57266
G1 X141.282 Y94.722 E7.58599
G1 X141.012 Y94.873 E7.59988
G1 X140.767 Y95.051 E7.61347
G1 X140.545 Y95.256 E7.62704
G1 X140.341 Y95.494 E7.64112
G1 X140.174 Y95.742 E7.65454
G1 X140.033 Y96.017 E7.66842
G1 X139.929 Y96.297 E7.68183
G1 X139.856 Y96.595 E7.69561
G1 X139.809 Y96.971 E7.71262
G1 X139.773 Y97.663 E7.74373
G1 X138.39 Y127.181 E9.07058
G1 X138.338 Y128.42 E9.12626
G1 X138.158 Y132.134 E9.29322
G1 X138.161 Y132.738 E9.32034
G1 X138.154 Y133.061 E9.33485
G1 X138.138 Y133.3 E9.3456
G1 X138.036 Y134.24 E9.38806
G1 X137.986 Y134.545 E9.40194
G1 X137.785 Y135.47 E9.44444
G1 X137.706 Y135.761 E9.45798
G1 X137.412 Y136.657 E9.50032
G1 X137.301 Y136.944 E9.51414
G1 X136.914 Y137.805 E9.55652
G1 X136.773 Y138.078 E9.57032
G1 X136.297 Y138.895 E9.61278
G1 X136.128 Y139.154 E9.62666
G1 X135.568 Y139.917 E9.66916
G1 X135.372 Y140.156 E9.68304
G1 X134.737 Y140.853 E9.72537
G1 X134.524 Y141.064 E9.73884
G1 X133.819 Y141.694 E9.78129
G1 X133.576 Y141.889 E9.79528
G1 X132.807 Y142.441 E9.83778
G1 X132.55 Y142.606 E9.8515
G1 X131.731 Y143.073 E9.89383
G1 X131.452 Y143.213 E9.90784
G1 X130.586 Y143.591 E9.95027
G1 X130.301 Y143.698 E9.96394
G1 X129.4 Y143.984 E10.00639
G1 X129.108 Y144.06 E10.01993
G1 X128.181 Y144.252 E10.06244
G1 X127.873 Y144.299 E10.07643
G1 X126.933 Y144.391 E10.11884
G1 X126.626 Y144.405 E10.13264
G1 X125.681 Y144.398 E10.17507
G1 X125.378 Y144.38 E10.1887
G1 X124.439 Y144.275 E10.23112
G1 X124.13 Y144.224 E10.24519
G1 X123.206 Y144.019 E10.28768
G1 X122.918 Y143.939 E10.30111
G1 X122.021 Y143.641 E10.34355
G1 X121.731 Y143.527 E10.35754
G1 X120.872 Y143.136 E10.39992
G1 X120.6 Y142.995 E10.41367
G1 X119.788 Y142.517 E10.45598
G1 X119.531 Y142.346 E10.46984
G1 X118.771 Y141.783 E10.51231
G1 X118.535 Y141.589 E10.52603
G1 X117.837 Y140.949 E10.56855
G1 X117.62 Y140.728 E10.58245
G1 X116.993 Y140.017 E10.62502
G1 X116.805 Y139.779 E10.63864
G1 X116.257 Y139.01 E10.68104
G1 X116.092 Y138.751 E10.69483
G1 X115.628 Y137.929 E10.73721
G1 X115.49 Y137.652 E10.7511
G1 X115.115 Y136.785 E10.79352
G1 X115.008 Y136.498 E10.80727
G1 X114.727 Y135.6 E10.84952
G1 X114.652 Y135.307 E10.8631
G1 X114.464 Y134.379 E10.90562
G1 X114.428 Y134.156 E10.91576
G1 X114.389 Y133.82 E10.93095
G1 X114.329 Y133.119 E10.96254
G1 X114.318 Y132.875 E10.97351
G1 X114.314 Y130.346 E11.08706
G1 X114.321 Y128.673 E11.16218
G1 X114.294 Y128.223 E11.18242
G1 X114.246 Y127.918 E11.19629
G1 X114.147 Y127.528 E11.21435
G1 X113.963 Y127.028 E11.23828
G1 X112.392 Y123.53 E11.41045
G1 X111.493 Y121.505 E11.50994
G1 X105.212 Y107.448 E12.20125
G1 X105.052 Y106.992 E12.22295
G1 X104.989 Y106.679 E12.23729
G1 X104.947 Y106.392 E12.25031
G1 X104.917 Y105.909 E12.27204
G1 X104.966 Y105.428 E12.29375
G1 X105.094 Y104.962 E12.31545
G1 X105.333 Y104.463 E12.34029
G1 X105.465 Y104.243 E12.35181
G1 X105.747 Y103.851 E12.37349
G1 X106.09 Y103.51 E12.39521
G1 X106.405 Y103.279 E12.41275
G1 X106.605 Y103.152 E12.42339
G1 X107.033 Y102.927 E12.4451
G1 X107.492 Y102.776 E12.4668
G1 X108.048 Y102.699 E12.492
G1 X108.758 Y102.671 E12.5239
G1 X113.375 Y102.672 E12.73121
G1 X113.376 Y89.53 E13.3213
G1 X113.044 Y89.242 E13.34104
G1 X112.891 Y89.073 E13.35128
G1 X112.486 Y88.5 E13.38278
G1 X112.372 Y88.289 E13.39355
G1 X112.11 Y87.621 E13.42577
G1 X112.054 Y87.401 E13.43596
G1 X111.964 Y86.691 E13.4681
G1 X111.963 Y86.452 E13.47883
G1 X112.045 Y85.752 E13.51047
G1 X112.099 Y85.529 E13.52078
G1 X112.218 Y85.209 E13.53611
G1 X112.096 Y84.913 E13.55048
G1 X112.017 Y84.679 E13.56157
G1 X111.9 Y84.209 E13.58332
G1 X111.869 Y83.933 E13.59579
G1 X111.853 Y83.687 E13.60686
G1 X111.862 Y83.204 E13.62855
G1 X111.901 Y82.937 E13.64067
G1 X111.95 Y82.686 E13.65215
G1 X112.082 Y82.22 E13.6739
G1 X111.905 Y81.681 E13.69937
G1 X111.788 Y81.211 E13.72112
G1 X111.757 Y80.935 E13.73359
G1 X111.741 Y80.689 E13.74466
G1 X111.75 Y80.206 E13.76635
G1 X111.791 Y79.928 E13.77896
G1 X111.841 Y79.677 E13.79046
G1 X111.975 Y79.212 E13.81218
G1 X111.794 Y78.687 E13.83712
G1 X111.677 Y78.218 E13.85882
G1 X111.645 Y77.938 E13.87148
G1 X111.629 Y77.692 E13.88255
G1 X111.638 Y77.209 E13.90424
G1 X111.677 Y76.942 E13.91635
G1 X111.726 Y76.691 E13.92784
G1 X111.858 Y76.225 E13.94958
G1 X111.81 Y76.056 E13.95747
G1 X111.724 Y75.831 E13.96829
G1 X111.589 Y75.367 E13.98999
G1 X111.549 Y75.114 E14.00149
G1 X111.523 Y74.883 E14.01192
G1 X111.527 Y74.196 E14.04277
G1 X111.556 Y73.962 E14.05336
G1 X111.655 Y73.489 E14.07506
G1 X111.744 Y73.234 E14.08718
G1 X111.833 Y73.012 E14.09792
G1 X111.884 Y72.919 E14.10269
G0 F2160 X112.167 Y72.401
G0 F6000 X112.533 Y72.662
G1 F2400 X112.67 Y72.47 E14.11328
G1 X113.084 Y72.021 E14.1407
G1 X113.262 Y71.87 E14.15118
G1 X113.781 Y71.531 E14.17902
G1 X113.995 Y71.427 E14.1897
G1 X114.546 Y71.236 E14.21588
G1 X114.778 Y71.185 E14.22655
G1 X115.286 Y71.127 E14.24951
G1 X115.816 Y71.122 E14.27331
G1 X116.259 Y71.158 E14.29326
G1 X116.574 Y71.234 E14.30781
G1 X116.828 Y71.313 E14.31976
G1 X117.239 Y71.482 E14.33971
G1 X117.545 Y71.671 E14.35586
G1 X117.632 Y71.734 E14.36068
G1 X117.967 Y72.026 E14.38064
G1 X118.308 Y72.476 E14.40599
G1 X118.416 Y72.658 E14.41549
G1 X118.665 Y73.232 E14.44358
G1 X118.88 Y73.973 E14.47823
G1 X120.223 Y78.547 E14.69228
G1 X120.309 Y78.983 E14.71223
G1 X120.323 Y79.223 E14.72302
G1 X120.634 Y116.71 E16.40629
G1 X120.652 Y118.011 E16.46472
G1 X120.678 Y122.034 E16.64536
G1 X120.641 Y122.479 E16.66541
G1 X120.496 Y123.303 E16.70297
G1 X120.453 Y123.518 E16.71282
G1 X120.34 Y124.496 E16.75702
G1 X120.297 Y125.493 E16.80183
G1 X120.324 Y126.477 E16.84603
G1 X120.421 Y127.468 E16.89074
G1 X120.586 Y128.444 E16.93519
G1 X120.82 Y129.409 E16.97977
G1 X121.121 Y130.357 E17.02443
G1 X121.172 Y130.479 E17.03037
G1 X121.485 Y131.29 E17.0694
G1 X121.607 Y131.717 E17.08934
G1 X121.641 Y131.973 E17.10094
G1 X121.671 Y132.332 E17.11711
G1 X121.76 Y132.914 E17.14355
G1 X121.871 Y133.288 E17.16107
G1 X122.035 Y133.668 E17.17965
G1 X122.245 Y134.031 E17.19848
G1 X122.49 Y134.36 E17.2169
G1 X122.782 Y134.67 E17.23602
G1 X123.102 Y134.938 E17.25476
G1 X123.444 Y135.163 E17.27314
G1 X123.821 Y135.352 E17.29208
G1 X124.215 Y135.496 E17.31092
G1 X124.612 Y135.59 E17.32924
G1 X125.034 Y135.64 E17.34832
G1 X125.442 Y135.64 E17.36664
G1 X125.864 Y135.59 E17.38572
G1 X126.261 Y135.496 E17.40404
G1 X126.652 Y135.354 E17.42271
G1 X127.034 Y135.162 E17.44191
G1 X127.38 Y134.934 E17.46052
G1 X127.692 Y134.673 E17.47878
G1 X127.983 Y134.364 E17.49784
G1 X128.232 Y134.029 E17.51658
G1 X128.441 Y133.668 E17.53531
G1 X128.607 Y133.285 E17.55405
G1 X128.723 Y132.895 E17.57232
G1 X128.796 Y132.476 E17.59142
G1 X128.826 Y131.973 E17.61405
G1 X128.825 Y131.288 E17.6448
G1 X128.826 Y87.563 E19.60811
G1 X128.866 Y87.12 E19.62808
G1 X128.984 Y86.692 E19.64801
G1 X129.178 Y86.291 E19.66802
G1 X129.439 Y85.932 E19.68795
G1 X129.761 Y85.625 E19.70792
G1 X130.133 Y85.381 E19.7279
G1 X130.542 Y85.207 E19.74785
G1 X130.975 Y85.11 E19.76778
G1 X131.301 Y85.088 E19.78245
G1 X150.767 Y85.088 E20.6565
G1 X151.21 Y85.128 E20.67647
G1 X151.638 Y85.246 E20.6964
G1 X152.039 Y85.44 E20.71641
G1 X152.398 Y85.701 E20.73633
G1 X152.705 Y86.023 E20.75631
G1 X152.949 Y86.394 E20.77625
G1 X153.123 Y86.804 E20.79625
G1 X153.22 Y87.237 E20.81617
G1 X153.242 Y87.563 E20.83084
G1 X153.242 Y91.038 E20.98687
G1 X153.201 Y91.485 E21.00703
G1 X153.127 Y91.888 E21.02543
G1 X153.008 Y92.316 E21.04537
G1 X152.865 Y92.628 E21.06078
G1 X152.57 Y93.083 E21.08513
G1 X152.261 Y93.402 E21.10507
G1 X151.9 Y93.661 E21.12502
G1 X151.498 Y93.851 E21.14499
G1 X151.068 Y93.966 E21.16497
G1 X150.652 Y94.002 E21.18372
G1 X147.586 Y94.01 E21.32139
G1 X145.998 Y94.005 E21.39269
G1 X142.493 Y94.004 E21.55007
G1 X142.12 Y94.026 E21.56685
G1 X141.748 Y94.086 E21.58377
G1 X141.414 Y94.179 E21.59934
G1 X141.081 Y94.318 E21.61554
G1 X140.77 Y94.493 E21.63156
G1 X140.482 Y94.702 E21.64754
G1 X140.219 Y94.945 E21.66362
G1 X139.986 Y95.216 E21.67967
G1 X139.783 Y95.518 E21.696
G1 X139.621 Y95.834 E21.71195
G1 X139.497 Y96.167 E21.7279
G1 X139.413 Y96.511 E21.7438
G1 X139.362 Y96.921 E21.76236
G1 X139.324 Y97.639 E21.79464
G1 X137.94 Y127.16 E23.12162
G1 X137.889 Y128.401 E23.17739
G1 X137.707 Y132.115 E23.34436
G1 X137.711 Y132.741 E23.37246
G1 X137.704 Y133.049 E23.3863
G1 X137.691 Y133.251 E23.39539
G1 X137.589 Y134.191 E23.43784
G1 X137.547 Y134.45 E23.44962
G1 X137.346 Y135.375 E23.49213
G1 X137.279 Y135.621 E23.50357
G1 X136.985 Y136.517 E23.54592
G1 X136.89 Y136.76 E23.55763
G1 X136.503 Y137.621 E23.60002
G1 X136.385 Y137.852 E23.61166
G1 X135.909 Y138.669 E23.65412
G1 X135.765 Y138.887 E23.66585
G1 X135.205 Y139.65 E23.70835
G1 X135.04 Y139.853 E23.72009
G1 X134.405 Y140.55 E23.76243
G1 X134.224 Y140.728 E23.77383
G1 X133.519 Y141.358 E23.81628
G1 X133.313 Y141.524 E23.82816
G1 X132.544 Y142.076 E23.87066
G1 X132.327 Y142.215 E23.88224
G1 X131.508 Y142.682 E23.92457
G1 X131.272 Y142.8 E23.93642
G1 X130.406 Y143.178 E23.97884
G1 X130.165 Y143.269 E23.99041
G1 X129.264 Y143.555 E24.03286
G1 X129.017 Y143.62 E24.04432
G1 X128.09 Y143.812 E24.08683
G1 X127.829 Y143.851 E24.09868
G1 X126.889 Y143.943 E24.14109
G1 X126.63 Y143.955 E24.15273
G1 X125.685 Y143.948 E24.19516
G1 X125.428 Y143.933 E24.20672
G1 X124.489 Y143.828 E24.24915
G1 X124.228 Y143.784 E24.26103
G1 X123.304 Y143.579 E24.30353
G1 X123.06 Y143.512 E24.31489
G1 X122.163 Y143.214 E24.35733
G1 X121.918 Y143.118 E24.36915
G1 X121.059 Y142.727 E24.41152
G1 X120.828 Y142.607 E24.42321
G1 X120.016 Y142.129 E24.46552
G1 X119.799 Y141.985 E24.47721
G1 X119.039 Y141.422 E24.51968
G1 X118.839 Y141.257 E24.53132
G1 X118.141 Y140.617 E24.57385
G1 X117.958 Y140.43 E24.58559
G1 X117.331 Y139.719 E24.62816
G1 X117.171 Y139.518 E24.63969
G1 X116.623 Y138.749 E24.68209
G1 X116.484 Y138.53 E24.69374
G1 X116.02 Y137.708 E24.73612
G1 X115.903 Y137.474 E24.74787
G1 X115.528 Y136.607 E24.79029
G1 X115.438 Y136.363 E24.80196
G1 X115.157 Y135.465 E24.84421
G1 X115.093 Y135.217 E24.85571
G1 X114.905 Y134.289 E24.89823
G1 X114.875 Y134.101 E24.90678
G1 X114.847 Y133.874 E24.91705
G1 X114.777 Y133.081 E24.95279
G1 X114.768 Y132.874 E24.96209
G1 X114.764 Y130.345 E25.07565
G1 X114.771 Y128.665 E25.15108
G1 X114.742 Y128.176 E25.17308
G1 X114.687 Y127.827 E25.18894
G1 X114.577 Y127.395 E25.20896
G1 X114.38 Y126.86 E25.23456
G1 X112.802 Y123.346 E25.40752
G1 X111.908 Y121.329 E25.50658
G1 X105.623 Y107.265 E26.19826
G1 X105.479 Y106.844 E26.21824
G1 X105.434 Y106.613 E26.22881
G1 X105.392 Y106.326 E26.24183
G1 X105.367 Y105.883 E26.26175
G1 X105.423 Y105.441 E26.28176
G1 X105.556 Y105.017 E26.30171
G1 X105.719 Y104.695 E26.31792
G1 X105.851 Y104.475 E26.32944
G1 X106.113 Y104.116 E26.34939
G1 X106.435 Y103.809 E26.36937
G1 X106.646 Y103.659 E26.38099
G1 X106.846 Y103.532 E26.39163
G1 X107.241 Y103.328 E26.41159
G1 X107.667 Y103.198 E26.43159
G1 X108.067 Y103.148 E26.44969
G1 X108.758 Y103.121 E26.48074
G1 X113.825 Y103.122 E26.70826
G1 X113.826 Y89.329 E27.32758
G1 X113.377 Y88.94 E27.35425
G1 X113.224 Y88.771 E27.36449
G1 X112.881 Y88.286 E27.39116
G1 X112.767 Y88.075 E27.40193
G1 X112.546 Y87.51 E27.42917
G1 X112.49 Y87.29 E27.43936
G1 X112.414 Y86.689 E27.46656
G1 X112.413 Y86.45 E27.4773
G1 X112.483 Y85.858 E27.50406
G1 X112.537 Y85.635 E27.51436
G1 X112.714 Y85.159 E27.53717
G1 X112.522 Y84.769 E27.55669
G1 X112.443 Y84.535 E27.56778
G1 X112.318 Y83.904 E27.59666
G1 X112.302 Y83.658 E27.60773
G1 X112.343 Y83.023 E27.6363
G1 X112.392 Y82.772 E27.64778
G1 X112.599 Y82.155 E27.677
G1 X112.41 Y81.771 E27.69622
G1 X112.331 Y81.537 E27.70731
G1 X112.206 Y80.906 E27.73619
G1 X112.19 Y80.66 E27.74726
G1 X112.233 Y80.015 E27.77629
G1 X112.283 Y79.764 E27.78778
G1 X112.484 Y79.168 E27.81602
G1 X112.299 Y78.776 E27.83549
G1 X112.22 Y78.543 E27.84653
G1 X112.094 Y77.909 E27.87556
