;FLAVOR:Marlin
;TIME:2174
;Filament used: 2.46987m
;Layer height: 0.28
;MINX:85.878
;MINY:73.138
;MINZ:0.24
;MAXX:134.119
;MAXY:146.869
;MAXZ:18.44
;Generated with Cura_SteamEngine 4.6.1
M82 ;absolute extrusion mode
M201 X500.00 Y500.00 Z100.00 E5000.00 ;Setup machine max acceleration
M203 X500.00 Y500.00 Z10.00 E50.00 ;Setup machine max feedrate
M204 P500.00 R1000.00 T500.00 ;Setup Print/Retract/Travel acceleration
M205 X8.00 Y8.00 Z0.40 E5.00 ;Setup Jerk
M220 S100 ;Reset Feedrate
M221 S100 ;Reset Flowrate

G90
M140 S50; start preheating the bed
M104 S220 T0; start preheating hotend
G28 ;Home
G1 Z2.0 F3000 ;Move Z Axis up
M190 S50; heat to bed setting in Cura and WAIT
M109 S220 T0; heat hotend to setting in Cura and WAIT


G92 E0 ;Reset Extruder
G1 Z2.0 F3000 ;Move Z Axis up
G1 X2.1 Y20 Z0.28 F5000.0 ;Move to start position
G1 X2.1 Y200.0 Z0.28 F1500.0 E15 ;Draw the first line
G1 X2.4 Y200.0 Z0.28 F5000.0 ;Move to side a little
G1 X2.4 Y20 Z0.28 F1500.0 E30 ;Draw the second line
G92 E0 ;Reset Extruder
G1 Z2.0 F3000 ;Move Z Axis up
G92 E0
G92 E0
G1 F3000 E-6.5
;LAYER_COUNT:66
;LAYER:0
M107
M204 S500
G0 F6000 X94.311 Y74.599 Z0.24
;TYPE:SKIRT
G1 F2700 E0
G1 F2400 X94.463 Y74.421 E0.01051
G1 X94.981 Y73.944 E0.04213
G1 X95.176 Y73.804 E0.05291
G1 X95.591 Y73.555 E0.07464
G1 X95.827 Y73.452 E0.0862
G1 X96.052 Y73.365 E0.09703
G1 X96.74 Y73.191 E0.1289
G1 X96.977 Y73.161 E0.13962
G1 X97.344 Y73.138 E0.15613
G1 X97.753 Y73.138 E0.1745
G1 X98.235 Y73.178 E0.19621
G1 X98.623 Y73.27 E0.21412
G1 X98.867 Y73.346 E0.22559
G1 X99.315 Y73.528 E0.24731
G1 X99.891 Y73.91 E0.27834
G1 X100.011 Y74.012 E0.28541
G1 X100.353 Y74.355 E0.30716
G1 X100.736 Y74.938 E0.33848
G1 X100.833 Y75.133 E0.34826
G1 X101.012 Y75.582 E0.36996
G1 X101.097 Y75.941 E0.38653
G1 X101.231 Y76.722 E0.42211
G1 X102.067 Y81.462 E0.63823
G1 X102.112 Y81.972 E0.66122
G1 X102.087 Y124.971 E2.59192
G1 X102.045 Y125.466 E2.61423
G1 X101.846 Y126.618 E2.66672
G1 X101.743 Y127.569 E2.70967
G1 X101.706 Y128.508 E2.75187
G1 X101.736 Y129.471 E2.79513
G1 X101.832 Y130.419 E2.83791
G1 X101.99 Y131.343 E2.88
G1 X102.22 Y132.285 E2.92354
G1 X102.5 Y133.164 E2.96496
G1 X102.548 Y133.278 E2.97052
G1 X102.862 Y134.09 E3.00961
G1 X102.999 Y134.553 E3.03129
G1 X103.049 Y134.908 E3.04738
G1 X103.077 Y135.249 E3.06275
G1 X103.158 Y135.784 E3.08704
G1 X103.252 Y136.099 E3.1018
G1 X103.395 Y136.429 E3.11795
G1 X103.58 Y136.749 E3.13455
G1 X103.803 Y137.048 E3.1513
G1 X104.043 Y137.303 E3.16702
G1 X104.328 Y137.541 E3.18369
G1 X104.632 Y137.742 E3.20006
G1 X104.958 Y137.905 E3.21642
G1 X105.299 Y138.029 E3.23271
G1 X105.661 Y138.116 E3.24943
G1 X106.015 Y138.157 E3.26543
G1 X106.381 Y138.157 E3.28187
G1 X106.735 Y138.116 E3.29787
G1 X107.097 Y138.029 E3.31459
G1 X107.438 Y137.905 E3.33088
G1 X107.764 Y137.742 E3.34724
G1 X108.068 Y137.541 E3.36361
G1 X108.353 Y137.303 E3.38028
G1 X108.593 Y137.048 E3.396
G1 X108.816 Y136.749 E3.41275
G1 X109.001 Y136.429 E3.42935
G1 X109.144 Y136.099 E3.4455
G1 X109.246 Y135.757 E3.46152
G1 X109.31 Y135.391 E3.4782
G1 X109.337 Y134.938 E3.49858
G1 X109.338 Y96.092 E5.24281
G1 X109.331 Y94.916 E5.29562
G1 X109.339 Y91.059 E5.4688
G1 X109.38 Y90.577 E5.49052
G1 X109.5 Y90.109 E5.51221
G1 X109.695 Y89.667 E5.53391
G1 X109.96 Y89.263 E5.5556
G1 X110.288 Y88.908 E5.5773
G1 X110.67 Y88.612 E5.599
G1 X111.096 Y88.383 E5.62072
G1 X111.554 Y88.228 E5.64243
G1 X112.257 Y88.14 E5.67424
G1 X115.664 Y88.132 E5.82722
G1 X117.436 Y88.137 E5.90678
G1 X126.71 Y88.138 E6.3232
G1 X127.767 Y88.131 E6.37066
G1 X131.201 Y88.14 E6.52485
G1 X131.682 Y88.181 E6.54653
G1 X132.15 Y88.301 E6.56822
G1 X132.593 Y88.497 E6.58997
G1 X132.996 Y88.762 E6.61163
G1 X133.351 Y89.091 E6.63336
G1 X133.647 Y89.473 E6.65506
G1 X133.875 Y89.899 E6.67675
G1 X134.031 Y90.356 E6.69844
G1 X134.118 Y91.064 E6.73047
G1 X134.119 Y94.494 E6.88448
G1 X134.079 Y94.976 E6.90619
G1 X133.961 Y95.444 E6.92787
G1 X133.767 Y95.887 E6.94958
G1 X133.502 Y96.292 E6.97131
G1 X133.175 Y96.647 E6.99298
G1 X132.793 Y96.944 E7.01471
G1 X132.368 Y97.174 E7.03641
G1 X131.911 Y97.331 E7.05811
G1 X131.2 Y97.42 E7.09028
G1 X128.142 Y97.426 E7.22759
G1 X126.587 Y97.421 E7.29741
G1 X123.019 Y97.42 E7.45762
G1 X122.556 Y97.446 E7.47844
G1 X122.159 Y97.512 E7.49651
G1 X121.773 Y97.62 E7.51451
G1 X121.414 Y97.766 E7.53191
G1 X121.062 Y97.956 E7.54987
G1 X120.747 Y98.173 E7.56704
G1 X120.441 Y98.439 E7.58525
G1 X120.175 Y98.724 E7.60275
G1 X119.94 Y99.041 E7.62047
G1 X119.735 Y99.391 E7.63869
G1 X119.579 Y99.741 E7.65589
G1 X119.457 Y100.123 E7.6739
G1 X119.38 Y100.503 E7.69131
G1 X119.335 Y100.996 E7.71353
G1 X118.32 Y129.433 E8.9912
G1 X118.277 Y130.855 E9.05508
G1 X118.118 Y135.082 E9.24501
G1 X118.121 Y135.698 E9.27267
G1 X118.114 Y136.013 E9.28682
G1 X118.097 Y136.259 E9.29789
G1 X117.995 Y137.175 E9.33928
G1 X117.941 Y137.496 E9.35389
G1 X117.737 Y138.399 E9.39546
G1 X117.653 Y138.695 E9.40927
G1 X117.357 Y139.566 E9.45058
G1 X117.236 Y139.867 E9.46515
G1 X116.844 Y140.703 E9.50661
G1 X116.695 Y140.981 E9.52077
G1 X116.215 Y141.77 E9.56224
G1 X116.035 Y142.033 E9.57655
G1 X115.473 Y142.764 E9.61795
G1 X115.269 Y143.001 E9.63199
G1 X114.631 Y143.669 E9.67346
G1 X114.394 Y143.892 E9.68808
G1 X113.687 Y144.484 E9.72948
G1 X113.437 Y144.671 E9.7435
G1 X112.668 Y145.186 E9.78506
G1 X112.394 Y145.349 E9.79937
G1 X111.578 Y145.775 E9.8407
G1 X111.289 Y145.906 E9.85495
G1 X110.427 Y146.243 E9.89651
G1 X110.128 Y146.342 E9.91065
G1 X109.24 Y146.583 E9.95196
G1 X108.926 Y146.65 E9.96638
G1 X108.012 Y146.793 E10.00792
G1 X107.699 Y146.825 E10.02205
G1 X106.777 Y146.869 E10.06349
G1 X106.457 Y146.866 E10.07786
G1 X105.536 Y146.809 E10.1193
G1 X105.223 Y146.773 E10.13344
G1 X104.312 Y146.617 E10.17494
G1 X104.003 Y146.547 E10.18917
G1 X103.117 Y146.294 E10.23054
G1 X102.814 Y146.189 E10.24494
G1 X101.957 Y145.839 E10.28651
G1 X101.669 Y145.703 E10.30081
G1 X100.859 Y145.264 E10.34217
G1 X100.594 Y145.101 E10.35614
G1 X99.836 Y144.579 E10.39747
G1 X99.583 Y144.383 E10.41184
G1 X98.884 Y143.779 E10.45332
G1 X98.653 Y143.557 E10.4677
G1 X98.023 Y142.879 E10.50926
G1 X97.824 Y142.64 E10.52323
G1 X97.271 Y141.901 E10.56467
G1 X97.092 Y141.631 E10.57922
G1 X96.624 Y140.835 E10.62068
G1 X96.479 Y140.556 E10.63479
G1 X96.1 Y139.716 E10.67617
G1 X95.984 Y139.415 E10.69066
G1 X95.7 Y138.539 E10.73201
G1 X95.62 Y138.241 E10.74586
G1 X95.429 Y137.336 E10.78739
G1 X95.389 Y137.096 E10.79832
G1 X95.349 Y136.765 E10.81329
G1 X95.289 Y136.082 E10.84407
G1 X95.278 Y135.831 E10.85535
G1 X95.274 Y133.34 E10.9672
G1 X95.282 Y131.647 E11.04322
G1 X95.253 Y131.183 E11.0641
G1 X95.204 Y130.871 E11.07828
G1 X95.106 Y130.489 E11.09598
G1 X94.923 Y129.991 E11.11981
G1 X93.352 Y126.494 E11.29194
G1 X92.453 Y124.469 E11.39143
G1 X86.173 Y110.414 E12.08264
G1 X86.013 Y109.958 E12.10434
G1 X85.95 Y109.645 E12.11868
G1 X85.908 Y109.358 E12.1317
G1 X85.878 Y108.875 E12.15343
G1 X85.927 Y108.394 E12.17514
G1 X86.055 Y107.928 E12.19684
G1 X86.294 Y107.429 E12.22168
G1 X86.426 Y107.209 E12.2332
G1 X86.708 Y106.817 E12.25488
G1 X87.051 Y106.476 E12.2766
G1 X87.366 Y106.245 E12.29414
G1 X87.566 Y106.118 E12.30478
G1 X87.994 Y105.893 E12.32649
G1 X88.453 Y105.742 E12.34819
G1 X89.009 Y105.665 E12.37339
G1 X89.719 Y105.637 E12.40529
G1 X94.337 Y105.638 E12.61265
G1 X94.338 Y92.003 E13.22488
G1 X94.097 Y91.802 E13.23897
G1 X93.916 Y91.608 E13.25088
G1 X93.755 Y91.418 E13.26206
G1 X93.475 Y91.025 E13.28373
G1 X93.341 Y90.774 E13.2965
G1 X93.235 Y90.549 E13.30767
G1 X93.066 Y90.096 E13.32938
G1 X93.006 Y89.842 E13.3411
G1 X92.959 Y89.592 E13.35252
G1 X92.91 Y89.112 E13.37419
G1 X92.918 Y88.825 E13.38708
G1 X92.937 Y88.581 E13.39807
G1 X93.014 Y88.104 E13.41976
G1 X93.09 Y87.848 E13.43175
G1 X93.172 Y87.612 E13.44297
G1 X93.368 Y87.17 E13.46468
G1 X93.27 Y86.65 E13.48844
G1 X93.215 Y86.17 E13.51014
G1 X93.22 Y85.888 E13.5228
G1 X93.236 Y85.643 E13.53382
G1 X93.307 Y85.165 E13.55552
G1 X93.38 Y84.909 E13.56747
G1 X93.457 Y84.678 E13.57841
G1 X93.647 Y84.234 E13.60009
G1 X93.598 Y84.052 E13.60856
G1 X93.543 Y83.824 E13.61909
G1 X93.468 Y83.346 E13.64081
G1 X93.461 Y83.102 E13.65177
G1 X93.464 Y82.858 E13.66273
G1 X93.51 Y82.377 E13.68443
G1 X93.564 Y82.135 E13.69556
G1 X93.625 Y81.908 E13.70611
G1 X93.762 Y81.528 E13.72425
G1 X93.663 Y81.261 E13.73704
G1 X93.591 Y81.021 E13.74829
G1 X93.491 Y80.549 E13.76995
G1 X93.469 Y80.274 E13.78234
G1 X93.461 Y80.022 E13.79366
G1 X93.486 Y79.539 E13.81538
G1 X93.537 Y79.262 E13.82802
G1 X93.593 Y79.023 E13.83904
G1 X93.742 Y78.563 E13.86076
G1 X93.662 Y78.27 E13.87439
G1 X93.592 Y78.04 E13.88519
G1 X93.49 Y77.567 E13.90691
G1 X93.467 Y77.299 E13.91899
G1 X93.458 Y77.063 E13.9296
G1 X93.516 Y76.362 E13.96118
G1 X93.565 Y76.124 E13.97209
G1 X93.701 Y75.66 E13.9938
G1 X93.799 Y75.435 E14.00482
G1 X93.904 Y75.219 E14.0156
G1 X93.982 Y75.088 E14.02245
G0 F2160 X94.151 Y74.803
G0 X94.311 Y74.599
G0 F6000 X94.653 Y74.891
G1 F2400 X94.805 Y74.713 E14.03296
G1 X95.244 Y74.309 E14.05975
G1 X95.439 Y74.169 E14.07053
G1 X95.989 Y73.872 E14.09859
G1 X96.214 Y73.785 E14.10942
G1 X96.796 Y73.638 E14.13638
G1 X97.033 Y73.608 E14.1471
G1 X97.344 Y73.588 E14.1611
G1 X97.753 Y73.588 E14.17946
G1 X98.196 Y73.628 E14.19943
G1 X98.489 Y73.7 E14.21298
G1 X98.733 Y73.776 E14.22446
G1 X99.144 Y73.946 E14.24443
G1 X99.6 Y74.253 E14.26911
G1 X99.72 Y74.355 E14.27618
G1 X100.031 Y74.672 E14.29612
G1 X100.333 Y75.139 E14.32109
G1 X100.43 Y75.334 E14.33087
G1 X100.591 Y75.748 E14.35082
G1 X100.653 Y76.017 E14.36321
G1 X100.785 Y76.787 E14.39829
G1 X101.624 Y81.54 E14.61501
G1 X101.662 Y81.971 E14.63443
G1 X101.637 Y124.97 E16.56514
G1 X101.601 Y125.389 E16.58402
G1 X101.403 Y126.541 E16.63651
G1 X101.293 Y127.545 E16.68186
G1 X101.256 Y128.513 E16.72535
G1 X101.286 Y129.501 E16.76974
G1 X101.385 Y130.466 E16.81329
G1 X101.552 Y131.443 E16.8578
G1 X101.785 Y132.399 E16.90198
G1 X102.082 Y133.332 E16.94594
G1 X102.132 Y133.451 E16.95174
G1 X102.443 Y134.252 E16.99032
G1 X102.565 Y134.679 E17.01026
G1 X102.601 Y134.944 E17.02227
G1 X102.63 Y135.297 E17.03817
G1 X102.72 Y135.887 E17.06497
G1 X102.828 Y136.252 E17.08206
G1 X102.994 Y136.635 E17.10081
G1 X103.203 Y136.996 E17.11954
G1 X103.452 Y137.331 E17.13828
G1 X103.743 Y137.64 E17.15734
G1 X104.052 Y137.898 E17.17541
G1 X104.41 Y138.134 E17.19466
G1 X104.778 Y138.319 E17.21316
G1 X105.169 Y138.461 E17.23184
G1 X105.581 Y138.559 E17.25085
G1 X105.988 Y138.607 E17.26925
G1 X106.408 Y138.607 E17.28811
G1 X106.815 Y138.559 E17.30651
G1 X107.227 Y138.461 E17.32553
G1 X107.618 Y138.319 E17.34421
G1 X107.986 Y138.134 E17.3627
G1 X108.344 Y137.898 E17.38195
G1 X108.653 Y137.64 E17.40003
G1 X108.944 Y137.331 E17.41909
G1 X109.193 Y136.996 E17.43783
G1 X109.402 Y136.635 E17.45656
G1 X109.568 Y136.252 E17.4753
G1 X109.684 Y135.861 E17.49362
G1 X109.757 Y135.443 E17.51267
G1 X109.787 Y134.944 E17.53511
G1 X109.788 Y96.092 E19.27962
G1 X109.781 Y94.914 E19.33251
G1 X109.789 Y91.06 E19.50556
G1 X109.83 Y90.617 E19.52554
G1 X109.949 Y90.189 E19.54548
G1 X110.143 Y89.789 E19.56544
G1 X110.406 Y89.43 E19.58543
G1 X110.728 Y89.124 E19.60537
G1 X111.1 Y88.881 E19.62532
G1 X111.51 Y88.708 E19.6453
G1 X111.943 Y88.611 E19.66523
G1 X112.258 Y88.59 E19.6794
G1 X115.665 Y88.582 E19.83238
G1 X117.435 Y88.587 E19.91186
G1 X126.713 Y88.588 E20.32845
G1 X127.77 Y88.581 E20.37591
G1 X131.2 Y88.59 E20.52992
G1 X131.642 Y88.631 E20.54985
G1 X132.07 Y88.751 E20.56981
G1 X132.47 Y88.945 E20.58978
G1 X132.829 Y89.208 E20.60976
G1 X133.135 Y89.53 E20.6297
G1 X133.378 Y89.902 E20.64965
G1 X133.551 Y90.312 E20.66964
G1 X133.647 Y90.746 E20.68959
G1 X133.668 Y91.064 E20.7039
G1 X133.669 Y94.494 E20.85791
G1 X133.629 Y94.937 E20.87789
G1 X133.511 Y95.365 E20.89782
G1 X133.318 Y95.766 E20.9178
G1 X133.056 Y96.125 E20.93776
G1 X132.735 Y96.432 E20.9577
G1 X132.363 Y96.676 E20.97768
G1 X131.954 Y96.85 E20.99764
G1 X131.521 Y96.948 E21.01757
G1 X131.199 Y96.97 E21.03206
G1 X128.141 Y96.976 E21.16937
G1 X126.589 Y96.971 E21.23906
G1 X123.011 Y96.97 E21.39971
G1 X122.503 Y96.999 E21.42256
G1 X122.066 Y97.071 E21.44245
G1 X121.624 Y97.195 E21.46306
G1 X121.225 Y97.358 E21.48241
G1 X120.83 Y97.571 E21.50256
G1 X120.466 Y97.821 E21.52239
G1 X120.133 Y98.109 E21.54216
G1 X119.824 Y98.442 E21.56256
G1 X119.562 Y98.794 E21.58226
G1 X119.334 Y99.185 E21.60258
G1 X119.157 Y99.581 E21.62206
G1 X119.022 Y100.006 E21.64208
G1 X118.933 Y100.447 E21.66228
G1 X118.886 Y100.956 E21.68523
G1 X117.87 Y129.42 E22.96411
G1 X117.827 Y130.842 E23.02799
G1 X117.668 Y135.067 E23.21783
G1 X117.671 Y135.7 E23.24626
G1 X117.664 Y136.001 E23.25978
G1 X117.65 Y136.209 E23.26914
G1 X117.548 Y137.125 E23.31052
G1 X117.502 Y137.396 E23.32286
G1 X117.298 Y138.299 E23.36443
G1 X117.227 Y138.55 E23.37614
G1 X116.931 Y139.421 E23.41745
G1 X116.829 Y139.676 E23.42978
G1 X116.437 Y140.512 E23.47124
G1 X116.31 Y140.747 E23.48323
G1 X115.83 Y141.536 E23.5247
G1 X115.678 Y141.759 E23.53682
G1 X115.116 Y142.49 E23.57822
G1 X114.944 Y142.69 E23.59007
G1 X114.306 Y143.358 E23.63154
G1 X114.105 Y143.547 E23.64393
G1 X113.398 Y144.139 E23.68533
G1 X113.186 Y144.297 E23.69721
G1 X112.417 Y144.812 E23.73876
G1 X112.185 Y144.95 E23.75088
G1 X111.369 Y145.376 E23.79222
G1 X111.125 Y145.487 E23.80425
G1 X110.263 Y145.824 E23.84581
G1 X110.01 Y145.908 E23.85778
G1 X109.122 Y146.149 E23.89909
G1 X108.857 Y146.205 E23.91126
G1 X107.943 Y146.348 E23.95279
G1 X107.678 Y146.375 E23.96476
G1 X106.756 Y146.419 E24.0062
G1 X106.485 Y146.417 E24.01837
G1 X105.564 Y146.36 E24.0598
G1 X105.299 Y146.329 E24.07178
G1 X104.388 Y146.173 E24.11328
G1 X104.126 Y146.114 E24.12534
G1 X103.24 Y145.861 E24.16671
G1 X102.984 Y145.772 E24.17888
G1 X102.127 Y145.422 E24.22045
G1 X101.884 Y145.307 E24.23252
G1 X101.074 Y144.868 E24.27389
G1 X100.849 Y144.73 E24.28574
G1 X100.091 Y144.208 E24.32707
G1 X99.877 Y144.043 E24.3392
G1 X99.178 Y143.439 E24.38068
G1 X98.983 Y143.251 E24.39284
G1 X98.353 Y142.573 E24.4344
G1 X98.184 Y142.371 E24.44622
G1 X97.631 Y141.632 E24.48767
G1 X97.479 Y141.403 E24.50001
G1 X97.011 Y140.607 E24.54147
G1 X96.889 Y140.371 E24.5534
G1 X96.51 Y139.531 E24.59478
G1 X96.412 Y139.276 E24.60704
G1 X96.128 Y138.4 E24.64839
G1 X96.06 Y138.148 E24.66011
G1 X95.869 Y137.243 E24.70164
G1 X95.835 Y137.04 E24.71088
G1 X95.807 Y136.817 E24.72098
G1 X95.737 Y136.043 E24.75587
G1 X95.728 Y135.83 E24.76544
G1 X95.724 Y133.339 E24.87729
G1 X95.732 Y131.621 E24.95443
G1 X95.702 Y131.139 E24.97612
G1 X95.648 Y130.794 E24.9918
G1 X95.537 Y130.358 E25.012
G1 X95.34 Y129.823 E25.0376
G1 X93.762 Y126.31 E25.21052
G1 X92.868 Y124.293 E25.30958
G1 X86.584 Y110.231 E26.00116
G1 X86.44 Y109.81 E26.02114
G1 X86.395 Y109.579 E26.03171
G1 X86.353 Y109.292 E26.04473
G1 X86.328 Y108.849 E26.06465
G1 X86.384 Y108.407 E26.08466
G1 X86.517 Y107.983 E26.10461
G1 X86.68 Y107.661 E26.12082
G1 X86.812 Y107.441 E26.13234
G1 X87.074 Y107.082 E26.15229
G1 X87.396 Y106.775 E26.17227
G1 X87.607 Y106.625 E26.18389
G1 X87.807 Y106.498 E26.19453
G1 X88.202 Y106.294 E26.21449
G1 X88.628 Y106.164 E26.23449
G1 X89.028 Y106.114 E26.25259
G1 X89.719 Y106.087 E26.28364
G1 X94.787 Y106.088 E26.5112
G1 X94.788 Y91.786 E27.15338
G1 X94.26 Y91.317 E27.18509
G1 X94.099 Y91.127 E27.19627
G1 X93.748 Y90.582 E27.22538
G1 X93.642 Y90.357 E27.23654
G1 X93.449 Y89.759 E27.26476
G1 X93.402 Y89.509 E27.27618
G1 X93.366 Y88.86 E27.30537
G1 X93.385 Y88.616 E27.31635
G1 X93.515 Y87.996 E27.3448
G1 X93.597 Y87.76 E27.35602
G1 X93.886 Y87.183 E27.38499
G1 X93.761 Y86.808 E27.40274
G1 X93.712 Y86.562 E27.414
G1 X93.669 Y85.918 E27.44299
G1 X93.685 Y85.673 E27.45401
G1 X93.807 Y85.051 E27.48247
G1 X93.884 Y84.82 E27.4934
G1 X94.153 Y84.263 E27.52118
G1 X94.035 Y83.946 E27.53637
G1 X93.98 Y83.718 E27.5469
G1 X93.911 Y83.108 E27.57446
G1 X93.914 Y82.864 E27.58542
G1 X93.999 Y82.252 E27.61316
G1 X94.06 Y82.025 E27.62371
G1 X94.266 Y81.521 E27.64816
G1 X94.094 Y81.132 E27.66726
G1 X94.022 Y80.892 E27.67851
G1 X93.919 Y80.26 E27.70726
G1 X93.911 Y80.008 E27.71858
G1 X93.975 Y79.364 E27.74764
G1 X94.031 Y79.125 E27.75866
G1 X94.26 Y78.52 E27.78771
