;FLAVOR:Marlin
;TIME:3315
;Filament used: 3.66643m
;Layer height: 0.24
;MINX:84.202
;MINY:70.984
;MINZ:0.2
;MAXX:135.12
;MAXY:149.033
;MAXZ:24.92
;Generated with Cura_SteamEngine 4.6.1
M82 ;absolute extrusion mode
M201 X500.00 Y500.00 Z100.00 E5000.00 ;Setup machine max acceleration
M203 X500.00 Y500.00 Z10.00 E50.00 ;Setup machine max feedrate
M204 P500.00 R1000.00 T500.00 ;Setup Print/Retract/Travel acceleration
M205 X8.00 Y8.00 Z0.40 E5.00 ;Setup Jerk
M220 S100 ;Reset Feedrate
M221 S100 ;Reset Flowrate

G90
M140 S50; start preheating the bed
M104 S220 T0; start preheating hotend
G28 ;Home
G1 Z2.0 F3000 ;Move Z Axis up
M190 S50; heat to bed setting in Cura and WAIT
M109 S220 T0; heat hotend to setting in Cura and WAIT


G92 E0 ;Reset Extruder
G1 Z2.0 F3000 ;Move Z Axis up
G1 X2.1 Y20 Z0.28 F5000.0 ;Move to start position
G1 X2.1 Y200.0 Z0.28 F1500.0 E15 ;Draw the first line
G1 X2.4 Y200.0 Z0.28 F5000.0 ;Move to side a little
G1 X2.4 Y20 Z0.28 F1500.0 E30 ;Draw the second line
G92 E0 ;Reset Extruder
G1 Z2.0 F3000 ;Move Z Axis up
G92 E0
G92 E0
G1 F3000 E-6.5
;LAYER_COUNT:104
;LAYER:0
M107
M204 S500
G0 F7500 X91.819 Y72.093 Z0.2
;TYPE:SKIRT
G1 F2700 E0
G1 F2400 X91.962 Y71.922 E0.00797
G1 X92.321 Y71.589 E0.02548
G1 X92.507 Y71.456 E0.03365
G1 X92.934 Y71.225 E0.05101
G1 X93.146 Y71.143 E0.05914
G1 X93.6 Y71.028 E0.07588
G1 X93.828 Y70.999 E0.0841
G1 X94.072 Y70.984 E0.09284
G1 X94.48 Y70.984 E0.10743
G1 X94.644 Y70.991 E0.1133
G1 X94.785 Y71.003 E0.11836
G1 X95.171 Y71.076 E0.13241
G1 X95.535 Y71.225 E0.14647
G1 X95.86 Y71.445 E0.1605
G1 X96.065 Y71.616 E0.17005
G1 X96.34 Y71.897 E0.1841
G1 X96.562 Y72.247 E0.19892
G1 X96.628 Y72.381 E0.20426
G1 X96.799 Y72.906 E0.224
G1 X97.11 Y74.701 E0.28914
G1 X98.637 Y83.36 E0.60352
G1 X98.666 Y83.688 E0.61529
G1 X98.674 Y85.681 E0.68655
G1 X98.673 Y140.282 E2.63879
G1 X98.708 Y140.842 E2.65885
G1 X98.8 Y141.345 E2.67713
G1 X98.95 Y141.829 E2.69525
G1 X99.157 Y142.29 E2.71332
G1 X99.423 Y142.727 E2.73161
G1 X99.738 Y143.131 E2.74993
G1 X100.095 Y143.488 E2.76798
G1 X100.497 Y143.803 E2.78624
G1 X100.931 Y144.066 E2.80438
G1 X101.394 Y144.274 E2.82253
G1 X101.88 Y144.425 E2.84073
G1 X102.382 Y144.517 E2.85898
G1 X102.888 Y144.548 E2.8771
G1 X103.385 Y144.518 E2.8949
G1 X103.901 Y144.423 E2.91366
G1 X104.379 Y144.275 E2.93156
G1 X104.849 Y144.063 E2.94999
G1 X105.279 Y143.803 E2.96796
G1 X105.678 Y143.49 E2.98609
G1 X106.039 Y143.129 E3.00434
G1 X106.353 Y142.727 E3.02258
G1 X106.616 Y142.293 E3.04073
G1 X106.825 Y141.829 E3.05892
G1 X106.975 Y141.347 E3.07697
G1 X107.068 Y140.839 E3.09544
G1 X107.102 Y140.285 E3.11528
G1 X107.103 Y87.337 E5.00842
G1 X107.143 Y86.946 E5.02247
G1 X107.261 Y86.571 E5.03653
G1 X107.452 Y86.228 E5.05056
G1 X107.709 Y85.931 E5.06461
G1 X108.021 Y85.691 E5.07868
G1 X108.374 Y85.519 E5.09272
G1 X108.755 Y85.423 E5.10677
G1 X109.038 Y85.402 E5.11692
G1 X133.045 Y85.402 E5.97528
G1 X133.436 Y85.442 E5.98933
G1 X133.811 Y85.56 E6.00339
G1 X134.154 Y85.751 E6.01742
G1 X134.451 Y86.008 E6.03147
G1 X134.691 Y86.32 E6.04554
G1 X134.862 Y86.673 E6.05956
G1 X134.959 Y87.054 E6.07362
G1 X134.98 Y87.338 E6.0838
G1 X134.979 Y89.338 E6.15531
G1 X134.939 Y89.729 E6.16937
G1 X134.845 Y90.046 E6.18119
G1 X134.758 Y90.267 E6.18968
G1 X134.577 Y90.616 E6.20374
G1 X134.439 Y90.802 E6.21202
G1 X134.371 Y90.883 E6.2158
G1 X134.089 Y91.157 E6.22986
G1 X133.758 Y91.368 E6.24389
G1 X133.396 Y91.506 E6.25774
G1 X132.965 Y91.623 E6.27371
G1 X132.458 Y91.691 E6.292
G1 X121.561 Y91.69 E6.68162
G1 X120.965 Y91.726 E6.70297
G1 X120.433 Y91.818 E6.72227
G1 X119.93 Y91.966 E6.74102
G1 X119.44 Y92.174 E6.76005
G1 X118.975 Y92.437 E6.77915
G1 X118.547 Y92.752 E6.79815
G1 X118.156 Y93.112 E6.81716
G1 X117.808 Y93.516 E6.83622
G1 X117.512 Y93.953 E6.85509
G1 X117.263 Y94.43 E6.87433
G1 X117.072 Y94.927 E6.89337
G1 X116.94 Y95.44 E6.91231
G1 X116.858 Y96.029 E6.93357
G1 X113.273 Y140.866 E8.54182
G1 X113.238 Y141.197 E8.55372
G1 X113.219 Y141.327 E8.55842
G1 X113.094 Y142.028 E8.58388
G1 X113.054 Y142.205 E8.59037
G1 X112.862 Y142.898 E8.61608
G1 X112.805 Y143.071 E8.62259
G1 X112.674 Y143.414 E8.63572
G1 X112.622 Y143.536 E8.64046
G1 X112.468 Y143.869 E8.65358
G1 X112.398 Y144.006 E8.65908
G1 X112.214 Y144.333 E8.67249
G1 X112.116 Y144.489 E8.67908
G1 X111.901 Y144.798 E8.69254
G1 X111.794 Y144.938 E8.69884
G1 X111.552 Y145.226 E8.71229
G1 X111.437 Y145.352 E8.71839
G1 X111.173 Y145.615 E8.73171
G1 X111.069 Y145.711 E8.73677
G1 X110.686 Y146.035 E8.75471
G1 X110.398 Y146.25 E8.76756
G1 X110.282 Y146.33 E8.7726
G1 X109.576 Y146.776 E8.80246
G1 X108.899 Y147.149 E8.83009
G1 X108.138 Y147.528 E8.86049
G1 X106.547 Y148.225 E8.9226
G1 X105.698 Y148.534 E8.9549
G1 X105.014 Y148.736 E8.9804
G1 X104.433 Y148.871 E9.00173
G1 X104.261 Y148.903 E9.00798
G1 X103.655 Y148.987 E9.02986
G1 X103.483 Y149.003 E9.03603
G1 X102.869 Y149.033 E9.05801
G1 X102.671 Y149.032 E9.06509
G1 X102.059 Y148.999 E9.08701
G1 X101.84 Y148.975 E9.09488
G1 X101.237 Y148.873 E9.11675
G1 X101.047 Y148.831 E9.12371
G1 X100.465 Y148.671 E9.14529
G1 X100.317 Y148.624 E9.15084
G1 X99.75 Y148.418 E9.17241
G1 X99.612 Y148.361 E9.17775
G1 X98.796 Y147.987 E9.20984
G1 X98.114 Y147.627 E9.23741
G1 X97.358 Y147.184 E9.26874
G1 X96.638 Y146.725 E9.29927
G1 X95.846 Y146.177 E9.33371
G1 X95.117 Y145.605 E9.36684
G1 X94.668 Y145.198 E9.38851
G1 X94.322 Y144.846 E9.40616
G1 X94.202 Y144.712 E9.41259
G1 X93.885 Y144.323 E9.43053
G1 X93.757 Y144.148 E9.43828
G1 X93.476 Y143.711 E9.45686
G1 X93.346 Y143.472 E9.46659
G1 X93.129 Y143 E9.48516
G1 X93.029 Y142.731 E9.49542
G1 X92.885 Y142.235 E9.51389
G1 X92.831 Y141.993 E9.52275
G1 X92.752 Y141.485 E9.54113
G1 X92.73 Y141.256 E9.54936
G1 X92.717 Y140.882 E9.56274
G1 X92.689 Y140.69 E9.56968
G1 X92.673 Y140.531 E9.57539
G1 X92.589 Y140.254 E9.58574
G1 X91.912 Y138.52 E9.6523
G1 X84.347 Y119.195 E10.39431
G1 X84.22 Y118.642 E10.4146
G1 X84.202 Y118.413 E10.42281
G1 X84.211 Y118.02 E10.43687
G1 X84.299 Y117.637 E10.45092
G1 X84.464 Y117.278 E10.46504
G1 X84.612 Y117.027 E10.47546
G1 X84.845 Y116.711 E10.4895
G1 X85.137 Y116.448 E10.50355
G1 X85.636 Y116.185 E10.52372
G1 X85.897 Y116.093 E10.53361
G1 X86.279 Y116.001 E10.54766
G1 X86.54 Y115.983 E10.55702
G1 X92.719 Y115.984 E10.77794
G1 X92.717 Y88.335 E11.76653
G1 X92.562 Y88.247 E11.7729
G1 X92.174 Y87.955 E11.79026
G1 X92.009 Y87.795 E11.79848
G1 X91.697 Y87.402 E11.81642
G1 X91.58 Y87.207 E11.82455
G1 X91.39 Y86.782 E11.8412
G1 X91.322 Y86.562 E11.84943
G1 X91.238 Y86.076 E11.86706
G1 X91.228 Y85.849 E11.87519
G1 X91.268 Y85.364 E11.89259
G1 X91.316 Y85.137 E11.90088
G1 X91.477 Y84.675 E11.91838
G1 X91.58 Y84.468 E11.92664
G1 X91.661 Y84.345 E11.93191
G1 X91.423 Y83.872 E11.95084
G1 X91.346 Y83.647 E11.95934
G1 X91.247 Y83.162 E11.97704
G1 X91.23 Y82.931 E11.98532
G1 X91.259 Y82.43 E12.00327
G1 X91.304 Y82.192 E12.01193
G1 X91.46 Y81.715 E12.02987
G1 X91.562 Y81.502 E12.03831
G1 X91.662 Y81.347 E12.04491
G1 X91.423 Y80.872 E12.06392
G1 X91.346 Y80.647 E12.07243
G1 X91.247 Y80.162 E12.09012
G1 X91.23 Y79.931 E12.09841
G1 X91.259 Y79.43 E12.11635
G1 X91.304 Y79.192 E12.12501
G1 X91.46 Y78.715 E12.14295
G1 X91.562 Y78.502 E12.1514
G1 X91.662 Y78.347 E12.15799
G1 X91.423 Y77.872 E12.177
G1 X91.346 Y77.647 E12.18551
G1 X91.247 Y77.162 E12.20321
G1 X91.23 Y76.931 E12.21149
G1 X91.259 Y76.43 E12.22943
G1 X91.304 Y76.192 E12.23809
G1 X91.46 Y75.715 E12.25603
G1 X91.562 Y75.502 E12.26448
G1 X91.659 Y75.352 E12.27087
G1 X91.567 Y75.197 E12.27731
G1 X91.375 Y74.759 E12.29441
G1 X91.31 Y74.54 E12.30258
G1 X91.232 Y74.075 E12.31944
G1 X91.222 Y73.85 E12.32749
G1 X91.262 Y73.364 E12.34492
G1 X91.31 Y73.137 E12.35322
G1 X91.449 Y72.736 E12.36839
G0 F2160 X91.467 Y72.682
G0 X91.567 Y72.479
G0 X91.819 Y72.093
G0 F7500 X92.148 Y72.369
G1 F2400 X92.291 Y72.198 E12.37636
G1 X92.571 Y71.939 E12.39
G1 X92.757 Y71.806 E12.39818
G1 X93.089 Y71.626 E12.41168
G1 X93.301 Y71.544 E12.41981
G1 X93.654 Y71.455 E12.43282
G1 X93.882 Y71.426 E12.44104
G1 X94.072 Y71.414 E12.44785
G1 X94.608 Y71.419 E12.46701
G1 X94.749 Y71.431 E12.47207
G1 X95.088 Y71.5 E12.48444
G1 X95.403 Y71.645 E12.49684
G1 X95.585 Y71.775 E12.50484
G1 X95.79 Y71.946 E12.51438
G1 X96.029 Y72.197 E12.52678
G1 X96.176 Y72.437 E12.53684
G1 X96.242 Y72.571 E12.54218
G1 X96.375 Y72.979 E12.55752
G1 X96.686 Y74.776 E12.62273
G1 X98.213 Y83.435 E12.9371
G1 X98.236 Y83.69 E12.94626
G1 X98.244 Y85.683 E13.01752
G1 X98.243 Y140.292 E14.97004
G1 X98.281 Y140.896 E14.99168
G1 X98.381 Y141.444 E15.0116
G1 X98.549 Y141.986 E15.03189
G1 X98.774 Y142.486 E15.05149
G1 X99.072 Y142.978 E15.07206
G1 X99.413 Y143.414 E15.09185
G1 X99.807 Y143.808 E15.11177
G1 X100.254 Y144.158 E15.13207
G1 X100.733 Y144.448 E15.15209
G1 X101.242 Y144.678 E15.17206
G1 X101.776 Y144.843 E15.19205
G1 X102.329 Y144.944 E15.21215
G1 X102.887 Y144.978 E15.23213
G1 X103.439 Y144.945 E15.25191
G1 X104.004 Y144.842 E15.27244
G1 X104.531 Y144.678 E15.29217
G1 X105.047 Y144.446 E15.3124
G1 X105.522 Y144.158 E15.33226
G1 X105.966 Y143.81 E15.35243
G1 X106.364 Y143.412 E15.37256
G1 X106.708 Y142.972 E15.39253
G1 X106.997 Y142.495 E15.41247
G1 X107.226 Y141.986 E15.43243
G1 X107.394 Y141.446 E15.45265
G1 X107.496 Y140.892 E15.47279
G1 X107.532 Y140.295 E15.49417
G1 X107.533 Y87.337 E17.38767
G1 X107.573 Y86.993 E17.40005
G1 X107.69 Y86.667 E17.41243
G1 X107.879 Y86.377 E17.42481
G1 X108.13 Y86.137 E17.43722
G1 X108.428 Y85.961 E17.4496
G1 X108.759 Y85.858 E17.46199
G1 X109.038 Y85.832 E17.47201
G1 X133.045 Y85.832 E18.33037
G1 X133.389 Y85.872 E18.34276
G1 X133.715 Y85.989 E18.35514
G1 X134.005 Y86.178 E18.36752
G1 X134.245 Y86.429 E18.37993
G1 X134.421 Y86.727 E18.39231
G1 X134.524 Y87.058 E18.4047
G1 X134.55 Y87.338 E18.41476
G1 X134.549 Y89.338 E18.48627
G1 X134.509 Y89.682 E18.49865
G1 X134.444 Y89.888 E18.50637
G1 X134.357 Y90.109 E18.51486
G1 X134.11 Y90.526 E18.53219
G1 X134.042 Y90.607 E18.53597
G1 X133.79 Y90.845 E18.54837
G1 X133.49 Y91.019 E18.56077
G1 X133.283 Y91.091 E18.5686
G1 X132.852 Y91.208 E18.58457
G1 X132.458 Y91.261 E18.59879
G1 X121.535 Y91.26 E18.98933
G1 X120.919 Y91.297 E19.0114
G1 X120.342 Y91.397 E19.03234
G1 X119.781 Y91.562 E19.05325
G1 X119.252 Y91.787 E19.0738
G1 X118.742 Y92.075 E19.09474
G1 X118.275 Y92.418 E19.11546
G1 X117.841 Y92.818 E19.13656
G1 X117.469 Y93.251 E19.15697
G1 X117.143 Y93.732 E19.17775
G1 X116.868 Y94.258 E19.19897
G1 X116.661 Y94.796 E19.21958
G1 X116.518 Y95.352 E19.24011
G1 X116.43 Y95.987 E19.26303
G1 X112.844 Y140.832 E20.87156
G1 X112.796 Y141.251 E20.88664
G1 X112.671 Y141.952 E20.9121
G1 X112.639 Y142.09 E20.91717
G1 X112.447 Y142.783 E20.94288
G1 X112.403 Y142.918 E20.94795
G1 X112.232 Y143.356 E20.96477
G1 X112.024 Y143.795 E20.98214
G1 X111.84 Y144.122 E20.99555
G1 X111.763 Y144.244 E21.00071
G1 X111.548 Y144.553 E21.01417
G1 X111.465 Y144.661 E21.01904
G1 X111.223 Y144.949 E21.03249
G1 X111.133 Y145.047 E21.03725
G1 X110.788 Y145.385 E21.05452
G1 X110.428 Y145.69 E21.07139
G1 X110.05 Y145.967 E21.08814
G1 X109.452 Y146.349 E21.11351
G1 X108.691 Y146.772 E21.14464
G1 X107.947 Y147.142 E21.17435
G1 X106.484 Y147.787 E21.23152
G1 X105.66 Y148.093 E21.26295
G1 X105.01 Y148.292 E21.28725
G1 X104.336 Y148.452 E21.31202
G1 X104.202 Y148.477 E21.31689
G1 X103.596 Y148.561 E21.33877
G1 X103.462 Y148.573 E21.34358
G1 X102.848 Y148.603 E21.36556
G1 X102.694 Y148.603 E21.37106
G1 X102.082 Y148.57 E21.39298
G1 X101.912 Y148.551 E21.39909
G1 X101.309 Y148.449 E21.42096
G1 X101.161 Y148.416 E21.42638
G1 X100.464 Y148.22 E21.45227
G1 X99.789 Y147.97 E21.47801
G1 X99.077 Y147.647 E21.50596
G1 X98.314 Y147.247 E21.53676
G1 X97.576 Y146.814 E21.56736
G1 X96.869 Y146.362 E21.59736
G1 X96.18 Y145.889 E21.62724
G1 X95.404 Y145.285 E21.6624
G1 X95.045 Y144.964 E21.67962
G1 X94.629 Y144.545 E21.70073
G1 X94.535 Y144.441 E21.70574
G1 X94.218 Y144.052 E21.72368
G1 X94.119 Y143.915 E21.72973
G1 X93.838 Y143.478 E21.7483
G1 X93.737 Y143.293 E21.75584
G1 X93.52 Y142.821 E21.77441
G1 X93.442 Y142.612 E21.78239
G1 X93.298 Y142.116 E21.80086
G1 X93.256 Y141.927 E21.80778
G1 X93.177 Y141.419 E21.82616
G1 X93.16 Y141.241 E21.83256
G1 X93.146 Y140.849 E21.84658
G1 X93.127 Y140.727 E21.85099
G1 X93.097 Y140.449 E21.86099
G1 X92.992 Y140.105 E21.87385
G1 X92.313 Y138.364 E21.94067
G1 X84.748 Y119.039 E22.68268
G1 X84.649 Y118.608 E22.69849
G1 X84.631 Y118.379 E22.70671
G1 X84.643 Y118.033 E22.71908
G1 X84.735 Y117.699 E22.73147
G1 X84.835 Y117.497 E22.73953
G1 X84.983 Y117.246 E22.74995
G1 X85.192 Y116.969 E22.76236
G1 X85.458 Y116.748 E22.77472
G1 X85.779 Y116.591 E22.7875
G1 X86.04 Y116.499 E22.79739
G1 X86.54 Y116.413 E22.81553
G1 X92.992 Y116.414 E23.04622
G1 X93.103 Y116.4 E23.05022
G1 X93.149 Y116.263 E23.05539
G1 X93.147 Y88.067 E24.06353
G1 X92.973 Y87.986 E24.07039
G1 X92.775 Y87.873 E24.07854
G1 X92.473 Y87.646 E24.09205
G1 X92.308 Y87.486 E24.10027
G1 X92.065 Y87.18 E24.11424
G1 X91.948 Y86.985 E24.12237
G1 X91.801 Y86.655 E24.13528
G1 X91.733 Y86.435 E24.14352
G1 X91.667 Y86.057 E24.15724
G1 X91.657 Y85.83 E24.16536
G1 X91.689 Y85.453 E24.17889
G1 X91.737 Y85.226 E24.18719
G1 X91.862 Y84.867 E24.20078
G1 X91.965 Y84.66 E24.20904
G1 X92.171 Y84.348 E24.22241
G1 X92.008 Y84.089 E24.23335
G1 X91.83 Y83.732 E24.24762
G1 X91.753 Y83.507 E24.25612
G1 X91.676 Y83.13 E24.26988
G1 X91.659 Y82.899 E24.27816
G1 X91.681 Y82.509 E24.29212
G1 X91.726 Y82.271 E24.30079
G1 X91.848 Y81.901 E24.31472
G1 X91.95 Y81.688 E24.32316
G1 X92.159 Y81.364 E24.33694
G1 X92.008 Y81.089 E24.34816
G1 X91.83 Y80.732 E24.36242
G1 X91.753 Y80.507 E24.37093
G1 X91.676 Y80.13 E24.38469
G1 X91.659 Y79.899 E24.39297
G1 X91.681 Y79.509 E24.40693
G1 X91.726 Y79.271 E24.41559
G1 X91.848 Y78.901 E24.42952
G1 X91.95 Y78.688 E24.43797
G1 X92.159 Y78.364 E24.45175
G1 X92.008 Y78.089 E24.46297
G1 X91.83 Y77.732 E24.47723
G1 X91.753 Y77.507 E24.48574
G1 X91.676 Y77.13 E24.49949
G1 X91.659 Y76.899 E24.50778
G1 X91.681 Y76.509 E24.52174
G1 X91.726 Y76.271 E24.5304
G1 X91.848 Y75.901 E24.54433
G1 X91.95 Y75.688 E24.55278
G1 X92.159 Y75.364 E24.56656
G1 X92.053 Y75.172 E24.5744
G1 X91.937 Y74.977 E24.58252
G1 X91.787 Y74.636 E24.59584
G1 X91.722 Y74.417 E24.604
G1 X91.661 Y74.056 E24.61709
G1 X91.651 Y73.831 E24.62515
G1 X91.683 Y73.453 E24.63871
G1 X91.731 Y73.226 E24.64701
G1 X91.801 Y73.024 E24.65465
G0 F2160 X91.853 Y72.872
G0 X91.953 Y72.669
G0 X92.148 Y72.369
G0 F7500 X92.478 Y72.644
G1 F2400 X92.621 Y72.473 E24.66262
G1 X92.821 Y72.289 E24.67234
G1 X93.007 Y72.156 E24.68051
G1 X93.244 Y72.027 E24.69016
G1 X93.456 Y71.945 E24.69829
G1 X93.708 Y71.882 E24.70758
G1 X93.936 Y71.853 E24.71579
G1 X94.072 Y71.844 E24.72067
G1 X94.48 Y71.844 E24.73525
G1 X94.712 Y71.86 E24.74357
G1 X94.998 Y71.924 E24.75405
G1 X95.31 Y72.105 E24.76694
G1 X95.515 Y72.276 E24.77649
G1 X95.712 Y72.493 E24.78697
G1 X95.79 Y72.627 E24.79251
G1 X95.856 Y72.761 E24.79785
G1 X95.951 Y73.053 E24.80883
G1 X96.262 Y74.85 E24.87404
G1 X97.79 Y83.509 E25.18842
G1 X97.806 Y83.692 E25.19499
G1 X97.814 Y85.685 E25.26625
G1 X97.813 Y140.303 E27.2191
G1 X97.853 Y140.951 E27.24231
G1 X97.962 Y141.547 E27.26397
G1 X98.144 Y142.135 E27.28598
G1 X98.395 Y142.691 E27.30779
G1 X98.715 Y143.218 E27.32984
G1 X99.092 Y143.701 E27.35174
G1 X99.524 Y144.133 E27.37359
G1 X100.009 Y144.513 E27.39562
G1 X100.528 Y144.827 E27.41731
G1 X101.086 Y145.079 E27.4392
G1 X101.68 Y145.263 E27.46143
G1 X102.275 Y145.372 E27.48306
G1 X102.888 Y145.409 E27.50502
G1 X103.492 Y145.372 E27.52665
G1 X104.103 Y145.261 E27.54886
G1 X104.692 Y145.078 E27.57091
G1 X105.246 Y144.829 E27.59263
G1 X105.762 Y144.516 E27.6142
G1 X106.255 Y144.129 E27.63661
G1 X106.684 Y143.7 E27.65831
G1 X107.059 Y143.22 E27.68008
G1 X107.381 Y142.689 E27.70229
G1 X107.631 Y142.135 E27.72402
G1 X107.812 Y141.549 E27.74595
G1 X107.923 Y140.947 E27.76784
G1 X107.962 Y140.305 E27.79083
G1 X107.963 Y87.337 E29.68468
G1 X108.003 Y87.047 E29.69515
G1 X108.119 Y86.779 E29.70559
G1 X108.304 Y86.552 E29.71606
G1 X108.543 Y86.383 E29.72653
G1 X108.818 Y86.285 E29.73697
G1 X109.038 Y86.262 E29.74488
G1 X133.045 Y86.262 E30.60324
