;FLAVOR:Marlin
;TIME:3503
;Filament used: 4.22981m
;Layer height: 0.28
;MINX:83.411
;MINY:68.738
;MINZ:0.24
;MAXX:136.592
;MAXY:151.263
;MAXZ:24.88
;Generated with Cura_SteamEngine 4.6.1
M82 ;absolute extrusion mode
M201 X500.00 Y500.00 Z100.00 E5000.00 ;Setup machine max acceleration
M203 X500.00 Y500.00 Z10.00 E50.00 ;Setup machine max feedrate
M204 P500.00 R1000.00 T500.00 ;Setup Print/Retract/Travel acceleration
M205 X8.00 Y8.00 Z0.40 E5.00 ;Setup Jerk
M220 S100 ;Reset Feedrate
M221 S100 ;Reset Flowrate

G90
M140 S50; start preheating the bed
M104 S220 T0; start preheating hotend
G28 ;Home
G1 Z2.0 F3000 ;Move Z Axis up
M190 S50; heat to bed setting in Cura and WAIT
M109 S220 T0; heat hotend to setting in Cura and WAIT


G92 E0 ;Reset Extruder
G1 Z2.0 F3000 ;Move Z Axis up
G1 X2.1 Y20 Z0.28 F5000.0 ;Move to start position
G1 X2.1 Y200.0 Z0.28 F1500.0 E15 ;Draw the first line
G1 X2.4 Y200.0 Z0.28 F5000.0 ;Move to side a little
G1 X2.4 Y20 Z0.28 F1500.0 E30 ;Draw the second line
G92 E0 ;Reset Extruder
G1 Z2.0 F3000 ;Move Z Axis up
G92 E0
G92 E0
G1 F3000 E-6.5
;LAYER_COUNT:89
;LAYER:0
M107
M204 S500
G0 F6000 X90.71 Y70.293 Z0.24
;TYPE:SKIRT
G1 F2700 E0
G1 F2400 X90.862 Y70.104 E0.01089
G1 X91.376 Y69.604 E0.04309
G1 X91.565 Y69.461 E0.05373
G1 X92.188 Y69.101 E0.08604
G1 X92.405 Y69.009 E0.09662
G1 X92.864 Y68.858 E0.11832
G1 X93.11 Y68.81 E0.12957
G1 X93.348 Y68.774 E0.14038
G1 X93.765 Y68.741 E0.15916
G1 X94.199 Y68.738 E0.17865
G1 X94.681 Y68.775 E0.20035
G1 X95.15 Y68.89 E0.22204
G1 X95.501 Y69.034 E0.23907
G1 X95.866 Y69.212 E0.25731
G1 X96.282 Y69.459 E0.27903
G1 X96.651 Y69.771 E0.30073
G1 X96.963 Y70.14 E0.32242
G1 X97.203 Y70.538 E0.34329
G1 X97.3 Y70.733 E0.35307
G1 X97.479 Y71.182 E0.37478
G1 X97.564 Y71.542 E0.39138
G1 X97.689 Y72.269 E0.42451
G1 X99.4 Y81.969 E0.86677
G1 X99.444 Y82.448 E0.88837
G1 X99.452 Y83.254 E0.92456
G1 X99.451 Y124.15 E2.76084
G1 X99.457 Y125.35 E2.81472
G1 X99.449 Y129.212 E2.98813
G1 X99.408 Y129.694 E3.00985
G1 X99.288 Y130.162 E3.03155
G1 X99.14 Y130.514 E3.04869
G1 X98.917 Y130.96 E3.07108
G1 X98.577 Y131.753 E3.10982
G1 X98.4 Y132.345 E3.13757
G1 X98.275 Y132.987 E3.16693
G1 X98.213 Y133.624 E3.19567
G1 X98.213 Y134.27 E3.22468
G1 X98.275 Y134.906 E3.25337
G1 X98.401 Y135.549 E3.28279
G1 X98.586 Y136.175 E3.3121
G1 X98.828 Y136.765 E3.34073
G1 X99.132 Y137.363 E3.37086
G1 X99.314 Y137.811 E3.39257
G1 X99.421 Y138.282 E3.41426
G1 X99.448 Y138.627 E3.42979
G1 X99.454 Y138.914 E3.44268
G1 X99.486 Y139.537 E3.47069
G1 X99.557 Y139.91 E3.48774
G1 X99.682 Y140.294 E3.50587
G1 X99.848 Y140.649 E3.52347
G1 X100.066 Y140.991 E3.54168
G1 X100.312 Y141.288 E3.559
G1 X100.613 Y141.571 E3.57755
G1 X100.93 Y141.801 E3.59513
G1 X101.273 Y141.99 E3.61272
G1 X101.655 Y142.141 E3.63116
G1 X102.033 Y142.238 E3.64868
G1 X102.43 Y142.288 E3.66665
G1 X102.826 Y142.288 E3.68443
G1 X103.221 Y142.238 E3.70231
G1 X103.602 Y142.14 E3.71997
G1 X103.982 Y141.99 E3.73832
G1 X104.325 Y141.801 E3.7559
G1 X104.642 Y141.571 E3.77349
G1 X104.942 Y141.29 E3.79194
G1 X105.192 Y140.988 E3.80955
G1 X105.408 Y140.648 E3.82763
G1 X105.576 Y140.289 E3.84543
G1 X105.698 Y139.912 E3.86322
G1 X105.773 Y139.52 E3.88114
G1 X105.803 Y139.036 E3.90292
G1 X105.804 Y90.075 E6.10132
G1 X105.797 Y88.927 E6.15287
G1 X105.806 Y85.153 E6.32233
G1 X105.847 Y84.671 E6.34405
G1 X105.967 Y84.203 E6.36574
G1 X106.162 Y83.761 E6.38744
G1 X106.428 Y83.357 E6.40915
G1 X106.756 Y83.002 E6.43086
G1 X107.138 Y82.707 E6.45253
G1 X107.564 Y82.478 E6.47424
G1 X108.022 Y82.322 E6.49597
G1 X108.725 Y82.235 E6.52778
G1 X112.283 Y82.228 E6.68753
G1 X114.13 Y82.233 E6.77047
G1 X128.976 Y82.234 E7.43707
G1 X130.081 Y82.227 E7.48669
G1 X133.667 Y82.235 E7.6477
G1 X134.148 Y82.276 E7.66938
G1 X134.616 Y82.396 E7.69107
G1 X135.059 Y82.591 E7.71281
G1 X135.462 Y82.856 E7.73446
G1 X135.817 Y83.185 E7.7562
G1 X136.113 Y83.567 E7.77789
G1 X136.342 Y83.993 E7.79961
G1 X136.498 Y84.45 E7.82129
G1 X136.585 Y85.151 E7.85301
G1 X136.592 Y87.423 E7.95503
G1 X136.587 Y88.15 E7.98767
G1 X136.544 Y88.631 E8.00935
G1 X136.389 Y89.188 E8.03531
G1 X136.269 Y89.497 E8.0502
G1 X136.057 Y89.931 E8.07189
G1 X135.777 Y90.325 E8.09359
G1 X135.435 Y90.667 E8.11531
G1 X135.184 Y90.859 E8.1295
G1 X134.985 Y90.994 E8.14029
G1 X134.564 Y91.231 E8.16199
G1 X134.11 Y91.396 E8.18368
G1 X133.634 Y91.483 E8.2054
G1 X133.348 Y91.498 E8.21826
G1 X121.439 Y91.52 E8.75299
G1 X120.932 Y91.55 E8.7758
G1 X120.518 Y91.623 E8.79467
G1 X120.11 Y91.745 E8.81379
G1 X119.73 Y91.909 E8.83238
G1 X119.372 Y92.116 E8.85094
G1 X119.035 Y92.366 E8.86979
G1 X118.724 Y92.658 E8.88894
G1 X118.462 Y92.972 E8.9073
G1 X118.23 Y93.322 E8.92616
G1 X118.04 Y93.699 E8.94511
G1 X117.896 Y94.093 E8.96395
G1 X117.798 Y94.503 E8.98288
G1 X117.741 Y94.987 E9.00476
G1 X115.412 Y133.771 E10.74934
G1 X115.337 Y135.139 E10.81086
G1 X115.085 Y139.198 E10.99347
G1 X115.088 Y139.829 E11.0218
G1 X115.081 Y140.153 E11.03635
G1 X115.063 Y140.414 E11.0481
G1 X114.95 Y141.394 E11.09239
G1 X114.893 Y141.72 E11.10725
G1 X114.671 Y142.677 E11.15136
G1 X114.58 Y142.99 E11.166
G1 X114.252 Y143.919 E11.21024
G1 X114.127 Y144.22 E11.22487
G1 X113.698 Y145.106 E11.26907
G1 X113.536 Y145.396 E11.28399
G1 X113.009 Y146.228 E11.32821
G1 X112.823 Y146.49 E11.34263
G1 X112.209 Y147.258 E11.38678
G1 X111.988 Y147.504 E11.40163
G1 X111.29 Y148.199 E11.44586
G1 X111.045 Y148.417 E11.46059
G1 X110.274 Y149.029 E11.50479
G1 X110.009 Y149.216 E11.51935
G1 X109.175 Y149.739 E11.56355
G1 X108.886 Y149.898 E11.57836
G1 X107.998 Y150.324 E11.62258
G1 X107.696 Y150.449 E11.63726
G1 X106.767 Y150.773 E11.68144
G1 X106.45 Y150.864 E11.69625
G1 X105.487 Y151.082 E11.74058
G1 X105.165 Y151.136 E11.75524
G1 X104.186 Y151.245 E11.79947
G1 X103.859 Y151.263 E11.81417
G1 X102.875 Y151.262 E11.85836
G1 X102.552 Y151.244 E11.87288
G1 X101.572 Y151.134 E11.91716
G1 X101.244 Y151.078 E11.9321
G1 X100.285 Y150.858 E11.97628
G1 X99.972 Y150.768 E11.9909
G1 X99.041 Y150.442 E12.0352
G1 X98.738 Y150.316 E12.04993
G1 X97.852 Y149.889 E12.09409
G1 X97.565 Y149.73 E12.10882
G1 X96.732 Y149.206 E12.15301
G1 X96.469 Y149.02 E12.16748
G1 X95.699 Y148.408 E12.21164
G1 X95.452 Y148.188 E12.22649
G1 X94.757 Y147.494 E12.27059
G1 X94.54 Y147.251 E12.28522
G1 X93.925 Y146.482 E12.32943
G1 X93.734 Y146.214 E12.34421
G1 X93.208 Y145.379 E12.38852
G1 X93.049 Y145.091 E12.40329
G1 X92.621 Y144.204 E12.44752
G1 X92.496 Y143.904 E12.46211
G1 X92.169 Y142.975 E12.50633
G1 X92.079 Y142.664 E12.52087
G1 X91.857 Y141.706 E12.56502
G1 X91.799 Y141.373 E12.5802
G1 X91.689 Y140.394 E12.62443
G1 X91.672 Y140.152 E12.63533
G1 X91.664 Y139.807 E12.65082
G1 X91.669 Y139.075 E12.68369
G1 X91.663 Y134.8 E12.87564
G1 X91.668 Y132.553 E12.97654
G1 X91.668 Y122.661 E13.4207
G1 X83.763 Y106.628 E14.22335
G1 X83.585 Y106.179 E14.24503
G1 X83.511 Y105.874 E14.25913
G1 X83.46 Y105.602 E14.27155
G1 X83.411 Y105.121 E14.29326
G1 X83.441 Y104.639 E14.31495
G1 X83.55 Y104.168 E14.33665
G1 X83.728 Y103.737 E14.35759
G1 X83.846 Y103.505 E14.36928
G1 X84.1 Y103.094 E14.39097
G1 X84.418 Y102.73 E14.41267
G1 X84.807 Y102.413 E14.43521
G1 X85.017 Y102.27 E14.44661
G1 X85.437 Y102.032 E14.46829
G1 X85.891 Y101.867 E14.48998
G1 X86.533 Y101.766 E14.51916
G1 X87.249 Y101.737 E14.55134
G1 X91.803 Y101.738 E14.75582
G1 X91.804 Y87.952 E15.37482
G1 X91.522 Y87.764 E15.39004
G1 X90.982 Y87.288 E15.42236
G1 X90.827 Y87.113 E15.43286
G1 X90.421 Y86.521 E15.46509
G1 X90.31 Y86.307 E15.47592
G1 X90.123 Y85.861 E15.49763
G1 X90.055 Y85.613 E15.50918
G1 X90.003 Y85.386 E15.51963
G1 X89.929 Y84.685 E15.55129
G1 X89.933 Y84.442 E15.5622
G1 X90.034 Y83.728 E15.59458
G1 X90.095 Y83.502 E15.60509
G1 X90.229 Y83.131 E15.6228
G1 X90.13 Y82.861 E15.63571
G1 X90.058 Y82.621 E15.64696
G1 X89.958 Y82.149 E15.66863
G1 X89.936 Y81.862 E15.68155
G1 X89.929 Y81.609 E15.69292
G1 X89.956 Y81.126 E15.71464
G1 X90.006 Y80.858 E15.72688
G1 X90.062 Y80.62 E15.73786
G1 X90.211 Y80.16 E15.75957
G1 X90.129 Y79.858 E15.77362
G1 X90.057 Y79.617 E15.78491
G1 X89.958 Y79.144 E15.80661
G1 X89.936 Y78.873 E15.81882
G1 X89.928 Y78.621 E15.83014
G1 X89.953 Y78.138 E15.85186
G1 X90.007 Y77.847 E15.86514
G1 X90.064 Y77.609 E15.87613
G1 X90.215 Y77.15 E15.89783
G1 X90.054 Y76.607 E15.92326
G1 X89.956 Y76.133 E15.94499
G1 X89.936 Y75.873 E15.9567
G1 X89.928 Y75.621 E15.96802
G1 X89.953 Y75.138 E15.98974
G1 X90.005 Y74.858 E16.00253
G1 X90.061 Y74.62 E16.0135
G1 X90.21 Y74.16 E16.03522
G1 X90.158 Y73.948 E16.04502
G1 X90.085 Y73.725 E16.05555
G1 X89.973 Y73.255 E16.07725
G1 X89.947 Y73.012 E16.08822
G1 X89.931 Y72.775 E16.09889
G1 X89.97 Y72.06 E16.13104
G1 X90.013 Y71.821 E16.14194
G1 X90.138 Y71.354 E16.16365
G1 X90.23 Y71.127 E16.17465
G1 X90.327 Y70.914 E16.18516
G1 X90.395 Y70.792 E16.19143
G0 F2160 X90.563 Y70.492
G0 X90.71 Y70.293
G0 F6000 X91.06 Y70.575
G1 F2400 X91.212 Y70.386 E16.20232
G1 X91.648 Y69.963 E16.22959
G1 X91.837 Y69.82 E16.24024
G1 X92.364 Y69.515 E16.26758
G1 X92.581 Y69.423 E16.27816
G1 X93.177 Y69.255 E16.30596
G1 X93.415 Y69.219 E16.31677
G1 X93.768 Y69.191 E16.33267
G1 X94.202 Y69.188 E16.35216
G1 X94.645 Y69.225 E16.37212
G1 X95.074 Y69.34 E16.39206
G1 X95.304 Y69.438 E16.40329
G1 X95.669 Y69.616 E16.42152
G1 X96.049 Y69.846 E16.44147
G1 X96.382 Y70.141 E16.46144
G1 X96.658 Y70.49 E16.48142
G1 X96.8 Y70.739 E16.49429
G1 X96.897 Y70.934 E16.50407
G1 X97.058 Y71.348 E16.52401
G1 X97.12 Y71.618 E16.53645
G1 X97.245 Y72.347 E16.56966
G1 X98.956 Y82.047 E17.01193
G1 X98.994 Y82.452 E17.03019
G1 X99.002 Y83.258 E17.06639
G1 X99.001 Y124.15 E18.90249
G1 X99.007 Y125.352 E18.95646
G1 X98.999 Y129.211 E19.12973
G1 X98.958 Y129.654 E19.14971
G1 X98.839 Y130.082 E19.16965
G1 X98.738 Y130.313 E19.18097
G1 X98.5 Y130.789 E19.20487
G1 X98.156 Y131.593 E19.24414
G1 X97.962 Y132.241 E19.27451
G1 X97.829 Y132.92 E19.30558
G1 X97.763 Y133.596 E19.33607
G1 X97.763 Y134.293 E19.36737
G1 X97.829 Y134.973 E19.39805
G1 X97.961 Y135.649 E19.42897
G1 X98.161 Y136.322 E19.4605
G1 X98.422 Y136.958 E19.49137
G1 X98.731 Y137.567 E19.52203
G1 X98.896 Y137.98 E19.542
G1 X98.998 Y138.636 E19.57181
G1 X99.003 Y138.898 E19.58357
G1 X99.038 Y139.593 E19.61482
G1 X99.12 Y140.023 E19.63447
G1 X99.263 Y140.46 E19.65512
G1 X99.451 Y140.863 E19.67509
G1 X99.702 Y141.256 E19.69603
G1 X99.984 Y141.598 E19.71593
G1 X100.324 Y141.916 E19.73683
G1 X100.689 Y142.182 E19.75711
G1 X101.084 Y142.4 E19.77737
G1 X101.507 Y142.566 E19.79777
G1 X101.95 Y142.681 E19.81832
G1 X102.406 Y142.738 E19.83896
G1 X102.85 Y142.738 E19.85889
G1 X103.311 Y142.68 E19.87976
G1 X103.742 Y142.569 E19.89974
G1 X104.171 Y142.4 E19.92044
G1 X104.566 Y142.182 E19.9407
G1 X104.931 Y141.916 E19.96098
G1 X105.269 Y141.6 E19.98176
G1 X105.558 Y141.251 E20.0021
G1 X105.801 Y140.868 E20.02247
G1 X105.996 Y140.452 E20.0431
G1 X106.133 Y140.029 E20.06306
G1 X106.22 Y139.576 E20.08377
G1 X106.253 Y139.048 E20.10753
G1 X106.254 Y90.075 E22.30647
G1 X106.247 Y88.924 E22.35816
G1 X106.256 Y85.154 E22.52743
G1 X106.297 Y84.711 E22.54741
G1 X106.416 Y84.283 E22.56736
G1 X106.611 Y83.883 E22.58734
G1 X106.873 Y83.525 E22.60726
G1 X107.196 Y83.219 E22.62724
G1 X107.568 Y82.975 E22.64721
G1 X107.977 Y82.803 E22.66713
G1 X108.411 Y82.706 E22.6871
G1 X108.726 Y82.685 E22.70128
G1 X112.284 Y82.678 E22.86104
G1 X114.129 Y82.683 E22.94388
G1 X128.979 Y82.684 E23.61066
G1 X130.084 Y82.677 E23.66028
G1 X133.666 Y82.685 E23.82111
G1 X134.108 Y82.726 E23.84105
G1 X134.536 Y82.845 E23.86099
G1 X134.936 Y83.039 E23.88095
G1 X135.295 Y83.302 E23.90094
G1 X135.601 Y83.624 E23.92088
G1 X135.844 Y83.996 E23.94083
G1 X136.017 Y84.406 E23.96081
G1 X136.114 Y84.84 E23.98078
G1 X136.135 Y85.152 E23.99482
G1 X136.142 Y87.424 E24.09684
G1 X136.137 Y88.147 E24.1293
G1 X136.094 Y88.589 E24.14924
G1 X135.969 Y89.025 E24.16961
G1 X135.849 Y89.334 E24.18449
G1 X135.652 Y89.732 E24.20443
G1 X135.386 Y90.089 E24.22442
G1 X134.931 Y90.486 E24.25154
G1 X134.732 Y90.621 E24.26233
G1 X134.344 Y90.837 E24.28227
G1 X133.923 Y90.979 E24.30222
G1 X133.348 Y91.048 E24.32823
G1 X121.428 Y91.07 E24.86345
G1 X120.877 Y91.103 E24.88823
G1 X120.409 Y91.186 E24.90958
G1 X119.96 Y91.319 E24.9306
G1 X119.534 Y91.503 E24.95144
G1 X119.123 Y91.741 E24.97276
G1 X118.744 Y92.022 E24.99395
G1 X118.395 Y92.35 E25.01545
G1 X118.103 Y92.699 E25.03589
G1 X117.839 Y93.098 E25.05737
G1 X117.626 Y93.522 E25.07867
G1 X117.464 Y93.963 E25.09977
G1 X117.356 Y94.415 E25.12063
G1 X117.292 Y94.958 E25.14519
G1 X114.963 Y133.744 E26.88986
G1 X114.887 Y135.114 E26.95147
G1 X114.635 Y139.188 E27.13475
G1 X114.638 Y139.831 E27.16362
G1 X114.631 Y140.141 E27.17754
G1 X114.616 Y140.363 E27.18753
G1 X114.503 Y141.343 E27.23183
G1 X114.455 Y141.618 E27.24436
G1 X114.233 Y142.575 E27.28847
G1 X114.156 Y142.84 E27.30086
G1 X113.828 Y143.769 E27.3451
G1 X113.722 Y144.024 E27.3575
G1 X113.293 Y144.91 E27.4017
G1 X113.156 Y145.155 E27.4143
G1 X112.629 Y145.987 E27.45852
G1 X112.471 Y146.209 E27.47076
G1 X111.857 Y146.977 E27.51491
G1 X111.67 Y147.185 E27.52747
G1 X110.972 Y147.88 E27.5717
G1 X110.765 Y148.065 E27.58416
G1 X109.994 Y148.677 E27.62836
G1 X109.77 Y148.835 E27.64067
G1 X108.936 Y149.358 E27.68487
G1 X108.692 Y149.493 E27.69739
G1 X107.804 Y149.919 E27.74162
G1 X107.548 Y150.024 E27.75404
G1 X106.619 Y150.348 E27.79822
G1 X106.35 Y150.425 E27.81078
G1 X105.387 Y150.643 E27.85511
G1 X105.115 Y150.689 E27.8675
G1 X104.136 Y150.798 E27.91173
G1 X103.859 Y150.813 E27.92419
G1 X102.875 Y150.812 E27.96837
G1 X102.602 Y150.797 E27.98065
G1 X101.622 Y150.687 E28.02493
G1 X101.345 Y150.639 E28.03755
G1 X100.386 Y150.419 E28.08173
G1 X100.121 Y150.343 E28.09411
G1 X99.19 Y150.017 E28.1384
G1 X98.933 Y149.911 E28.15088
G1 X98.047 Y149.484 E28.19504
G1 X97.804 Y149.349 E28.20752
G1 X96.971 Y148.825 E28.25171
G1 X96.749 Y148.668 E28.26392
G1 X95.979 Y148.056 E28.30808
G1 X95.77 Y147.869 E28.32068
G1 X95.075 Y147.175 E28.36478
G1 X94.891 Y146.97 E28.37715
G1 X94.276 Y146.201 E28.42136
G1 X94.115 Y145.974 E28.43385
G1 X93.589 Y145.139 E28.47817
G1 X93.454 Y144.896 E28.49065
G1 X93.026 Y144.009 E28.53487
G1 X92.92 Y143.755 E28.54723
G1 X92.593 Y142.826 E28.59145
G1 X92.517 Y142.563 E28.60374
G1 X92.295 Y141.605 E28.6479
G1 X92.246 Y141.322 E28.66079
G1 X92.136 Y140.343 E28.70503
G1 X92.122 Y140.139 E28.71421
G1 X92.115 Y139.899 E28.72499
G1 X92.119 Y139.078 E28.76185
G1 X92.113 Y134.799 E28.95399
G1 X92.118 Y132.554 E29.05479
G1 X92.118 Y122.558 E29.50362
G1 X84.166 Y106.429 E30.31107
G1 X84.006 Y106.015 E30.331
G1 X83.953 Y105.791 E30.34133
G1 X83.902 Y105.519 E30.35376
G1 X83.86 Y105.077 E30.37369
G1 X83.898 Y104.634 E30.39366
G1 X84.014 Y104.205 E30.41361
G1 X84.129 Y103.941 E30.42654
G1 X84.247 Y103.709 E30.43823
G1 X84.483 Y103.332 E30.4582
G1 X84.783 Y103.004 E30.47816
G1 X85.06 Y102.785 E30.49401
G1 X85.27 Y102.642 E30.50542
G1 X85.658 Y102.426 E30.52536
G1 X86.079 Y102.283 E30.54533
G1 X86.553 Y102.215 E30.56683
G1 X87.249 Y102.187 E30.5981
G1 X92.253 Y102.188 E30.82279
G1 X92.254 Y87.672 E31.47457
G1 X91.975 Y87.528 E31.48867
G1 X91.776 Y87.392 E31.4995
G1 X91.319 Y86.99 E31.52682
G1 X91.164 Y86.815 E31.53732
G1 X90.82 Y86.314 E31.56461
G1 X90.709 Y86.1 E31.57543
G1 X90.493 Y85.513 E31.60352
G1 X90.441 Y85.286 E31.61397
G1 X90.379 Y84.692 E31.64079
G1 X90.383 Y84.449 E31.6517
G1 X90.469 Y83.845 E31.6791
G1 X90.53 Y83.619 E31.68961
G1 X90.734 Y83.121 E31.71377
G1 X90.561 Y82.732 E31.73289
G1 X90.489 Y82.492 E31.74414
G1 X90.386 Y81.849 E31.77338
G1 X90.379 Y81.596 E31.78474
G1 X90.444 Y80.961 E31.8134
G1 X90.5 Y80.723 E31.82438
G1 X90.728 Y80.12 E31.85333
G1 X90.561 Y79.729 E31.87242
G1 X90.489 Y79.488 E31.88371
G1 X90.386 Y78.859 E31.91233
G1 X90.378 Y78.607 E31.92365
G1 X90.445 Y77.952 E31.95322
G1 X90.502 Y77.714 E31.96421
G1 X90.724 Y77.128 E31.99234
G1 X90.557 Y76.72 E32.01214
G1 X90.486 Y76.479 E32.02342
G1 X90.386 Y75.859 E32.05162
G1 X90.378 Y75.607 E32.06294
G1 X90.443 Y74.961 E32.09209
G1 X90.499 Y74.723 E32.10307
G1 X90.727 Y74.12 E32.13201
G1 X90.586 Y73.808 E32.14739
G1 X90.513 Y73.585 E32.15792
G1 X90.396 Y72.982 E32.1855
G1 X90.38 Y72.745 E32.19617
