; generated by PrusaSlicer 2.2.0+win64 on 2020-05-31 at 01:05:08 UTC

; 

; external perimeters extrusion width = 0.41mm
; perimeters extrusion width = 0.41mm
; infill extrusion width = 0.40mm
; solid infill extrusion width = 0.42mm
; top infill extrusion width = 0.41mm
; first layer extrusion width = 0.43mm

M73 P0 R44
M73 Q0 S47
M201 X9000 Y9000 Z500 E10000 ; sets maximum accelerations, mm/sec^2
M203 X500 Y500 Z80 E120 ; sets maximum feedrates, mm/sec
M204 P1500 R1500 T1500 ; sets acceleration (P, T) and retract acceleration (R), mm/sec^2
M205 X10.00 Y10.00 Z0.20 E2.50 ; sets the jerk limits, mm/sec
M205 S0 T0 ; sets the minimum extruding and travel feed rate, mm/sec
M107
G90 ; use absolute coordinates
M83 ; extruder relative mode
M104 S220 ; set extruder temp
M140 S60 ; set bed temp
G28 ; home all
G1 Z2 F240
M190 S60 ; wait for bed temp
M109 S220 ; wait for extruder temp
G1 X219 Y190 F3000
G1 Z0.28 F240
G92 E0.0
G1 Y20 E15.0 F1500.0 ; intro line
M73 Q0 S46
M73 P0 R44
G1 X219.3 F5000
G1 Y190 E30 F1200.0 ; intro line
G92 E0.0
G21 ; set units to millimeters
G90 ; use absolute coordinates
M82 ; use absolute distances for extrusion
G92 E0
;BEFORE_LAYER_CHANGE
;0.2
G1 Z0.200 F4800.000
;AFTER_LAYER_CHANGE
;0.2
G1 E-6.50000 F3000.00000
G92 E0
G1 Z0.300 F4800.000
G1 X186.528 Y121.208
G1 Z0.200
G1 E6.50000 F2700.00000
G1 F1200.000
G1 X186.924 Y121.208 E6.51274
G1 X186.924 Y161.432 E7.80738
G1 X186.528 Y161.432 E7.82012
G1 X186.528 Y121.268 E9.11282
G1 X186.163 Y120.821 F4800.000
G1 F1200.000
G1 X187.297 Y120.820 E9.14931
G1 X187.311 Y120.961 E9.15386
G1 X187.311 Y161.819 E10.46890
G1 X186.141 Y161.819 E10.50656
G1 X186.141 Y121.044 E11.81891
G1 X186.157 Y120.881 E11.82420
G1 X186.510 Y121.021 F4800.000
G1 E5.32420 F3000.00000
G92 E0
G1 Z0.300 F4800.000
G1 X179.111 Y177.838
G1 Z0.200
G1 E6.50000 F2700.00000
G1 F1200.000
G1 X178.770 Y177.124 E6.52546
G1 X178.596 Y176.859 E6.53566
G1 X178.412 Y176.621 E6.54534
G1 X178.253 Y176.510 E6.55161
G1 X178.114 Y176.440 E6.55662
G1 X177.891 Y176.913 E6.57343
G1 X177.706 Y177.459 E6.59199
G1 X177.147 Y177.262 E6.61108
G1 X176.120 Y176.846 E6.64673
G1 X175.437 Y176.614 E6.66996
G1 X174.736 Y176.434 E6.69323
G1 X173.698 Y176.218 E6.72736
G1 X174.289 Y175.378 E6.76039
G1 X174.729 Y174.826 E6.78314
G1 X175.226 Y174.323 E6.80590
G1 X175.763 Y173.847 E6.82898
G1 X176.299 Y173.507 E6.84941
G1 X176.870 Y173.246 E6.86962
G1 X177.506 Y173.127 E6.89045
G1 X178.128 Y173.098 E6.91050
G1 X178.655 Y173.202 E6.92779
G1 X179.146 Y173.388 E6.94468
G1 X179.559 Y173.607 E6.95972
G1 X179.954 Y173.864 E6.97489
G1 X180.671 Y174.518 E7.00615
G1 X181.092 Y175.069 E7.02845
G1 X181.262 Y175.378 E7.03979
G1 X181.405 Y175.702 E7.05120
G1 X181.511 Y176.155 E7.06617
G1 X181.507 Y176.615 E7.08097
G1 X181.395 Y177.011 E7.09424
G1 X181.187 Y177.391 E7.10818
G1 X180.825 Y177.645 E7.12242
G1 X180.680 Y177.715 E7.12759
G1 X180.366 Y177.808 E7.13812
G1 X179.854 Y177.878 E7.15477
G1 X179.635 Y177.883 E7.16182
G1 X179.171 Y177.843 E7.17680
G1 X178.727 Y177.948 F4800.000
G1 E0.67680 F3000.00000
G92 E0
G1 Z0.300 F4800.000
G1 X172.439 Y177.018
G1 Z0.200
G1 E6.50000 F2700.00000
G1 F1200.000
G1 X172.183 Y177.563 E6.51937
G1 X171.932 Y178.186 E6.54102
G1 X171.701 Y178.813 E6.56251
G1 X171.515 Y179.397 E6.58222
G1 X171.341 Y179.991 E6.60215
G1 X171.065 Y181.184 E6.64156
G1 X170.969 Y181.821 E6.66231
G1 X170.756 Y181.808 E6.66918
G1 X170.747 Y181.390 E6.68264
G1 X170.801 Y180.810 E6.70136
G1 X170.892 Y180.228 E6.72032
G1 X171.037 Y179.654 E6.73939
G1 X171.297 Y178.829 E6.76723
G1 X171.454 Y178.418 E6.78138
G1 X171.749 Y177.788 E6.80379
G1 X172.240 Y176.915 E6.83600
G1 X172.385 Y176.990 E6.84127
G1 E0.34127 F3000.00000
G92 E0
G1 Z0.300 F4800.000
G1 X172.585 Y185.142
G1 Z0.200
G1 E6.50000 F2700.00000
G1 F1200.000
G1 X172.723 Y185.458 E6.51109
G1 X171.762 Y185.507 E6.54205
G1 X171.705 Y185.328 E6.54808
G1 X172.090 Y185.107 E6.56236
G1 X171.180 Y184.320 E6.60108
G1 X170.972 Y184.079 E6.61135
G1 X170.803 Y183.827 E6.62109
G1 X170.665 Y183.572 E6.63045
G1 X170.482 Y182.998 E6.64984
G1 X170.377 Y182.204 E6.67560
G1 X170.360 Y181.376 E6.70228
G1 X170.417 Y180.763 E6.72209
G1 X170.512 Y180.151 E6.74202
G1 X170.665 Y179.548 E6.76202
G1 X170.931 Y178.702 E6.79059
G1 X171.097 Y178.267 E6.80557
G1 X171.405 Y177.610 E6.82891
G1 X171.986 Y176.576 E6.86709
G1 X172.028 Y176.569 E6.86845
G1 X172.528 Y175.904 E6.89523
G1 X172.887 Y175.476 E6.91323
G1 X173.283 Y175.084 E6.93115
G1 X173.706 Y174.713 E6.94927
G1 X174.414 Y174.205 E6.97731
G1 X174.652 Y174.066 E6.98619
G1 X174.777 Y174.227 E6.99274
G1 X174.440 Y174.568 E7.00818
G1 X173.979 Y175.146 E7.03197
G1 X173.043 Y176.477 E7.08434
G1 X173.134 Y176.496 E7.08732
G1 X172.538 Y177.717 E7.13104
G1 X172.068 Y178.939 E7.17317
G1 X171.716 Y180.089 E7.21188
G1 X171.445 Y181.256 E7.25046
G1 X171.306 Y182.186 E7.28071
G1 X171.270 Y183.129 E7.31110
G1 X171.288 Y183.453 E7.32153
G1 X171.359 Y183.818 E7.33350
G1 X171.538 Y184.165 E7.34606
G1 X171.832 Y184.521 E7.36093
G1 X172.198 Y184.676 E7.37374
G1 X172.517 Y184.753 E7.38430
G1 X172.936 Y184.735 E7.39780
G1 X172.987 Y184.910 E7.40367
G1 X172.637 Y185.112 E7.41668
G1 E0.91668 F3000.00000
G92 E0
G1 Z0.300 F4800.000
G1 X173.521 Y176.588
G1 Z0.200
G1 E6.50000 F2700.00000
G1 F1200.000
G1 X174.433 Y176.727 E6.52971
G1 X175.190 Y176.895 E6.55466
G1 X175.922 Y177.143 E6.57954
G1 X177.560 Y177.786 E6.63616
G1 X176.821 Y179.453 E6.69485
G1 X176.230 Y180.660 E6.73811
G1 X175.532 Y181.935 E6.78489
G1 X175.105 Y182.563 E6.80932
G1 X174.728 Y183.027 E6.82857
G1 X174.432 Y183.356 E6.84281
G1 X174.254 Y183.533 E6.85088
G1 X173.876 Y183.852 E6.86682
G1 X173.480 Y184.110 E6.88202
G1 X173.029 Y184.306 E6.89784
G1 X172.797 Y184.354 E6.90548
G1 X172.555 Y184.364 E6.91326
G1 X172.320 Y184.307 E6.92105
G1 X172.070 Y184.202 E6.92979
G1 X171.863 Y183.951 E6.94026
G1 X171.728 Y183.689 E6.94972
G1 X171.673 Y183.405 E6.95905
G1 X171.657 Y183.126 E6.96804
G1 X171.692 Y182.222 E6.99715
G1 X171.826 Y181.329 E7.02623
G1 X172.090 Y180.187 E7.06396
G1 X172.434 Y179.064 E7.10174
G1 X172.893 Y177.872 E7.14287
G1 X173.494 Y176.642 E7.18693
G1 X173.615 Y176.200 F4800.000
G1 E0.68693 F3000.00000
G92 E0
G1 Z0.300 F4800.000
G1 X178.081 Y177.559
G1 Z0.200
G1 E6.50000 F2700.00000
G1 F1200.000
G1 X178.255 Y177.045 E6.51746
G1 X178.432 Y177.315 E6.52783
G1 X178.638 Y177.745 E6.54317
G1 X178.138 Y177.578 E6.56014
G1 E0.06014 F3000.00000
G92 E0
G1 Z0.300 F4800.000
G1 X178.965 Y184.953
G1 Z0.200
G1 E6.50000 F2700.00000
G1 F1200.000
G1 X179.179 Y184.978 E6.50695
G1 X179.089 Y186.058 E6.54184
G1 X178.978 Y186.987 E6.57196
G1 X178.659 Y188.856 E6.63299
G1 X178.223 Y190.693 E6.69376
G1 X177.741 Y192.252 E6.74627
G1 X177.147 Y193.749 E6.79811
G1 X176.709 Y194.681 E6.83124
G1 X176.166 Y195.319 E6.85821
G1 X176.010 Y195.254 E6.86365
G1 X176.036 Y194.932 E6.87404
G1 X176.155 Y194.267 E6.89580
G1 X176.295 Y193.709 E6.91430
G1 X176.456 Y193.146 E6.93315
G1 X176.644 Y192.585 E6.95220
G1 X177.863 Y189.176 E7.06872
G1 X178.127 Y188.380 E7.09572
G1 X178.373 Y187.570 E7.12298
G1 X178.586 Y186.750 E7.15022
G1 X178.780 Y185.925 E7.17752
G1 X178.954 Y185.012 E7.20743
G1 E0.70743 F3000.00000
G92 E0
G1 Z0.300 F4800.000
G1 X178.788 Y178.749
G1 Z0.200
G1 E6.50000 F2700.00000
G1 F1200.000
G1 X179.000 Y178.707 E6.50696
G1 X179.343 Y179.953 E6.54857
G1 X179.324 Y179.980 E6.54962
G1 X179.507 Y181.243 E6.59069
G1 X179.570 Y181.898 E6.61185
G1 X179.610 Y183.250 E6.65539
G1 X179.599 Y184.203 E6.68607
G1 X179.560 Y185.152 E6.71664
G1 X179.474 Y186.098 E6.74723
G1 X179.361 Y187.043 E6.77784
G1 X179.038 Y188.934 E6.83959
G1 X178.596 Y190.795 E6.90117
G1 X178.107 Y192.378 E6.95448
G1 X177.817 Y193.144 E6.98085
G1 X177.501 Y193.906 E7.00739
G1 X177.038 Y194.892 E7.04248
G1 X176.330 Y195.723 E7.07760
G1 X176.195 Y195.845 E7.08345
G1 X175.967 Y195.994 E7.09222
G1 X175.782 Y196.068 E7.09862
G1 X175.613 Y196.091 E7.10410
G1 X175.595 Y195.573 E7.12078
G1 X175.652 Y194.882 E7.14309
G1 X175.776 Y194.186 E7.16587
G1 X175.921 Y193.609 E7.18500
G1 X176.086 Y193.032 E7.20434
G1 X176.278 Y192.458 E7.22379
G1 X177.497 Y189.050 E7.34029
G1 X177.758 Y188.263 E7.36699
G1 X178.000 Y187.465 E7.39384
G1 X178.210 Y186.657 E7.42068
G1 X178.401 Y185.844 E7.44757
G1 X178.572 Y184.949 E7.47692
G1 X178.718 Y184.049 E7.50625
G1 X178.909 Y182.231 E7.56510
G1 X178.939 Y181.198 E7.59836
G1 X178.924 Y180.164 E7.63163
G1 X178.796 Y178.809 E7.67544
G1 X179.262 Y178.201 F4800.000
G1 F1200.000
G1 X179.864 Y178.258 E7.69490
G1 X180.590 Y178.221 E7.71829
G1 X179.646 Y179.596 E7.77200
G1 X179.278 Y178.259 E7.81665
G1 X179.662 Y178.228 F4800.000
G1 E1.31665 F3000.00000
G92 E0
G1 Z0.300 F4800.000
G1 X185.428 Y180.577
G1 Z0.200
G1 E6.50000 F2700.00000
G1 F1200.000
G1 X185.761 Y180.767 E6.51233
G1 X185.503 Y181.281 E6.53083
G1 X185.453 Y181.439 E6.53618
G1 X185.033 Y181.337 E6.55008
G1 X184.287 Y182.521 E6.59510
G1 X183.666 Y183.372 E6.62901
G1 X183.590 Y183.461 E6.63279
G1 X183.421 Y183.360 E6.63912
G1 X183.695 Y182.709 E6.66186
G1 X184.807 Y180.649 E6.73719
G1 X185.399 Y179.461 E6.77992
G1 X185.615 Y178.971 E6.79714
G1 X185.814 Y179.035 E6.80385
G1 X185.443 Y180.519 E6.85309
G1 X185.876 Y180.387 F4800.000
G1 F1200.000
G1 X186.361 Y180.663 E6.87104
G1 X186.068 Y181.018 E6.88586
G1 X185.863 Y181.427 E6.90058
G1 X185.712 Y181.901 E6.91657
G1 X185.212 Y181.779 E6.93313
G1 X184.608 Y182.738 E6.96963
G1 X183.970 Y183.612 E7.00444
G1 X183.614 Y184.029 E7.02209
G1 X183.227 Y184.391 E7.03915
G1 X182.990 Y184.550 E7.04833
G1 X182.917 Y184.374 E7.05446
G1 X182.893 Y184.238 E7.05891
G1 X182.886 Y184.081 E7.06397
G1 X182.943 Y183.650 E7.07797
G1 X183.064 Y183.210 E7.09264
G1 X183.246 Y182.748 E7.10863
G1 X184.464 Y180.471 E7.19172
G1 X185.048 Y179.296 E7.23396
G1 X185.343 Y178.628 E7.25747
G1 X185.610 Y177.956 E7.28073
G1 X185.928 Y176.939 E7.31505
G1 X186.034 Y176.356 E7.33410
G1 X186.221 Y176.350 E7.34011
G1 X186.280 Y176.578 E7.34769
G1 X186.343 Y177.071 E7.36369
G1 X186.360 Y177.564 E7.37957
G1 X186.328 Y178.180 E7.39941
G1 X186.262 Y178.773 E7.41862
G1 X186.144 Y179.348 E7.43752
G1 X185.891 Y180.329 E7.47012
G1 E0.97012 F3000.00000
G92 E0
G1 Z0.300 F4800.000
G1 X193.107 Y176.150
G1 Z0.200
G1 E6.50000 F2700.00000
G1 F1200.000
G1 X193.241 Y176.595 E6.51496
G1 X193.274 Y176.789 E6.52130
G1 X193.276 Y176.994 E6.52791
G1 X193.193 Y177.360 E6.53998
G1 X193.052 Y177.710 E6.55212
G1 X192.607 Y178.540 E6.58243
G1 X192.087 Y179.320 E6.61260
G1 X191.321 Y180.307 E6.65283
G1 X190.508 Y181.263 E6.69321
G1 X189.645 Y182.066 E6.73116
G1 X189.191 Y182.442 E6.75013
G1 X188.721 Y182.805 E6.76922
G1 X188.140 Y183.179 E6.79147
G1 X187.493 Y183.465 E6.81425
G1 X187.089 Y183.547 E6.82750
G1 X186.871 Y183.530 E6.83453
G1 X186.636 Y183.475 E6.84231
G1 X186.389 Y183.314 E6.85179
G1 X186.279 Y183.189 E6.85716
G1 X186.158 Y182.992 E6.86460
G1 X186.058 Y182.681 E6.87512
G1 X186.047 Y182.318 E6.88681
G1 X186.121 Y181.893 E6.90068
G1 X186.222 Y181.573 E6.91149
G1 X186.394 Y181.231 E6.92381
G1 X187.112 Y180.363 E6.96007
G1 X187.604 Y179.828 E6.98347
G1 X188.015 Y179.417 E7.00217
G1 X189.067 Y178.436 E7.04846
G1 X190.305 Y177.318 E7.10214
G1 X190.930 Y176.843 E7.12742
G1 X191.472 Y176.473 E7.14852
G1 X191.944 Y176.223 E7.16574
G1 X192.235 Y176.115 E7.17571
G1 X192.548 Y176.039 E7.18607
G1 X192.795 Y176.034 E7.19404
G1 X193.051 Y176.129 E7.20282
G1 X193.504 Y176.098 F4800.000
G1 X193.417 Y175.837
G1 F1200.000
G1 X193.556 Y175.741 E7.20825
G1 X193.757 Y175.915 E7.21681
G1 X193.835 Y176.013 E7.22085
G1 X193.928 Y176.191 E7.22730
G1 X194.052 Y176.593 E7.24083
G1 X194.105 Y177.004 E7.25418
G1 X194.074 Y177.419 E7.26758
G1 X193.984 Y177.883 E7.28279
G1 X193.772 Y178.628 E7.30774
G1 X193.580 Y179.134 E7.32513
G1 X193.303 Y179.703 E7.34550
G1 X192.923 Y180.329 E7.36909
G1 X192.723 Y180.613 E7.38026
G1 X192.218 Y181.222 E7.40573
G1 X191.658 Y181.777 E7.43108
G1 X191.230 Y182.129 E7.44894
G1 X190.777 Y182.462 E7.46703
G1 X190.300 Y182.764 E7.48519
G1 X189.263 Y183.285 E7.52256
G1 X188.795 Y183.466 E7.53869
G1 X188.700 Y183.279 E7.54544
G1 X188.945 Y183.121 E7.55479
G1 X189.900 Y182.357 E7.59416
G1 X190.788 Y181.531 E7.63321
G1 X191.621 Y180.551 E7.67459
G1 X192.401 Y179.546 E7.71555
G1 X192.939 Y178.739 E7.74676
G1 X193.404 Y177.874 E7.77835
G1 X193.563 Y177.476 E7.79218
G1 X193.663 Y177.036 E7.80668
G1 X193.661 Y176.755 E7.81573
G1 X193.619 Y176.506 E7.82385
G1 X193.435 Y175.895 E7.84441
G1 E1.34441 F3000.00000
G92 E0
G1 Z0.300 F4800.000
G1 X194.593 Y168.296
G1 Z0.200
G1 E6.50000 F2700.00000
G1 F1200.000
G1 X194.548 Y168.114 E6.50605
G1 X194.966 Y167.910 E6.52104
G1 X195.351 Y167.644 E6.53609
G1 X195.723 Y167.329 E6.55178
G1 X196.162 Y166.770 E6.57466
G1 X196.337 Y166.433 E6.58688
G1 X196.474 Y166.098 E6.59854
G1 X196.558 Y165.788 E6.60888
G1 X196.710 Y166.128 E6.62086
G1 X196.798 Y166.411 E6.63041
G1 X196.822 Y166.535 E6.63447
G1 X196.829 Y166.848 E6.64455
G1 X196.758 Y167.156 E6.65471
G1 X196.589 Y167.479 E6.66644
G1 X196.431 Y167.655 E6.67405
G1 X196.243 Y167.821 E6.68211
G1 X196.022 Y167.954 E6.69043
G1 X195.771 Y168.073 E6.69938
G1 X195.307 Y168.220 E6.71503
G1 X194.816 Y168.289 E6.73101
G1 X194.653 Y168.294 E6.73625
G1 E0.23625 F3000.00000
G92 E0
G1 Z0.300 F4800.000
G1 X177.215 Y165.946
G1 Z0.200
G1 E6.50000 F2700.00000
G1 F1200.000
G1 X177.394 Y166.508 E6.51900
G1 X177.458 Y166.940 E6.53305
G1 X177.450 Y167.400 E6.54786
G1 X177.418 Y167.637 E6.55555
G1 X177.293 Y168.155 E6.57269
G1 X177.189 Y168.452 E6.58283
G1 X177.061 Y168.735 E6.59281
G1 X176.911 Y169.027 E6.60339
G1 X176.525 Y169.461 E6.62211
G1 X176.064 Y169.809 E6.64067
G1 X175.543 Y170.057 E6.65926
G1 X175.000 Y170.238 E6.67769
G1 X174.618 Y170.303 E6.69013
G1 X174.238 Y170.332 E6.70241
G1 X173.858 Y170.308 E6.71467
G1 X173.461 Y170.253 E6.72758
G1 X173.178 Y170.121 E6.73762
G1 X172.913 Y169.952 E6.74773
G1 X172.737 Y169.737 E6.75668
G1 X172.614 Y169.501 E6.76525
G1 X172.566 Y169.242 E6.77372
G1 X172.557 Y168.983 E6.78207
G1 X172.606 Y168.641 E6.79320
G1 X172.692 Y168.311 E6.80415
G1 X172.830 Y168.002 E6.81506
G1 X173.001 Y167.700 E6.82623
G1 X173.347 Y167.301 E6.84323
G1 X173.733 Y166.955 E6.85991
G1 X174.174 Y166.684 E6.87657
G1 X174.640 Y166.455 E6.89328
G1 X175.054 Y166.313 E6.90739
G1 X175.654 Y166.164 E6.92726
G1 X176.218 Y166.052 E6.94579
G1 X177.155 Y165.951 E6.97613
G1 X177.603 Y165.846 F4800.000
G1 E0.47613 F3000.00000
G92 E0
G1 Z0.300 F4800.000
G1 X173.258 Y166.861
G1 Z0.200
G1 E6.50000 F2700.00000
G1 F1200.000
G1 X173.071 Y167.029 E6.50809
G1 X172.683 Y167.476 E6.52714
G1 X172.485 Y167.827 E6.54013
G1 X172.325 Y168.182 E6.55265
G1 X172.226 Y168.564 E6.56535
G1 X172.169 Y168.962 E6.57829
G1 X172.180 Y169.284 E6.58867
G1 X172.280 Y169.822 E6.60626
G1 X171.886 Y169.475 E6.62313
G1 X171.736 Y169.232 E6.63232
G1 X171.616 Y168.925 E6.64296
G1 X171.578 Y168.545 E6.65523
G1 X171.657 Y168.165 E6.66772
G1 X171.854 Y167.796 E6.68119
G1 X172.111 Y167.449 E6.69509
G1 X172.467 Y167.123 E6.71063
G1 X172.880 Y166.832 E6.72689
G1 X173.139 Y166.692 E6.73635
G1 X173.223 Y166.812 E6.74106
G1 E0.24106 F3000.00000
G92 E0
G1 Z0.300 F4800.000
G1 X159.860 Y179.669
G1 Z0.200
G1 E6.50000 F2700.00000
G1 F1200.000
G1 X159.646 Y180.566 E6.52969
G1 X160.081 Y180.742 E6.54478
G1 X159.060 Y182.350 E6.60608
G1 X158.884 Y182.276 E6.61223
G1 X159.001 Y181.721 E6.63048
G1 X159.643 Y179.610 E6.70148
G1 X159.802 Y179.653 E6.70680
G1 X160.100 Y180.332 F4800.000
G1 F1200.000
G1 X160.646 Y180.554 E6.72579
G1 X159.486 Y182.412 E6.79628
G1 X158.907 Y183.264 E6.82944
G1 X158.798 Y183.391 E6.83483
G1 X158.681 Y183.473 E6.83942
G1 X158.588 Y183.517 E6.84273
G1 X158.445 Y183.522 E6.84733
G1 X158.417 Y183.348 E6.85302
G1 X158.402 Y182.999 E6.86424
G1 X158.467 Y182.375 E6.88443
G1 X158.626 Y181.624 E6.90915
G1 X159.554 Y178.570 E7.01188
G1 X159.745 Y177.752 E7.03891
G1 X159.865 Y177.081 E7.06086
G1 X159.899 Y176.696 E7.07329
G1 X159.908 Y176.224 E7.08850
G1 X159.893 Y175.912 E7.09855
G1 X159.827 Y175.484 E7.11249
G1 X160.260 Y175.856 E7.13087
G1 X160.876 Y173.251 E7.21704
G1 X161.455 Y171.068 E7.28972
G1 X161.866 Y169.842 E7.33133
G1 X162.483 Y168.222 E7.38712
