;FLAVOR:Marlin
;TIME:2427
;Filament used: 3.06749m
;Layer height: 0.24
;MINX:34.843
;MINY:23.792
;MINZ:0.2
;MAXX:184.238
;MAXY:196.208
;MAXZ:14.84
;Generated with Cura_SteamEngine 4.6.1
M82 ;absolute extrusion mode
M201 X500.00 Y500.00 Z100.00 E5000.00 ;Setup machine max acceleration
M203 X500.00 Y500.00 Z10.00 E50.00 ;Setup machine max feedrate
M204 P500.00 R1000.00 T500.00 ;Setup Print/Retract/Travel acceleration
M205 X8.00 Y8.00 Z0.40 E5.00 ;Setup Jerk
M220 S100 ;Reset Feedrate
M221 S100 ;Reset Flowrate

M140 S50; start preheating the bed
M104 S220 T0; start preheating hotend
G28 ;Home
G1 Z2.0 F3000 ;Move Z Axis up
M190 S50; heat to bed setting in Cura and WAIT
M109 S220 T0; heat hotend to setting in Cura and WAIT


G92 E0 ;Reset Extruder
G1 Z2.0 F3000 ;Move Z Axis up
G1 X10.1 Y20 Z0.28 F5000.0 ;Move to start position
G1 X10.1 Y200.0 Z0.28 F1500.0 E15 ;Draw the first line
G1 X10.4 Y200.0 Z0.28 F5000.0 ;Move to side a little
G1 X10.4 Y20 Z0.28 F1500.0 E30 ;Draw the second line
G92 E0 ;Reset Extruder
G1 Z2.0 F3000 ;Move Z Axis up
G92 E0
G92 E0
G1 F3000 E-6.5
;LAYER_COUNT:62
;LAYER:0
M107
M204 S500
G0 F6000 X122.617 Y25.938 Z0.2
;TYPE:SKIRT
G1 F2700 E0
G1 F2400 X122.734 Y25.563 E0.01405
G1 X122.925 Y25.219 E0.02811
G1 X123.211 Y24.894 E0.04359
G1 X123.872 Y24.294 E0.07551
G1 X124.189 Y24.061 E0.08958
G1 X124.546 Y23.897 E0.10362
G1 X124.928 Y23.808 E0.11765
G1 X125.173 Y23.792 E0.12643
G1 X128.149 Y23.792 E0.23283
G1 X128.54 Y23.832 E0.24689
G1 X128.915 Y23.95 E0.26094
G1 X129.333 Y24.196 E0.27828
G1 X130.109 Y24.796 E0.31336
G1 X130.393 Y25.067 E0.32739
G1 X130.618 Y25.39 E0.34147
G1 X130.772 Y25.751 E0.3555
G1 X130.86 Y26.327 E0.37633
G1 X130.86 Y27.727 E0.42639
G1 X130.82 Y28.118 E0.44044
G1 X130.702 Y28.493 E0.4545
G1 X130.511 Y28.836 E0.46853
G1 X130.254 Y29.133 E0.48258
G1 X129.942 Y29.373 E0.49665
G1 X129.589 Y29.544 E0.51068
G1 X129.208 Y29.641 E0.52473
G1 X128.925 Y29.662 E0.53488
G1 X124.576 Y29.662 E0.69038
G1 X124.185 Y29.622 E0.70443
G1 X123.81 Y29.504 E0.71849
G1 X123.467 Y29.313 E0.73252
G1 X123.278 Y29.162 E0.74117
G1 X122.952 Y28.813 E0.75825
G1 X122.753 Y28.474 E0.7723
G1 X122.627 Y28.102 E0.78635
G1 X122.578 Y27.671 E0.80186
G1 X122.577 Y26.68 E0.83729
G0 F2160 X122.577 Y26.328
G0 X122.617 Y25.938
G0 F6000 X123.047 Y25.984
G1 F2400 X123.164 Y25.658 E0.84967
G1 X123.353 Y25.367 E0.86208
G1 X123.5 Y25.213 E0.86969
G1 X124.161 Y24.613 E0.90161
G1 X124.443 Y24.411 E0.91401
G1 X124.763 Y24.279 E0.92639
G1 X125.173 Y24.222 E0.94119
G1 X128.149 Y24.222 E1.04759
G1 X128.493 Y24.262 E1.05998
G1 X128.819 Y24.379 E1.07236
G1 X129.07 Y24.536 E1.08295
G1 X129.846 Y25.136 E1.11802
G1 X130.093 Y25.378 E1.13038
G1 X130.279 Y25.671 E1.14279
G1 X130.394 Y25.998 E1.15518
G1 X130.43 Y26.327 E1.16702
G1 X130.43 Y27.727 E1.21707
G1 X130.39 Y28.071 E1.22946
G1 X130.273 Y28.397 E1.24184
G1 X130.084 Y28.687 E1.25422
G1 X129.833 Y28.927 E1.26663
G1 X129.535 Y29.103 E1.27901
G1 X129.204 Y29.206 E1.2914
G1 X128.925 Y29.232 E1.30142
G1 X124.576 Y29.232 E1.45692
G1 X124.232 Y29.192 E1.4693
G1 X123.906 Y29.075 E1.48169
G1 X123.566 Y28.843 E1.4964
G1 X123.275 Y28.526 E1.51179
G1 X123.112 Y28.22 E1.52418
G1 X123.023 Y27.885 E1.53658
G1 X123.008 Y27.671 E1.54425
G1 X123.007 Y26.726 E1.57804
G0 F2160 X123.007 Y26.328
G0 X123.047 Y25.984
G0 F6000 X123.477 Y26.038
G1 F2400 X123.593 Y25.769 E1.58851
G1 X123.789 Y25.531 E1.59953
G1 X124.45 Y24.931 E1.63145
G1 X124.692 Y24.766 E1.64192
G1 X124.969 Y24.672 E1.65238
G1 X125.173 Y24.652 E1.65971
G1 X128.149 Y24.652 E1.76612
G1 X128.439 Y24.692 E1.77659
G1 X128.807 Y24.877 E1.79131
G1 X129.583 Y25.477 E1.82638
G1 X129.788 Y25.685 E1.83683
G1 X129.929 Y25.942 E1.84731
G1 X130 Y26.327 E1.8613
G1 X130 Y27.727 E1.91136
G1 X129.96 Y28.017 E1.92183
G1 X129.844 Y28.285 E1.93227
G1 X129.659 Y28.512 E1.94274
G1 X129.42 Y28.681 E1.95321
G1 X129.145 Y28.779 E1.96364
G1 X128.925 Y28.802 E1.97155
G1 X124.576 Y28.802 E2.12705
G1 X124.286 Y28.762 E2.13752
G1 X124.018 Y28.646 E2.14796
G1 X123.855 Y28.524 E2.15524
G1 X123.604 Y28.243 E2.16871
G1 X123.483 Y27.977 E2.17916
G1 X123.438 Y27.671 E2.19022
G1 X123.437 Y26.78 E2.22207
G0 F2160 X123.437 Y26.328
G0 X123.477 Y26.038
G0 F6000 X123.907 Y26.105
G1 F2400 X124.078 Y25.849 E2.23308
G1 X124.739 Y25.249 E2.265
G1 X124.931 Y25.129 E2.27309
G1 X125.173 Y25.082 E2.28191
G1 X128.149 Y25.082 E2.38831
G1 X128.372 Y25.122 E2.39642
G1 X128.544 Y25.217 E2.40344
G1 X129.32 Y25.817 E2.43851
G1 X129.471 Y25.984 E2.44656
G1 X129.556 Y26.194 E2.45466
G1 X129.57 Y27.727 E2.50948
G1 X129.53 Y27.95 E2.51758
G1 X129.416 Y28.145 E2.52565
G1 X129.241 Y28.289 E2.53376
G1 X128.925 Y28.372 E2.54544
G1 X124.576 Y28.372 E2.70094
G1 X124.353 Y28.332 E2.70904
G1 X124.143 Y28.205 E2.71781
G1 X123.942 Y27.969 E2.72889
G1 X123.868 Y27.67 E2.73991
G1 X123.867 Y26.846 E2.76937
G0 F2160 X123.867 Y26.327
G0 X123.907 Y26.105
G0 F6000 X124.297 Y26.327
G1 F2400 X124.367 Y26.168 E2.77558
G1 X125.028 Y25.568 E2.8075
G1 X125.173 Y25.512 E2.81306
G1 X128.149 Y25.512 E2.91946
G1 X129.057 Y26.157 E2.95929
G1 X129.14 Y26.327 E2.96605
G1 X129.14 Y27.727 E3.01611
G1 X128.998 Y27.929 E3.02493
G1 X124.576 Y27.942 E3.18304
G1 X124.432 Y27.886 E3.18857
G1 X124.298 Y27.67 E3.19766
G1 X124.297 Y27.071 E3.21907
G0 F2160 X124.297 Y26.327
G1 F3000 E-3.28093
G0 F6000 X123.848 Y26.328
G0 X123.852 Y27.966
G0 X124.277 Y28.346
G0 X131.65 Y29.692
G1 F2700 E3.21907
G1 F2400 X133.941 Y29.701 E3.30099
G1 X136.065 Y29.73 E3.37694
G1 X138.13 Y29.781 E3.45079
G1 X140.132 Y29.849 E3.52241
G1 X142.077 Y29.937 E3.59203
G1 X143.965 Y30.045 E3.65964
G1 X145.795 Y30.171 E3.72523
G1 X147.571 Y30.313 E3.78893
G1 X149.295 Y30.472 E3.85084
G1 X150.968 Y30.648 E3.91098
G1 X152.591 Y30.839 E3.96941
G1 X154.165 Y31.044 E4.02617
G1 X155.696 Y31.264 E4.08147
G1 X157.181 Y31.496 E4.13521
G1 X158.625 Y31.741 E4.18758
G1 X160.026 Y31.996 E4.23849
G1 X161.391 Y32.263 E4.28822
G1 X162.718 Y32.54 E4.33669
G1 X164.007 Y32.825 E4.38389
G1 X165.265 Y33.119 E4.43008
G1 X166.485 Y33.419 E4.475
G1 X167.677 Y33.728 E4.51903
G1 X168.836 Y34.041 E4.56196
G1 X169.967 Y34.361 E4.60398
G1 X171.066 Y34.685 E4.64495
G1 X172.14 Y35.014 E4.68511
G1 X173.185 Y35.346 E4.72431
G1 X174.206 Y35.682 E4.76274
G1 X175.198 Y36.021 E4.80023
G1 X176.171 Y36.362 E4.83709
G1 X177.097 Y36.699 E4.87232
G1 X177.617 Y36.894 E4.89218
G1 X178.019 Y36.718 E4.90787
G1 X178.273 Y36.644 E4.91733
G1 X178.763 Y36.568 E4.93506
G1 X179.028 Y36.561 E4.94454
G1 X179.552 Y36.619 E4.96339
G1 X179.806 Y36.683 E4.97275
G1 X180.072 Y36.771 E4.98277
G1 X181.25 Y37.258 E5.02835
G1 X182.988 Y38.019 E5.09619
G1 X183.44 Y38.267 E5.11462
G1 X183.733 Y38.529 E5.12867
G1 X183.967 Y38.844 E5.1427
G1 X184.133 Y39.201 E5.15678
G1 X184.223 Y39.583 E5.17081
G1 X184.234 Y39.976 E5.18487
G1 X184.165 Y40.363 E5.19892
G1 X184.048 Y40.671 E5.2107
G1 X182.965 Y42.926 E5.30015
G1 X182.76 Y43.261 E5.31419
G1 X182.491 Y43.548 E5.32825
G1 X182.17 Y43.774 E5.34229
G1 X181.81 Y43.931 E5.35633
G1 X181.426 Y44.012 E5.37037
G1 X181.033 Y44.014 E5.38442
G1 X180.648 Y43.936 E5.39846
G1 X180.429 Y43.853 E5.40684
G1 X179.896 Y43.614 E5.42772
G1 X178.796 Y43.137 E5.47059
G1 X177.826 Y42.736 E5.50812
G1 X176.611 Y42.251 E5.55489
G1 X175.484 Y41.825 E5.59797
G1 X174.212 Y41.363 E5.64636
G1 X172.947 Y40.924 E5.69423
G1 X171.587 Y40.472 E5.74548
G1 X170.225 Y40.043 E5.79653
G1 X168.459 Y39.516 E5.86243
G1 X166.622 Y39.003 E5.93062
G1 X165.643 Y38.746 E5.96681
G1 X164.668 Y38.499 E6.00277
G1 X163.67 Y38.256 E6.0395
G1 X162.672 Y38.025 E6.07613
G1 X161.608 Y37.792 E6.11507
G1 X160.539 Y37.566 E6.15414
G1 X159.445 Y37.352 E6.19399
G1 X158.335 Y37.145 E6.23437
G1 X157.162 Y36.938 E6.27695
G1 X155.981 Y36.743 E6.31975
G1 X154.779 Y36.558 E6.36323
G1 X153.543 Y36.381 E6.40788
G1 X152.394 Y36.229 E6.44932
G1 X151.258 Y36.088 E6.49025
G1 X150.072 Y35.955 E6.53292
G1 X148.854 Y35.828 E6.5767
G1 X147.601 Y35.711 E6.6217
G1 X146.327 Y35.602 E6.66742
G1 X145.042 Y35.504 E6.71349
G1 X143.691 Y35.414 E6.76191
G1 X142.34 Y35.335 E6.81029
G1 X140.924 Y35.264 E6.86099
G1 X139.503 Y35.204 E6.91184
G1 X138.022 Y35.153 E6.96482
G1 X136.536 Y35.113 E7.01797
G1 X134.984 Y35.086 E7.07347
G1 X133.408 Y35.068 E7.12983
G1 X131.799 Y35.063 E7.18735
G1 X112.807 Y35.062 E7.86641
G1 X111.009 Y35.083 E7.9307
G1 X109.191 Y35.149 E7.99574
G1 X107.455 Y35.257 E8.05793
G1 X105.675 Y35.41 E8.12181
G1 X103.92 Y35.607 E8.18495
G1 X102.188 Y35.845 E8.24746
G1 X100.471 Y36.123 E8.30965
G1 X98.757 Y36.445 E8.37201
G1 X97.043 Y36.81 E8.43467
G1 X95.362 Y37.213 E8.49647
G1 X93.68 Y37.659 E8.55869
G1 X92.042 Y38.137 E8.6197
G1 X90.374 Y38.667 E8.68228
G1 X88.723 Y39.237 E8.74473
G1 X87.142 Y39.826 E8.80505
G1 X85.491 Y40.484 E8.8686
G1 X83.926 Y41.151 E8.92942
G1 X82.32 Y41.881 E8.9925
G1 X80.759 Y42.632 E9.05443
G1 X79.198 Y43.428 E9.11709
G1 X77.687 Y44.242 E9.17845
G1 X76.173 Y45.103 E9.24073
G1 X74.674 Y46.004 E9.30326
G1 X73.19 Y46.94 E9.36599
G1 X71.74 Y47.903 E9.42823
G1 X70.293 Y48.913 E9.49132
G1 X68.903 Y49.93 E9.5529
G1 X67.474 Y51.027 E9.61731
G1 X66.13 Y52.112 E9.67907
G1 X64.75 Y53.279 E9.74369
G1 X63.439 Y54.44 E9.8063
G1 X62.163 Y55.624 E9.86854
G1 X60.844 Y56.908 E9.93436
G1 X59.585 Y58.195 E9.99873
G1 X58.386 Y59.48 E10.06157
G1 X57.153 Y60.873 E10.12809
G1 X56.007 Y62.234 E10.1917
G1 X54.885 Y63.641 E10.25604
G1 X53.749 Y65.144 E10.32341
G1 X52.697 Y66.618 E10.38816
G1 X51.685 Y68.119 E10.45288
G1 X50.659 Y69.736 E10.52135
G1 X49.733 Y71.29 E10.58603
G1 X48.791 Y72.976 E10.65509
G1 X47.942 Y74.603 E10.7207
G1 X47.093 Y76.348 E10.79009
G1 X46.289 Y78.129 E10.85995
G1 X45.541 Y79.92 E10.92935
G1 X44.937 Y81.489 E10.98946
G1 X44.341 Y83.163 E11.053
G1 X43.798 Y84.821 E11.11538
G1 X43.27 Y86.585 E11.18121
G1 X42.793 Y88.337 E11.24613
G1 X42.36 Y90.097 E11.31094
G1 X41.958 Y91.942 E11.37845
G1 X41.605 Y93.754 E11.44446
G1 X41.278 Y95.694 E11.5148
G1 X41.002 Y97.601 E11.5837
G1 X40.767 Y99.55 E11.65389
G1 X40.569 Y101.555 E11.72592
G1 X40.412 Y103.641 E11.80072
G1 X40.304 Y105.682 E11.8738
G1 X40.236 Y107.804 E11.94971
G1 X40.213 Y110.004 E12.02837
G1 X40.234 Y112.152 E12.10518
G1 X40.301 Y114.285 E12.18148
G1 X40.408 Y116.329 E12.25466
G1 X40.564 Y118.402 E12.32899
G1 X40.762 Y120.42 E12.40149
G1 X40.993 Y122.347 E12.47088
G1 X41.272 Y124.278 E12.54064
G1 X41.591 Y126.171 E12.60928
G1 X41.951 Y128.031 E12.67702
G1 X42.359 Y129.9 E12.74541
G1 X42.786 Y131.642 E12.80954
G1 X43.261 Y133.39 E12.87431
G1 X43.784 Y135.141 E12.93965
G1 X44.323 Y136.79 E13.00168
G1 X44.921 Y138.47 E13.06544
G1 X45.532 Y140.055 E13.12617
G1 X46.299 Y141.895 E13.19745
G1 X47.087 Y143.642 E13.26597
G1 X47.907 Y145.329 E13.33304
G1 X48.806 Y147.053 E13.40256
G1 X49.7 Y148.653 E13.46809
G1 X50.668 Y150.28 E13.53578
G1 X51.673 Y151.862 E13.60279
G1 X52.688 Y153.371 E13.66781
G1 X53.755 Y154.865 E13.73346
G1 X54.856 Y156.323 E13.79878
G1 X55.978 Y157.731 E13.86315
G1 X57.177 Y159.156 E13.92974
G1 X58.341 Y160.47 E13.9925
G1 X59.601 Y161.822 E14.05858
G1 X60.843 Y163.092 E14.1221
G1 X62.117 Y164.331 E14.18564
G1 X63.446 Y165.567 E14.25053
G1 X64.736 Y166.709 E14.31213
G1 X66.101 Y167.862 E14.37601
G1 X67.452 Y168.952 E14.43808
G1 X68.891 Y170.059 E14.50299
G1 X70.251 Y171.056 E14.56329
G1 X71.728 Y172.087 E14.62769
G1 X73.177 Y173.049 E14.68988
G1 X74.665 Y173.99 E14.75283
G1 X76.154 Y174.884 E14.81492
G1 X77.652 Y175.737 E14.87656
G1 X79.218 Y176.58 E14.94015
G1 X80.744 Y177.361 E15.00144
G1 X82.32 Y178.119 E15.06397
G1 X83.891 Y178.832 E15.12565
G1 X85.479 Y179.509 E15.18738
G1 X87.108 Y180.16 E15.2501
G1 X88.722 Y180.764 E15.31172
G1 X90.362 Y181.327 E15.37371
G1 X91.968 Y181.839 E15.43398
G1 X93.674 Y182.337 E15.49752
G1 X95.341 Y182.78 E15.5592
G1 X96.991 Y183.177 E15.61987
G1 X98.738 Y183.552 E15.68376
G1 X100.425 Y183.868 E15.74513
G1 X102.145 Y184.148 E15.80744
G1 X103.889 Y184.388 E15.87038
G1 X105.633 Y184.584 E15.93313
G1 X107.419 Y184.739 E15.99723
G1 X109.156 Y184.847 E16.05945
G1 X110.973 Y184.914 E16.12446
G1 X112.79 Y184.937 E16.18943
G1 X133.374 Y184.934 E16.92541
G1 X134.95 Y184.916 E16.98176
G1 X136.503 Y184.888 E17.0373
G1 X137.992 Y184.849 E17.09055
G1 X139.475 Y184.799 E17.14361
G1 X140.894 Y184.741 E17.19439
G1 X142.31 Y184.669 E17.24508
G1 X143.662 Y184.59 E17.2935
G1 X145.012 Y184.499 E17.34188
G1 X146.3 Y184.402 E17.38806
G1 X147.574 Y184.293 E17.43378
G1 X148.827 Y184.176 E17.47878
G1 X150.046 Y184.049 E17.5226
G1 X151.213 Y183.917 E17.56459
G1 X152.374 Y183.774 E17.60641
G1 X153.519 Y183.624 E17.6477
G1 X154.76 Y183.447 E17.69252
G1 X155.955 Y183.263 E17.73575
G1 X157.136 Y183.069 E17.77855
G1 X158.309 Y182.861 E17.82114
G1 X159.437 Y182.651 E17.86216
G1 X160.514 Y182.438 E17.90142
G1 X161.587 Y182.213 E17.94062
G1 X162.631 Y181.984 E17.97883
G1 X163.648 Y181.75 E18.01614
G1 X164.648 Y181.508 E18.05293
G1 X165.64 Y181.258 E18.08951
G1 X166.561 Y181.016 E18.12356
G1 X168.426 Y180.494 E18.1928
G1 X170.163 Y179.977 E18.2576
G1 X171.575 Y179.531 E18.31054
G1 X172.888 Y179.097 E18.35999
G1 X174.194 Y178.645 E18.4094
G1 X175.384 Y178.214 E18.45465
G1 X176.607 Y177.749 E18.50144
G1 X177.856 Y177.251 E18.54951
G1 X179.034 Y176.759 E18.59516
G1 X180.343 Y176.185 E18.64626
G1 X180.793 Y176.025 E18.66334
G1 X181.183 Y175.977 E18.67739
G1 X181.574 Y176.01 E18.69142
G1 X181.951 Y176.12 E18.70546
G1 X182.298 Y176.305 E18.71952
G1 X182.601 Y176.555 E18.73357
G1 X182.846 Y176.862 E18.74761
G1 X182.965 Y177.074 E18.7563
G1 X184.049 Y179.329 E18.84576
G1 X184.182 Y179.698 E18.85978
G1 X184.238 Y180.087 E18.87384
G1 X184.215 Y180.479 E18.88788
G1 X184.112 Y180.859 E18.90195
G1 X183.935 Y181.21 E18.91601
G1 X183.691 Y181.517 E18.93003
G1 X183.39 Y181.77 E18.94409
G1 X183.097 Y181.932 E18.95606
G1 X182.776 Y182.076 E18.96864
G1 X181.323 Y182.711 E19.02533
G1 X180.079 Y183.226 E19.07347
G1 X179.821 Y183.312 E19.0832
G1 X179.572 Y183.376 E19.09239
G1 X179.083 Y183.437 E19.11001
G1 X178.813 Y183.436 E19.11966
G1 X178.302 Y183.365 E19.13811
G1 X178.05 Y183.295 E19.14746
G1 X177.611 Y183.106 E19.16455
G1 X177.189 Y183.266 E19.18069
G1 X176.221 Y183.619 E19.21753
G1 X175.261 Y183.957 E19.25392
G1 X174.247 Y184.303 E19.29222
G1 X173.228 Y184.64 E19.3306
G1 X172.182 Y184.972 E19.36984
G1 X171.112 Y185.301 E19.40986
G1 X170.011 Y185.625 E19.4509
G1 X168.882 Y185.945 E19.49285
G1 X167.721 Y186.259 E19.53586
G1 X166.535 Y186.567 E19.57967
G1 X165.311 Y186.868 E19.62474
G1 X164.058 Y187.162 E19.67075
G1 X162.768 Y187.447 E19.71799
G1 X161.445 Y187.725 E19.76633
G1 X160.078 Y187.991 E19.81612
G1 X158.679 Y188.247 E19.86697
G1 X157.237 Y188.493 E19.91927
G1 X155.752 Y188.727 E19.97302
G1 X154.223 Y188.946 E20.02825
G1 X152.648 Y189.152 E20.08504
G1 X151.027 Y189.344 E20.14341
G1 X149.354 Y189.519 E20.20355
G1 X147.631 Y189.68 E20.26542
G1 X145.857 Y189.824 E20.32906
G1 X144.025 Y189.949 E20.39472
G1 X142.141 Y190.058 E20.46219
G1 X140.194 Y190.146 E20.53188
G1 X138.191 Y190.216 E20.60354
G1 X136.129 Y190.267 E20.67729
G1 X134.005 Y190.297 E20.75324
G1 X131.513 Y190.308 E20.84234
G1 X112.764 Y190.308 E21.5127
G1 X110.928 Y190.288 E21.57835
G1 X109.052 Y190.221 E21.64547
G1 X107.192 Y190.111 E21.71209
G1 X105.343 Y189.955 E21.77843
G1 X103.505 Y189.756 E21.84454
G1 X101.68 Y189.513 E21.91036
G1 X99.868 Y189.226 E21.97596
G1 X98.068 Y188.897 E22.04138
G1 X96.279 Y188.524 E22.10672
G1 X94.508 Y188.111 E22.17174
G1 X92.744 Y187.654 E22.2369
G1 X90.999 Y187.158 E22.30176
G1 X89.264 Y186.62 E22.36671
G1 X87.546 Y186.043 E22.43151
G1 X85.84 Y185.425 E22.49638
G1 X84.152 Y184.77 E22.56112
G1 X82.477 Y184.074 E22.62598
G1 X80.819 Y183.34 E22.69081
G1 X79.177 Y182.569 E22.75567
G1 X77.552 Y181.763 E22.82052
G1 X75.942 Y180.918 E22.88553
G1 X74.351 Y180.036 E22.95057
G1 X72.764 Y179.11 E23.01627
G1 X71.211 Y178.157 E23.08142
G1 X69.676 Y177.168 E23.14671
G1 X68.163 Y176.145 E23.21201
G1 X66.668 Y175.085 E23.27754
G1 X65.196 Y173.991 E23.34311
G1 X63.747 Y172.864 E23.40874
G1 X62.318 Y171.699 E23.47467
G1 X60.915 Y170.502 E23.54061
G1 X59.538 Y169.27 E23.60667
G1 X58.182 Y168 E23.6731
G1 X56.857 Y166.698 E23.73952
G1 X55.555 Y165.359 E23.80629
G1 X54.286 Y163.988 E23.87309
