;FLAVOR:Marlin
;TIME:3230
;Filament used: 2.10405m
;Layer height: 0.2







;POSTPROCESSED
;ChangeAtZ instances: 1
;Generated with Cura_SteamEngine 3.6.0
M140 S60
M105
M190 S60
M104 S210
M105
M109 S210
M82 ;absolute extrusion mode
G21	;metric values
G90	;absolute positioning
M82	;set extruder to absolute mode
M106 S255	;start with the fan off
G28 X0 Y0	;move X/Y to min endstops
G28 Z0	;move Z to min endstops
G1 Z15.0 F4200 ;move the platform down 15mm
G92 E0	;zero the extruded length
G1 F200 E3	;extrude 3mm of feed stock
G92 E0	;zero the extruded length again
G1 F4200
;Put printing message on LCD screen
M117 Printing...
G92 E0
G1 F1500 E-6.5
;LAYER_COUNT:200







;LAYER:0
M107
G0 F3600 X122.434 Y134.725 Z0.3
;TYPE:SKIRT
G1 F1500 E0
G1 F1200 X122.754 Y134.453 E0.02095
G1 X123.118 Y134.247 E0.04182
G1 X123.516 Y134.114 E0.06276
G1 X124.013 Y134.057 E0.08771
G1 X144.103 Y134.057 E1.09001
G1 X144.456 Y133.854 E1.11032
G1 X144.853 Y133.718 E1.13126
G1 X145.366 Y133.657 E1.15703
G1 X146.166 Y133.657 E1.19695
G1 X146.583 Y133.697 E1.21785
G1 X146.985 Y133.815 E1.23875
G1 X147.357 Y134.008 E1.25966
G1 X147.419 Y134.057 E1.2636
G1 X163.367 Y134.057 E2.05925
G1 X163.367 Y133.423 E2.09088
G1 X163.407 Y133.006 E2.11178
G1 X163.525 Y132.604 E2.13268
G1 X163.718 Y132.232 E2.15359
G1 X163.977 Y131.903 E2.17448
G1 X164.294 Y131.629 E2.19538
G1 X164.657 Y131.42 E2.21628
G1 X165.054 Y131.284 E2.23722
G1 X165.567 Y131.223 E2.26299
G1 X174.283 Y131.223 E2.69783
G1 X174.7 Y131.263 E2.71873
G1 X175.102 Y131.381 E2.73963
G1 X175.474 Y131.574 E2.76054
G1 X175.803 Y131.833 E2.78143
G1 X176.077 Y132.15 E2.80234
G1 X176.286 Y132.513 E2.82323
G1 X176.422 Y132.91 E2.84417
G1 X176.483 Y133.423 E2.86994
G1 X176.483 Y134.096 E2.90352
G1 X176.496 Y134.097 E2.90417
G1 X176.898 Y134.215 E2.92507
G1 X177.27 Y134.408 E2.94598
G1 X177.599 Y134.667 E2.96687
G1 X177.873 Y134.984 E2.98777
G1 X178.082 Y135.347 E3.00867
G1 X178.218 Y135.744 E3.02961
G1 X178.277 Y136.159 E3.05052
G1 X178.259 Y136.552 E3.07015
G1 X177.356 Y143.233 E3.4065
G1 X177.342 Y143.323 E3.41104
G1 X176.517 Y147.97 E3.6465
G1 X176.489 Y148.105 E3.65338
G1 X175.629 Y151.639 E3.83484
G1 X175.585 Y151.794 E3.84288
G1 X175.218 Y152.933 E3.90258
G1 X175.146 Y153.124 E3.91276
G1 X174.365 Y154.947 E4.01171
G1 X174.184 Y155.286 E4.03088
G1 X173.742 Y155.961 E4.07114
G1 X173.489 Y156.278 E4.09137
G1 X172.979 Y156.81 E4.12814
G1 X172.486 Y157.196 E4.15938
G1 X171.801 Y157.589 E4.19878
G1 X171.419 Y157.762 E4.2197
G1 X170.997 Y157.862 E4.24133
G1 X170.226 Y157.965 E4.28014
G1 X169.808 Y157.98 E4.30101
G1 X169.286 Y157.886 E4.32747
G1 X168.447 Y157.627 E4.37128
G1 X168.06 Y157.466 E4.39219
G1 X167.781 Y157.289 E4.40867
G1 X167.07 Y156.759 E4.45292
G1 X166.771 Y156.49 E4.47298
G1 X166.214 Y155.889 E4.51386
G1 X166.025 Y155.655 E4.52887
G1 X164.98 Y154.161 E4.61983
G1 X164.907 Y154.049 E4.6265
G1 X162.609 Y150.296 E4.84605
G1 X161.875 Y149.332 E4.9065
G1 X161.824 Y149.285 E4.90996
G1 X161.464 Y149.659 E4.93586
G1 X160.892 Y150.387 E4.98205
G1 X159.597 Y152.373 E5.10033
G1 X156.109 Y158.526 E5.4532
G1 X156.078 Y158.579 E5.45626
G1 X154.768 Y160.746 E5.58259
G1 X154.698 Y160.854 E5.58901
G1 X153.149 Y163.109 E5.7255
G1 X153.035 Y163.26 E5.73494
G1 X151.805 Y164.756 E5.83156
G1 X151.645 Y164.931 E5.84339
G1 X150.345 Y166.204 E5.93417
G1 X150.094 Y166.415 E5.95053
G1 X148.729 Y167.401 E6.03454
G1 X148.5 Y167.546 E6.04806
G1 X148.021 Y167.809 E6.07532
G1 X147.859 Y167.89 E6.08436
G1 X147.268 Y168.154 E6.11665
G1 X146.969 Y168.262 E6.13251
G1 X145.743 Y168.608 E6.19607
G1 X145.4 Y168.676 E6.21351
G1 X144.775 Y168.749 E6.24491
G1 X144.432 Y168.762 E6.26203
G1 X143.159 Y168.711 E6.32559
G1 X142.703 Y168.645 E6.34858
G1 X141.425 Y168.319 E6.41438
G1 X141.095 Y168.206 E6.43178
G1 X140.268 Y167.848 E6.47674
G1 X139.958 Y167.683 E6.49426
G1 X138.3 Y166.624 E6.59241
G1 X138.035 Y166.425 E6.60895
G1 X136.789 Y165.334 E6.69157
G1 X136.606 Y165.155 E6.70434
G1 X134.94 Y163.313 E6.82825
G1 X134.816 Y163.162 E6.838
G1 X133.542 Y161.473 E6.94355
G1 X133.465 Y161.364 E6.95021
G1 X132.191 Y159.444 E7.06516
G1 X132.121 Y159.331 E7.0718
G1 X130.135 Y155.905 E7.26936
G1 X130.066 Y155.778 E7.27657
G1 X127.362 Y150.316 E7.58064
G1 X127.32 Y150.226 E7.58559
G1 X125.602 Y146.321 E7.79843
G1 X125.568 Y146.239 E7.80286
G1 X121.965 Y137.061 E8.29477
G1 X121.85 Y136.658 E8.31568
G1 X121.813 Y136.241 E8.33657
G1 X121.856 Y135.824 E8.35748
G1 X121.977 Y135.423 E8.37838
G1 X122.172 Y135.052 E8.39929
G1 X122.434 Y134.725 E8.4202
G0 F3600 X122.614 Y135.124
G1 F1200 X122.882 Y134.857 E8.43907
G1 X123.2 Y134.651 E8.45797
G1 X123.555 Y134.516 E8.47692
G1 X124.013 Y134.457 E8.49996
G1 X144.246 Y134.457 E9.50939
G1 X144.478 Y134.292 E9.52359
G1 X144.825 Y134.14 E9.54249
G1 X145.366 Y134.057 E9.5698
G1 X146.166 Y134.057 E9.60971
G1 X146.543 Y134.097 E9.62862
G1 X146.903 Y134.215 E9.64752
G1 X147.23 Y134.405 E9.66639
G1 X147.287 Y134.457 E9.67024
G1 X163.767 Y134.457 E10.49243
G1 X163.767 Y133.423 E10.54402
G1 X163.807 Y133.046 E10.56293
G1 X163.925 Y132.686 E10.58183
G1 X164.115 Y132.359 E10.6007
G1 X164.37 Y132.078 E10.61963
G1 X164.679 Y131.858 E10.63856
G1 X165.026 Y131.706 E10.65746
G1 X165.567 Y131.623 E10.68476
G1 X174.283 Y131.623 E11.11961
G1 X174.66 Y131.663 E11.13852
G1 X175.02 Y131.781 E11.15742
G1 X175.347 Y131.971 E11.17629
G1 X175.628 Y132.226 E11.19522
G1 X175.848 Y132.535 E11.21414
G1 X176 Y132.882 E11.23304
G1 X176.083 Y133.423 E11.26035
G1 X176.083 Y134.457 E11.31194
G1 X176.456 Y134.497 E11.33065
G1 X176.816 Y134.615 E11.34955
G1 X177.143 Y134.805 E11.36842
G1 X177.424 Y135.06 E11.38735
G1 X177.644 Y135.369 E11.40628
G1 X177.796 Y135.716 E11.42518
G1 X177.871 Y136.087 E11.44406
G1 X177.863 Y136.498 E11.46457
G1 X176.96 Y143.179 E11.80092
G1 X176.948 Y143.253 E11.80466
G1 X176.123 Y147.9 E12.04012
G1 X176.1 Y148.011 E12.04578
G1 X175.24 Y151.545 E12.22723
G1 X175.204 Y151.671 E12.23377
G1 X174.837 Y152.81 E12.29347
G1 X174.779 Y152.967 E12.30182
G1 X173.998 Y154.79 E12.40077
G1 X173.849 Y155.067 E12.41646
G1 X173.407 Y155.742 E12.45671
G1 X173.2 Y156.002 E12.4733
G1 X172.69 Y156.534 E12.51006
G1 X172.287 Y156.849 E12.53558
G1 X171.602 Y157.242 E12.57498
G1 X171.255 Y157.395 E12.5939
G1 X170.944 Y157.465 E12.60981
G1 X170.173 Y157.568 E12.64861
G1 X169.795 Y157.579 E12.66748
G1 X169.404 Y157.504 E12.68734
G1 X168.565 Y157.245 E12.73115
G1 X168.217 Y157.096 E12.75003
G1 X168.02 Y156.968 E12.76176
G1 X167.309 Y156.438 E12.806
G1 X167.065 Y156.219 E12.82236
G1 X166.508 Y155.618 E12.86324
G1 X166.353 Y155.426 E12.87555
G1 X165.308 Y153.932 E12.96651
G1 X165.248 Y153.84 E12.97199
G1 X162.941 Y150.072 E13.19241
G1 X162.171 Y149.061 E13.25581
G1 X161.835 Y148.752 E13.27859
G1 X161.649 Y148.888 E13.29008
G1 X161.162 Y149.395 E13.32515
G1 X160.567 Y150.153 E13.37323
G1 X159.258 Y152.16 E13.49277
G1 X155.761 Y158.329 E13.84656
G1 X155.735 Y158.372 E13.84906
G1 X154.425 Y160.539 E13.9754
G1 X154.369 Y160.627 E13.9806
G1 X152.82 Y162.882 E14.11709
G1 X152.726 Y163.006 E14.12485
G1 X151.496 Y164.502 E14.22148
G1 X151.365 Y164.645 E14.23115
G1 X150.065 Y165.918 E14.32192
G1 X149.86 Y166.091 E14.33531
G1 X148.495 Y167.077 E14.41932
G1 X148.307 Y167.196 E14.43042
G1 X147.828 Y167.459 E14.45768
G1 X147.696 Y167.524 E14.46502
G1 X147.105 Y167.788 E14.49731
G1 X146.86 Y167.877 E14.51032
G1 X145.634 Y168.223 E14.57387
G1 X145.354 Y168.279 E14.58812
G1 X144.729 Y168.352 E14.61951
G1 X144.448 Y168.363 E14.63354
G1 X143.175 Y168.312 E14.6971
G1 X142.802 Y168.257 E14.71591
G1 X141.524 Y167.931 E14.78171
G1 X141.254 Y167.839 E14.79595
G1 X140.427 Y167.481 E14.8409
G1 X140.173 Y167.346 E14.85526
G1 X138.515 Y166.287 E14.95341
G1 X138.298 Y166.124 E14.96695
G1 X137.052 Y165.033 E15.04957
G1 X136.903 Y164.886 E15.06001
G1 X135.237 Y163.044 E15.18392
G1 X135.135 Y162.921 E15.1919
G1 X133.861 Y161.232 E15.29744
G1 X133.798 Y161.143 E15.30288
G1 X132.524 Y159.223 E15.41784
G1 X132.467 Y159.131 E15.42324
G1 X130.481 Y155.705 E15.62081
G1 X130.425 Y155.601 E15.6267
G1 X127.721 Y150.139 E15.93077
G1 X127.686 Y150.065 E15.93485
G1 X125.968 Y146.16 E16.14769
G1 X125.94 Y146.093 E16.15131
G1 X122.337 Y136.915 E16.64323
G1 X122.237 Y136.549 E16.66215
G1 X122.215 Y136.171 E16.68105
G1 X122.273 Y135.797 E16.69993
G1 X122.408 Y135.442 E16.71888
G1 X122.614 Y135.124 E16.73778
G0 F3600 X123.06 Y135.232
G1 F1200 X123.33 Y135.035 E16.75445
G1 X123.639 Y134.908 E16.77112
G1 X124.013 Y134.857 E16.78995
G1 X144.399 Y134.857 E17.80701
G1 X144.559 Y134.713 E17.81775
G1 X144.853 Y134.554 E17.83443
G1 X145.177 Y134.47 E17.85113
G1 X145.366 Y134.457 E17.86058
G1 X146.166 Y134.457 E17.90049
G1 X146.498 Y134.497 E17.91717
G1 X146.81 Y134.614 E17.9338
G1 X147.087 Y134.802 E17.9505
G1 X147.136 Y134.857 E17.95418
G1 X164.167 Y134.857 E18.80386
G1 X164.167 Y133.423 E18.8754
G1 X164.207 Y133.091 E18.89208
G1 X164.324 Y132.779 E18.90871
G1 X164.512 Y132.502 E18.92541
G1 X164.76 Y132.279 E18.94205
G1 X165.054 Y132.12 E18.95872
G1 X165.378 Y132.036 E18.97542
G1 X165.567 Y132.023 E18.98487
G1 X174.283 Y132.023 E19.41972
G1 X174.615 Y132.063 E19.4364
G1 X174.927 Y132.18 E19.45302
G1 X175.204 Y132.368 E19.46972
G1 X175.427 Y132.616 E19.48636
G1 X175.586 Y132.91 E19.50304
G1 X175.67 Y133.234 E19.51974
G1 X175.683 Y133.423 E19.52919
G1 X175.683 Y134.857 E19.60073
G1 X176.079 Y134.857 E19.62049
G1 X176.411 Y134.897 E19.63717
G1 X176.723 Y135.014 E19.6538
G1 X177 Y135.202 E19.6705
G1 X177.223 Y135.45 E19.68714
G1 X177.382 Y135.744 E19.70381
G1 X177.466 Y136.068 E19.72051
G1 X177.466 Y136.445 E19.73932
G1 X176.563 Y143.126 E20.07567
G1 X176.554 Y143.183 E20.07855
G1 X175.729 Y147.83 E20.31401
G1 X175.711 Y147.916 E20.3184
G1 X174.851 Y151.45 E20.49985
G1 X174.824 Y151.548 E20.50492
G1 X174.457 Y152.687 E20.56463
G1 X174.411 Y152.809 E20.57113
G1 X173.63 Y154.632 E20.67008
G1 X173.514 Y154.848 E20.68231
G1 X173.072 Y155.523 E20.72256
G1 X172.912 Y155.725 E20.73542
G1 X172.402 Y156.257 E20.77218
G1 X172.088 Y156.502 E20.79205
G1 X171.403 Y156.895 E20.83145
G1 X171.095 Y157.026 E20.84815
G1 X170.891 Y157.069 E20.85855
G1 X170.12 Y157.172 E20.89736
G1 X169.786 Y157.176 E20.91403
G1 X169.522 Y157.122 E20.92747
G1 X168.683 Y156.863 E20.97128
G1 X168.259 Y156.647 E20.99502
G1 X167.548 Y156.117 E21.03926
G1 X167.358 Y155.947 E21.05198
G1 X166.801 Y155.346 E21.09286
G1 X166.681 Y155.196 E21.10244
G1 X165.636 Y153.702 E21.1934
G1 X165.589 Y153.631 E21.19765
G1 X163.27 Y149.844 E21.41919
G1 X162.469 Y148.792 E21.48516
G1 X161.969 Y148.331 E21.51909
G1 X161.859 Y148.271 E21.52534
G1 X161.777 Y148.298 E21.52965
G1 X161.389 Y148.582 E21.55364
G1 X160.861 Y149.132 E21.59168
G1 X160.241 Y149.921 E21.64174
G1 X158.91 Y151.962 E21.7633
G1 X155.413 Y158.131 E22.11709
G1 X155.393 Y158.165 E22.11905
G1 X154.083 Y160.332 E22.24539
G1 X154.039 Y160.401 E22.24947
G1 X152.49 Y162.656 E22.38596
G1 X152.417 Y162.752 E22.39197
G1 X151.187 Y164.248 E22.4886
G1 X151.086 Y164.359 E22.49608
G1 X149.786 Y165.632 E22.58686
G1 X149.626 Y165.767 E22.5973
G1 X148.261 Y166.753 E22.68131
G1 X148.115 Y166.845 E22.68992
G1 X147.636 Y167.108 E22.71718
G1 X147.533 Y167.159 E22.72292
G1 X146.942 Y167.423 E22.75521
G1 X146.751 Y167.492 E22.76534
G1 X145.525 Y167.838 E22.8289
G1 X145.307 Y167.882 E22.83999
G1 X144.682 Y167.955 E22.87139
G1 X144.464 Y167.963 E22.88227
G1 X143.191 Y167.912 E22.94583
G1 X142.901 Y167.87 E22.96045
G1 X141.623 Y167.544 E23.02625
G1 X141.413 Y167.472 E23.03733
G1 X140.586 Y167.114 E23.08229
G1 X140.388 Y167.009 E23.09347
G1 X138.73 Y165.95 E23.19162
G1 X138.562 Y165.823 E23.20213
G1 X137.316 Y164.732 E23.28475
G1 X137.2 Y164.618 E23.29286
G1 X135.534 Y162.776 E23.41677
G1 X135.454 Y162.68 E23.42301
G1 X134.18 Y160.991 E23.52856
G1 X134.131 Y160.922 E23.53278
G1 X132.857 Y159.002 E23.64774
G1 X132.813 Y158.93 E23.65195
G1 X130.827 Y155.504 E23.84951
G1 X130.783 Y155.423 E23.85411
G1 X128.079 Y149.961 E24.15818
G1 X128.053 Y149.904 E24.1613
G1 X126.335 Y145.999 E24.37414
G1 X126.313 Y145.947 E24.37696
G1 X122.71 Y136.769 E24.86887
G1 X122.626 Y136.445 E24.88557
G1 X122.621 Y136.111 E24.90224
G1 X122.695 Y135.786 E24.91887
G1 X122.844 Y135.487 E24.93553
G1 X123.06 Y135.232 E24.95221
G0 F3600 X123.287 Y135.569
G1 F1200 X123.508 Y135.394 E24.96627
G1 X123.769 Y135.287 E24.98034
G1 X124.013 Y135.257 E24.99261
G1 X144.576 Y135.257 E26.0185
G1 X144.705 Y135.106 E26.02841
G1 X144.941 Y134.952 E26.04247
G1 X145.211 Y134.869 E26.05656
G1 X145.366 Y134.857 E26.06432
G1 X146.166 Y134.857 E26.10423
G1 X146.445 Y134.897 E26.11829
G1 X146.702 Y135.013 E26.13236
G1 X146.917 Y135.196 E26.14644
G1 X146.957 Y135.257 E26.15008
G1 X164.567 Y135.257 E27.02865
G1 X164.567 Y133.423 E27.12015
G1 X164.607 Y133.144 E27.13421
G1 X164.723 Y132.887 E27.14828
G1 X164.906 Y132.672 E27.16236
G1 X165.142 Y132.518 E27.17642
G1 X165.412 Y132.435 E27.19051
G1 X165.567 Y132.423 E27.19827
G1 X174.283 Y132.423 E27.63311
G1 X174.562 Y132.463 E27.64717
G1 X174.819 Y132.579 E27.66124
G1 X175.034 Y132.762 E27.67533
G1 X175.188 Y132.998 E27.68939
G1 X175.271 Y133.268 E27.70348
G1 X175.283 Y133.423 E27.71123
G1 X175.283 Y135.257 E27.80273
G1 X176.079 Y135.257 E27.84245
G1 X176.358 Y135.297 E27.85651
G1 X176.615 Y135.413 E27.87058
G1 X176.83 Y135.596 E27.88466
G1 X176.984 Y135.832 E27.89872
G1 X177.067 Y136.102 E27.91281
G1 X177.07 Y136.391 E27.92723
G1 X176.167 Y143.072 E28.26358
G1 X176.161 Y143.113 E28.26565
G1 X175.336 Y147.76 E28.50111
G1 X175.323 Y147.821 E28.50422
G1 X174.463 Y151.355 E28.68568
G1 X174.443 Y151.426 E28.68936
G1 X174.076 Y152.565 E28.74906
G1 X174.043 Y152.652 E28.7537
G1 X173.262 Y154.475 E28.85265
G1 X173.18 Y154.629 E28.86135
G1 X172.738 Y155.304 E28.90161
G1 X172.623 Y155.448 E28.9108
G1 X172.113 Y155.98 E28.94757
G1 X171.889 Y156.155 E28.96175
G1 X171.204 Y156.548 E29.00115
G1 X170.838 Y156.672 E29.02043
G1 X170.067 Y156.775 E29.05924
G1 X169.785 Y156.773 E29.07331
G1 X169.64 Y156.74 E29.08072
G1 X168.801 Y156.481 E29.12453
G1 X168.498 Y156.327 E29.14149
G1 X167.787 Y155.797 E29.18573
G1 X167.652 Y155.675 E29.19481
G1 X167.095 Y155.074 E29.23569
G1 X167.009 Y154.967 E29.24254
G1 X165.964 Y153.473 E29.3335
G1 X165.93 Y153.422 E29.33656
G1 X163.599 Y149.614 E29.55931
G1 X162.768 Y148.524 E29.62769
G1 X162.205 Y148.004 E29.66592
G1 X161.975 Y147.879 E29.67898
G1 X161.83 Y147.859 E29.68629
G1 X161.595 Y147.937 E29.69864
G1 X161.12 Y148.284 E29.72799
G1 X160.558 Y148.869 E29.76846
G1 X159.916 Y149.687 E29.82034
G1 X158.571 Y151.749 E29.94316
G1 X155.065 Y157.934 E30.29786
G1 X155.051 Y157.958 E30.29925
G1 X153.741 Y160.125 E30.42558
G1 X153.709 Y160.174 E30.4285
G1 X152.16 Y162.429 E30.56499
G1 X152.108 Y162.498 E30.5693
G1 X150.878 Y163.994 E30.66592
G1 X150.806 Y164.073 E30.67125
G1 X149.506 Y165.346 E30.76203
G1 X149.392 Y165.443 E30.7695
G1 X148.027 Y166.429 E30.8535
G1 X147.922 Y166.495 E30.85969
G1 X147.443 Y166.758 E30.88695
G1 X147.37 Y166.794 E30.89101
G1 X146.779 Y167.058 E30.92331
G1 X146.643 Y167.107 E30.93052
G1 X145.417 Y167.453 E30.99407
G1 X145.261 Y167.484 E31.00201
G1 X144.636 Y167.557 E31.0334
G1 X144.48 Y167.563 E31.04119
G1 X143.207 Y167.512 E31.10475
G1 X143 Y167.482 E31.11519
G1 X141.722 Y167.156 E31.18099
G1 X141.572 Y167.105 E31.18889
G1 X140.745 Y166.747 E31.23385
G1 X140.604 Y166.672 E31.24182
G1 X138.946 Y165.613 E31.33997
G1 X138.825 Y165.522 E31.34752
G1 X137.579 Y164.431 E31.43015
G1 X137.496 Y164.35 E31.43594
G1 X135.83 Y162.508 E31.55985
G1 X135.774 Y162.439 E31.56428
G1 X134.5 Y160.75 E31.66983
G1 X134.465 Y160.701 E31.67283
G1 X133.191 Y158.781 E31.78779
G1 X133.159 Y158.73 E31.79079
G1 X131.173 Y155.304 E31.98836
G1 X131.142 Y155.246 E31.99164
G1 X128.438 Y149.784 E32.29571
G1 X128.419 Y149.743 E32.29796
G1 X126.701 Y145.838 E32.5108
G1 X126.685 Y145.8 E32.51286
G1 X123.082 Y136.622 E33.00477
G1 X123.017 Y136.348 E33.01882
G1 X123.031 Y136.066 E33.03291
G1 X123.124 Y135.8 E33.04696
G1 X123.287 Y135.569 E33.06107
G0 F3600 X123.563 Y135.86
G1 F1200 X123.735 Y135.725 E33.07198
G1 X124.013 Y135.657 E33.08626
G1 X144.803 Y135.657 E34.12347
G1 X144.806 Y135.642 E34.12424
