;FLAVOR:Marlin
;TIME:3230
;Filament used: 2.10415m
;Layer height: 0.2







;POSTPROCESSED
;ChangeAtZ instances: 1
;Generated with Cura_SteamEngine 3.6.0
M140 S60
M105
M190 S60
M104 S210
M105
M109 S210
M82 ;absolute extrusion mode
G21 ;valeurs métriques
G90 ;positionnement absolu
M82 ;mettre l'extrudeuse en mode absolu
M107 ;commencez avec le ventilateur éteint
G28 X0 Y0 ;déplacer X / Y à des butées min
G28 Z0 ;déplacez Z en butées min
G0 X0 Y15 F9000 ;Lit en avant
G0 Z0.15 ;Déposer au lit
G92 E0 ;zéro la longueur extrudée
G1 X40 E10 F500 ;Extruder 10 mm de filament sur 4 cm
G92 E0 ;zéro la longueur extrudée
G1 E-1 F500 ;Rétracter un peu
G1 X80 F4000 ;Essuye rapidement la ligne de filament
G1 Z0.3 ;Levez et commencez à imprimer.
G1 F{travel_speed}
M117 Impression...
G92 E0
G1 F1500 E-6.5
;LAYER_COUNT:200







;LAYER:0
M107
G0 F3600 X82.434 Y94.725 Z0.3
;TYPE:SKIRT
G1 F1500 E0
G1 F1200 X82.754 Y94.453 E0.02095
G1 X83.118 Y94.247 E0.04182
G1 X83.516 Y94.114 E0.06276
G1 X84.013 Y94.057 E0.08771
G1 X104.103 Y94.057 E1.09001
G1 X104.456 Y93.854 E1.11032
G1 X104.853 Y93.718 E1.13126
G1 X105.366 Y93.657 E1.15703
G1 X106.166 Y93.657 E1.19695
G1 X106.583 Y93.697 E1.21785
G1 X106.985 Y93.815 E1.23875
G1 X107.357 Y94.008 E1.25966
G1 X107.419 Y94.057 E1.2636
G1 X123.367 Y94.057 E2.05925
G1 X123.367 Y93.423 E2.09088
G1 X123.407 Y93.006 E2.11178
G1 X123.525 Y92.604 E2.13268
G1 X123.718 Y92.232 E2.15359
G1 X123.977 Y91.903 E2.17448
G1 X124.294 Y91.629 E2.19538
G1 X124.657 Y91.42 E2.21628
G1 X125.054 Y91.284 E2.23722
G1 X125.567 Y91.223 E2.26299
G1 X134.283 Y91.223 E2.69783
G1 X134.7 Y91.263 E2.71873
G1 X135.102 Y91.381 E2.73963
G1 X135.474 Y91.574 E2.76054
G1 X135.803 Y91.833 E2.78143
G1 X136.077 Y92.15 E2.80234
G1 X136.286 Y92.513 E2.82323
G1 X136.422 Y92.91 E2.84417
G1 X136.483 Y93.423 E2.86994
G1 X136.483 Y94.096 E2.90352
G1 X136.496 Y94.097 E2.90417
G1 X136.898 Y94.215 E2.92507
G1 X137.27 Y94.408 E2.94598
G1 X137.599 Y94.667 E2.96687
G1 X137.873 Y94.984 E2.98777
G1 X138.082 Y95.347 E3.00867
G1 X138.218 Y95.744 E3.02961
G1 X138.277 Y96.159 E3.05052
G1 X138.259 Y96.552 E3.07015
G1 X137.356 Y103.233 E3.4065
G1 X137.342 Y103.323 E3.41104
G1 X136.517 Y107.97 E3.6465
G1 X136.489 Y108.105 E3.65338
G1 X135.629 Y111.639 E3.83484
G1 X135.585 Y111.794 E3.84288
G1 X135.218 Y112.933 E3.90258
G1 X135.146 Y113.124 E3.91276
G1 X134.365 Y114.947 E4.01171
G1 X134.184 Y115.286 E4.03088
G1 X133.742 Y115.961 E4.07114
G1 X133.489 Y116.278 E4.09137
G1 X132.979 Y116.81 E4.12814
G1 X132.486 Y117.196 E4.15938
G1 X131.801 Y117.589 E4.19878
G1 X131.419 Y117.762 E4.2197
G1 X130.997 Y117.862 E4.24133
G1 X130.226 Y117.965 E4.28014
G1 X129.808 Y117.98 E4.30101
G1 X129.286 Y117.886 E4.32747
G1 X128.447 Y117.627 E4.37128
G1 X128.06 Y117.466 E4.39219
G1 X127.781 Y117.289 E4.40867
G1 X127.07 Y116.759 E4.45292
G1 X126.771 Y116.49 E4.47298
G1 X126.214 Y115.889 E4.51386
G1 X126.025 Y115.655 E4.52887
G1 X124.98 Y114.161 E4.61983
G1 X124.907 Y114.049 E4.6265
G1 X122.609 Y110.296 E4.84605
G1 X121.875 Y109.332 E4.9065
G1 X121.824 Y109.285 E4.90996
G1 X121.464 Y109.659 E4.93586
G1 X120.892 Y110.387 E4.98205
G1 X119.597 Y112.373 E5.10033
G1 X116.109 Y118.526 E5.4532
G1 X116.078 Y118.579 E5.45626
G1 X114.768 Y120.746 E5.58259
G1 X114.698 Y120.854 E5.58901
G1 X113.149 Y123.109 E5.7255
G1 X113.035 Y123.26 E5.73494
G1 X111.805 Y124.756 E5.83156
G1 X111.645 Y124.931 E5.84339
G1 X110.345 Y126.204 E5.93417
G1 X110.094 Y126.415 E5.95053
G1 X108.729 Y127.401 E6.03454
G1 X108.5 Y127.546 E6.04806
G1 X108.021 Y127.809 E6.07532
G1 X107.859 Y127.89 E6.08436
G1 X107.268 Y128.154 E6.11665
G1 X106.969 Y128.262 E6.13251
G1 X105.743 Y128.608 E6.19607
G1 X105.4 Y128.676 E6.21351
G1 X104.775 Y128.749 E6.24491
G1 X104.432 Y128.762 E6.26203
G1 X103.159 Y128.711 E6.32559
G1 X102.703 Y128.645 E6.34858
G1 X101.425 Y128.319 E6.41438
G1 X101.095 Y128.206 E6.43178
G1 X100.268 Y127.848 E6.47674
G1 X99.958 Y127.683 E6.49426
G1 X98.3 Y126.624 E6.59241
G1 X98.035 Y126.425 E6.60895
G1 X96.789 Y125.334 E6.69157
G1 X96.606 Y125.155 E6.70434
G1 X94.94 Y123.313 E6.82825
G1 X94.816 Y123.162 E6.838
G1 X93.542 Y121.473 E6.94355
G1 X93.465 Y121.364 E6.95021
G1 X92.191 Y119.444 E7.06516
G1 X92.121 Y119.331 E7.0718
G1 X90.135 Y115.905 E7.26936
G1 X90.066 Y115.778 E7.27657
G1 X87.362 Y110.316 E7.58064
G1 X87.32 Y110.226 E7.58559
G1 X85.602 Y106.321 E7.79843
G1 X85.568 Y106.239 E7.80286
G1 X81.965 Y97.061 E8.29477
G1 X81.85 Y96.658 E8.31568
G1 X81.813 Y96.241 E8.33657
G1 X81.856 Y95.824 E8.35748
G1 X81.977 Y95.423 E8.37838
G1 X82.172 Y95.052 E8.39929
G1 X82.434 Y94.725 E8.4202
G0 F3600 X82.614 Y95.124
G1 F1200 X82.882 Y94.857 E8.43907
G1 X83.2 Y94.651 E8.45797
G1 X83.555 Y94.516 E8.47692
G1 X84.013 Y94.457 E8.49996
G1 X104.246 Y94.457 E9.50939
G1 X104.478 Y94.292 E9.52359
G1 X104.825 Y94.14 E9.54249
G1 X105.366 Y94.057 E9.5698
G1 X106.166 Y94.057 E9.60971
G1 X106.543 Y94.097 E9.62862
G1 X106.903 Y94.215 E9.64752
G1 X107.23 Y94.405 E9.66639
G1 X107.287 Y94.457 E9.67024
G1 X123.767 Y94.457 E10.49243
G1 X123.767 Y93.423 E10.54402
G1 X123.807 Y93.046 E10.56293
G1 X123.925 Y92.686 E10.58183
G1 X124.115 Y92.359 E10.6007
G1 X124.37 Y92.078 E10.61963
G1 X124.679 Y91.858 E10.63856
G1 X125.026 Y91.706 E10.65746
G1 X125.567 Y91.623 E10.68476
G1 X134.283 Y91.623 E11.11961
G1 X134.66 Y91.663 E11.13852
G1 X135.02 Y91.781 E11.15742
G1 X135.347 Y91.971 E11.17629
G1 X135.628 Y92.226 E11.19522
G1 X135.848 Y92.535 E11.21414
G1 X136 Y92.882 E11.23304
G1 X136.083 Y93.423 E11.26035
G1 X136.083 Y94.457 E11.31194
G1 X136.456 Y94.497 E11.33065
G1 X136.816 Y94.615 E11.34955
G1 X137.143 Y94.805 E11.36842
G1 X137.424 Y95.06 E11.38735
G1 X137.644 Y95.369 E11.40628
G1 X137.796 Y95.716 E11.42518
G1 X137.871 Y96.087 E11.44406
G1 X137.863 Y96.498 E11.46457
G1 X136.96 Y103.179 E11.80092
G1 X136.948 Y103.253 E11.80466
G1 X136.123 Y107.9 E12.04012
G1 X136.1 Y108.011 E12.04578
G1 X135.24 Y111.545 E12.22723
G1 X135.204 Y111.671 E12.23377
G1 X134.837 Y112.81 E12.29347
G1 X134.779 Y112.967 E12.30182
G1 X133.998 Y114.79 E12.40077
G1 X133.849 Y115.067 E12.41646
G1 X133.407 Y115.742 E12.45671
G1 X133.2 Y116.002 E12.4733
G1 X132.69 Y116.534 E12.51006
G1 X132.287 Y116.849 E12.53558
G1 X131.602 Y117.242 E12.57498
G1 X131.255 Y117.395 E12.5939
G1 X130.944 Y117.465 E12.60981
G1 X130.173 Y117.568 E12.64861
G1 X129.795 Y117.579 E12.66748
G1 X129.404 Y117.504 E12.68734
G1 X128.565 Y117.245 E12.73115
G1 X128.217 Y117.096 E12.75003
G1 X128.02 Y116.968 E12.76176
G1 X127.309 Y116.438 E12.806
G1 X127.065 Y116.219 E12.82236
G1 X126.508 Y115.618 E12.86324
G1 X126.353 Y115.426 E12.87555
G1 X125.308 Y113.932 E12.96651
G1 X125.248 Y113.84 E12.97199
G1 X122.941 Y110.072 E13.19241
G1 X122.171 Y109.061 E13.25581
G1 X121.835 Y108.752 E13.27859
G1 X121.649 Y108.888 E13.29008
G1 X121.162 Y109.395 E13.32515
G1 X120.567 Y110.153 E13.37323
G1 X119.258 Y112.16 E13.49277
G1 X115.761 Y118.329 E13.84656
G1 X115.735 Y118.372 E13.84906
G1 X114.425 Y120.539 E13.9754
G1 X114.369 Y120.627 E13.9806
G1 X112.82 Y122.882 E14.11709
G1 X112.726 Y123.006 E14.12485
G1 X111.496 Y124.502 E14.22148
G1 X111.365 Y124.645 E14.23115
G1 X110.065 Y125.918 E14.32192
G1 X109.86 Y126.091 E14.33531
G1 X108.495 Y127.077 E14.41932
G1 X108.307 Y127.196 E14.43042
G1 X107.828 Y127.459 E14.45768
G1 X107.696 Y127.524 E14.46502
G1 X107.105 Y127.788 E14.49731
G1 X106.86 Y127.877 E14.51032
G1 X105.634 Y128.223 E14.57387
G1 X105.354 Y128.279 E14.58812
G1 X104.729 Y128.352 E14.61951
G1 X104.448 Y128.363 E14.63354
G1 X103.175 Y128.312 E14.6971
G1 X102.802 Y128.257 E14.71591
G1 X101.524 Y127.931 E14.78171
G1 X101.254 Y127.839 E14.79595
G1 X100.427 Y127.481 E14.8409
G1 X100.173 Y127.346 E14.85526
G1 X98.515 Y126.287 E14.95341
G1 X98.298 Y126.124 E14.96695
G1 X97.052 Y125.033 E15.04957
G1 X96.903 Y124.886 E15.06001
G1 X95.237 Y123.044 E15.18392
G1 X95.135 Y122.921 E15.1919
G1 X93.861 Y121.232 E15.29744
G1 X93.798 Y121.143 E15.30288
G1 X92.524 Y119.223 E15.41784
G1 X92.467 Y119.131 E15.42324
G1 X90.481 Y115.705 E15.62081
G1 X90.425 Y115.601 E15.6267
G1 X87.721 Y110.139 E15.93077
G1 X87.686 Y110.065 E15.93485
G1 X85.968 Y106.16 E16.14769
G1 X85.94 Y106.093 E16.15131
G1 X82.337 Y96.915 E16.64323
G1 X82.237 Y96.549 E16.66215
G1 X82.215 Y96.171 E16.68105
G1 X82.273 Y95.797 E16.69993
G1 X82.408 Y95.442 E16.71888
G1 X82.614 Y95.124 E16.73778
G0 F3600 X83.06 Y95.232
G1 F1200 X83.33 Y95.035 E16.75445
G1 X83.639 Y94.908 E16.77112
G1 X84.013 Y94.857 E16.78995
G1 X104.399 Y94.857 E17.80701
G1 X104.559 Y94.713 E17.81775
G1 X104.853 Y94.554 E17.83443
G1 X105.177 Y94.47 E17.85113
G1 X105.366 Y94.457 E17.86058
G1 X106.166 Y94.457 E17.90049
G1 X106.498 Y94.497 E17.91717
G1 X106.81 Y94.614 E17.9338
G1 X107.087 Y94.802 E17.9505
G1 X107.136 Y94.857 E17.95418
G1 X124.167 Y94.857 E18.80386
G1 X124.167 Y93.423 E18.8754
G1 X124.207 Y93.091 E18.89208
G1 X124.324 Y92.779 E18.90871
G1 X124.512 Y92.502 E18.92541
G1 X124.76 Y92.279 E18.94205
G1 X125.054 Y92.12 E18.95872
G1 X125.378 Y92.036 E18.97542
G1 X125.567 Y92.023 E18.98487
G1 X134.283 Y92.023 E19.41972
G1 X134.615 Y92.063 E19.4364
G1 X134.927 Y92.18 E19.45302
G1 X135.204 Y92.368 E19.46972
G1 X135.427 Y92.616 E19.48636
G1 X135.586 Y92.91 E19.50304
G1 X135.67 Y93.234 E19.51974
G1 X135.683 Y93.423 E19.52919
G1 X135.683 Y94.857 E19.60073
G1 X136.079 Y94.857 E19.62049
G1 X136.411 Y94.897 E19.63717
G1 X136.723 Y95.014 E19.6538
G1 X137 Y95.202 E19.6705
G1 X137.223 Y95.45 E19.68714
G1 X137.382 Y95.744 E19.70381
G1 X137.466 Y96.068 E19.72051
G1 X137.466 Y96.445 E19.73932
G1 X136.563 Y103.126 E20.07567
G1 X136.554 Y103.183 E20.07855
G1 X135.729 Y107.83 E20.31401
G1 X135.711 Y107.916 E20.3184
G1 X134.851 Y111.45 E20.49985
G1 X134.824 Y111.548 E20.50492
G1 X134.457 Y112.687 E20.56463
G1 X134.411 Y112.809 E20.57113
G1 X133.63 Y114.632 E20.67008
G1 X133.514 Y114.848 E20.68231
G1 X133.072 Y115.523 E20.72256
G1 X132.912 Y115.725 E20.73542
G1 X132.402 Y116.257 E20.77218
G1 X132.088 Y116.502 E20.79205
G1 X131.403 Y116.895 E20.83145
G1 X131.095 Y117.026 E20.84815
G1 X130.891 Y117.069 E20.85855
G1 X130.12 Y117.172 E20.89736
G1 X129.786 Y117.176 E20.91403
G1 X129.522 Y117.122 E20.92747
G1 X128.683 Y116.863 E20.97128
G1 X128.259 Y116.647 E20.99502
G1 X127.548 Y116.117 E21.03926
G1 X127.358 Y115.947 E21.05198
G1 X126.801 Y115.346 E21.09286
G1 X126.681 Y115.196 E21.10244
G1 X125.636 Y113.702 E21.1934
G1 X125.589 Y113.631 E21.19765
G1 X123.27 Y109.844 E21.41919
G1 X122.469 Y108.792 E21.48516
G1 X121.969 Y108.331 E21.51909
G1 X121.859 Y108.271 E21.52534
G1 X121.777 Y108.298 E21.52965
G1 X121.389 Y108.582 E21.55364
G1 X120.861 Y109.132 E21.59168
G1 X120.241 Y109.921 E21.64174
G1 X118.91 Y111.962 E21.7633
G1 X115.413 Y118.131 E22.11709
G1 X115.393 Y118.165 E22.11905
G1 X114.083 Y120.332 E22.24539
G1 X114.039 Y120.401 E22.24947
G1 X112.49 Y122.656 E22.38596
G1 X112.417 Y122.752 E22.39197
G1 X111.187 Y124.248 E22.4886
G1 X111.086 Y124.359 E22.49608
G1 X109.786 Y125.632 E22.58686
G1 X109.626 Y125.767 E22.5973
G1 X108.261 Y126.753 E22.68131
G1 X108.115 Y126.845 E22.68992
G1 X107.636 Y127.108 E22.71718
G1 X107.533 Y127.159 E22.72292
G1 X106.942 Y127.423 E22.75521
G1 X106.751 Y127.492 E22.76534
G1 X105.525 Y127.838 E22.8289
G1 X105.307 Y127.882 E22.83999
G1 X104.682 Y127.955 E22.87139
G1 X104.464 Y127.963 E22.88227
G1 X103.191 Y127.912 E22.94583
G1 X102.901 Y127.87 E22.96045
G1 X101.623 Y127.544 E23.02625
G1 X101.413 Y127.472 E23.03733
G1 X100.586 Y127.114 E23.08229
G1 X100.388 Y127.009 E23.09347
G1 X98.73 Y125.95 E23.19162
G1 X98.562 Y125.823 E23.20213
G1 X97.316 Y124.732 E23.28475
G1 X97.2 Y124.618 E23.29286
G1 X95.534 Y122.776 E23.41677
G1 X95.454 Y122.68 E23.42301
G1 X94.18 Y120.991 E23.52856
G1 X94.131 Y120.922 E23.53278
G1 X92.857 Y119.002 E23.64774
G1 X92.813 Y118.93 E23.65195
G1 X90.827 Y115.504 E23.84951
G1 X90.783 Y115.423 E23.85411
G1 X88.079 Y109.961 E24.15818
G1 X88.053 Y109.904 E24.1613
G1 X86.335 Y105.999 E24.37414
G1 X86.313 Y105.947 E24.37696
G1 X82.71 Y96.769 E24.86887
G1 X82.626 Y96.445 E24.88557
G1 X82.621 Y96.111 E24.90224
G1 X82.695 Y95.786 E24.91887
G1 X82.844 Y95.487 E24.93553
G1 X83.06 Y95.232 E24.95221
G0 F3600 X83.287 Y95.569
G1 F1200 X83.508 Y95.394 E24.96627
G1 X83.769 Y95.287 E24.98034
G1 X84.013 Y95.257 E24.99261
G1 X104.576 Y95.257 E26.0185
G1 X104.705 Y95.106 E26.02841
G1 X104.941 Y94.952 E26.04247
G1 X105.211 Y94.869 E26.05656
G1 X105.366 Y94.857 E26.06432
G1 X106.166 Y94.857 E26.10423
G1 X106.445 Y94.897 E26.11829
G1 X106.702 Y95.013 E26.13236
G1 X106.917 Y95.196 E26.14644
G1 X106.957 Y95.257 E26.15008
G1 X124.567 Y95.257 E27.02865
G1 X124.567 Y93.423 E27.12015
G1 X124.607 Y93.144 E27.13421
G1 X124.723 Y92.887 E27.14828
G1 X124.906 Y92.672 E27.16236
G1 X125.142 Y92.518 E27.17642
G1 X125.412 Y92.435 E27.19051
G1 X125.567 Y92.423 E27.19827
G1 X134.283 Y92.423 E27.63311
G1 X134.562 Y92.463 E27.64717
G1 X134.819 Y92.579 E27.66124
G1 X135.034 Y92.762 E27.67533
G1 X135.188 Y92.998 E27.68939
G1 X135.271 Y93.268 E27.70348
G1 X135.283 Y93.423 E27.71123
G1 X135.283 Y95.257 E27.80273
G1 X136.079 Y95.257 E27.84245
G1 X136.358 Y95.297 E27.85651
G1 X136.615 Y95.413 E27.87058
G1 X136.83 Y95.596 E27.88466
G1 X136.984 Y95.832 E27.89872
G1 X137.067 Y96.102 E27.91281
G1 X137.07 Y96.391 E27.92723
G1 X136.167 Y103.072 E28.26358
G1 X136.161 Y103.113 E28.26565
G1 X135.336 Y107.76 E28.50111
G1 X135.323 Y107.821 E28.50422
G1 X134.463 Y111.355 E28.68568
G1 X134.443 Y111.426 E28.68936
G1 X134.076 Y112.565 E28.74906
G1 X134.043 Y112.652 E28.7537
G1 X133.262 Y114.475 E28.85265
G1 X133.18 Y114.629 E28.86135
G1 X132.738 Y115.304 E28.90161
G1 X132.623 Y115.448 E28.9108
G1 X132.113 Y115.98 E28.94757
G1 X131.889 Y116.155 E28.96175
G1 X131.204 Y116.548 E29.00115
G1 X130.838 Y116.672 E29.02043
G1 X130.067 Y116.775 E29.05924
G1 X129.785 Y116.773 E29.07331
G1 X129.64 Y116.74 E29.08072
G1 X128.801 Y116.481 E29.12453
G1 X128.498 Y116.327 E29.14149
G1 X127.787 Y115.797 E29.18573
G1 X127.652 Y115.675 E29.19481
G1 X127.095 Y115.074 E29.23569
G1 X127.009 Y114.967 E29.24254
G1 X125.964 Y113.473 E29.3335
G1 X125.93 Y113.422 E29.33656
G1 X123.599 Y109.614 E29.55931
G1 X122.768 Y108.524 E29.62769
G1 X122.205 Y108.004 E29.66592
G1 X121.975 Y107.879 E29.67898
G1 X121.83 Y107.859 E29.68629
G1 X121.595 Y107.937 E29.69864
G1 X121.12 Y108.284 E29.72799
G1 X120.558 Y108.869 E29.76846
G1 X119.916 Y109.687 E29.82034
G1 X118.571 Y111.749 E29.94316
G1 X115.065 Y117.934 E30.29786
G1 X115.051 Y117.958 E30.29925
G1 X113.741 Y120.125 E30.42558
G1 X113.709 Y120.174 E30.4285
G1 X112.16 Y122.429 E30.56499
G1 X112.108 Y122.498 E30.5693
G1 X110.878 Y123.994 E30.66592
G1 X110.806 Y124.073 E30.67125
G1 X109.506 Y125.346 E30.76203
G1 X109.392 Y125.443 E30.7695
G1 X108.027 Y126.429 E30.8535
G1 X107.922 Y126.495 E30.85969
G1 X107.443 Y126.758 E30.88695
G1 X107.37 Y126.794 E30.89101
G1 X106.779 Y127.058 E30.92331
G1 X106.643 Y127.107 E30.93052
G1 X105.417 Y127.453 E30.99407
G1 X105.261 Y127.484 E31.00201
G1 X104.636 Y127.557 E31.0334
G1 X104.48 Y127.563 E31.04119
G1 X103.207 Y127.512 E31.10475
G1 X103 Y127.482 E31.11519
G1 X101.722 Y127.156 E31.18099
G1 X101.572 Y127.105 E31.18889
G1 X100.745 Y126.747 E31.23385
G1 X100.604 Y126.672 E31.24182
G1 X98.946 Y125.613 E31.33997
G1 X98.825 Y125.522 E31.34752
G1 X97.579 Y124.431 E31.43015
G1 X97.496 Y124.35 E31.43594
G1 X95.83 Y122.508 E31.55985
G1 X95.774 Y122.439 E31.56428
G1 X94.5 Y120.75 E31.66983
G1 X94.465 Y120.701 E31.67283
G1 X93.191 Y118.781 E31.78779
G1 X93.159 Y118.73 E31.79079
G1 X91.173 Y115.304 E31.98836
G1 X91.142 Y115.246 E31.99164
G1 X88.438 Y109.784 E32.29571
G1 X88.419 Y109.743 E32.29796
G1 X86.701 Y105.838 E32.5108
G1 X86.685 Y105.8 E32.51286
G1 X83.082 Y96.622 E33.00477
G1 X83.017 Y96.348 E33.01882
G1 X83.031 Y96.066 E33.03291
G1 X83.124 Y95.8 E33.04696
G1 X83.287 Y95.569 E33.06107
G0 F3600 X83.563 Y95.86
G1 F1200 X83.735 Y95.725 E33.07198
G1 X84.013 Y95.657 E33.08626
G1 X104.803 Y95.657 E34.12347
G1 X104.806 Y95.642 E34.12424
G1 X104.919 Y95.456 E34.13509
G1 X105.092 Y95.323 E34.14598
G1 X105.366 Y95.257 E34.16004
G1 X106.166 Y95.257 E34.19995
G1 X106.381 Y95.297 E34.21086
