;FLAVOR:Marlin
;TIME:5659
;Filament used: 4.06815m
;Layer height: 0.24
;MINX:2.724
;MINY:14.105
;MINZ:0.24
;MAXX:217.095
;MAXY:218.073
;MAXZ:1.92
;Generated with Cura_SteamEngine 4.5.0
M140 S50
M105
M190 S50
M104 S205
M105
M109 S205
M82 ;absolute extrusion mode
M201 X500.00 Y500.00 Z100.00 E5000.00 ;Setup machine max acceleration
M203 X500.00 Y500.00 Z10.00 E50.00 ;Setup machine max feedrate
M204 P500.00 R1000.00 T500.00 ;Setup Print/Retract/Travel acceleration
M205 X8.00 Y8.00 Z0.40 E5.00 ;Setup Jerk
M220 S100 ;Reset Feedrate
M221 S100 ;Reset Flowrate

G28 ;Home

G92 E0 ;Reset Extruder
G1 Z2.0 F3000 ;Move Z Axis up
G1 X10.1 Y20 Z0.28 F5000.0 ;Move to start position
G1 X10.1 Y200.0 Z0.28 F1500.0 E15 ;Draw the first line
G1 X10.4 Y200.0 Z0.28 F5000.0 ;Move to side a little
G1 X10.4 Y20 Z0.28 F1500.0 E30 ;Draw the second line
G92 E0 ;Reset Extruder
G1 Z2.0 F3000 ;Move Z Axis up

G92 E0
G92 E0
G1 F1500 E-6
;LAYER_COUNT:8
;LAYER:0
M107
M204 S500
M205 X20 Y20
G0 F7500 X42.683 Y82.941 Z0.24
;TYPE:SKIRT
G1 F1500 E0
G1 X43.528 Y82.534 E0.03743
G1 X44.552 Y82.152 E0.08106
G1 X45.477 Y81.863 E0.11973
G1 X46.967 Y81.434 E0.18162
G1 X49.385 Y80.662 E0.28293
G1 X51.73 Y79.841 E0.38209
G1 X54.098 Y78.934 E0.4833
G1 X56.447 Y77.958 E0.58482
G1 X58.716 Y76.94 E0.68408
G1 X61.014 Y75.829 E0.78595
G1 X63.204 Y74.694 E0.8844
G1 X65.414 Y73.466 E0.98531
G1 X67.595 Y72.174 E1.08649
G1 X69.717 Y70.834 E1.18665
G1 X71.835 Y69.41 E1.28852
G1 X73.849 Y67.973 E1.38726
G1 X75.884 Y66.432 E1.48915
G1 X77.799 Y64.896 E1.58713
G1 X79.717 Y63.263 E1.68766
G1 X82.588 Y60.642 E1.84282
G1 X83.99 Y59.311 E1.91998
G1 X84.302 Y59.028 E1.93679
G1 X85.031 Y58.379 E1.97575
G1 X85.295 Y58.151 E1.98967
G1 X86.147 Y57.441 E2.03393
G1 X87.189 Y56.6 E2.08738
G1 X87.928 Y56.036 E2.12448
G1 X88.64 Y55.506 E2.15991
G1 X88.916 Y55.307 E2.17349
G1 X89.879 Y54.638 E2.22029
G1 X91.079 Y53.844 E2.27772
G1 X91.828 Y53.374 E2.31301
G1 X92.652 Y52.873 E2.3515
G1 X92.948 Y52.699 E2.3652
G1 X93.927 Y52.146 E2.41008
G1 X94.487 Y51.839 E2.43557
G1 X95.366 Y51.407 E2.47466
G1 X95.942 Y51.155 E2.49975
G1 X96.331 Y50.994 E2.51656
G1 X97.75 Y50.439 E2.57737
G1 X98.277 Y50.245 E2.59978
G1 X99.414 Y49.845 E2.64789
G1 X99.78 Y49.726 E2.66325
G1 X100.659 Y49.449 E2.70003
G1 X101.793 Y49.111 E2.74726
G1 X102.278 Y48.979 E2.76732
G1 X103.188 Y48.741 E2.80487
G1 X104.39 Y48.449 E2.85424
G1 X105.426 Y48.228 E2.89651
G1 X106.79 Y47.961 E2.95199
G1 X107.488 Y47.846 E2.98022
G1 X110.374 Y47.422 E3.09665
G1 X111.989 Y47.193 E3.16175
G1 X114.497 Y46.766 E3.26329
G1 X116.937 Y46.279 E3.36259
G1 X119.398 Y45.715 E3.46336
G1 X121.864 Y45.076 E3.56504
G1 X124.261 Y44.382 E3.66464
G1 X126.647 Y43.617 E3.76464
G1 X129.045 Y42.773 E3.86611
G1 X131.375 Y41.879 E3.96571
G1 X133.726 Y40.9 E4.06736
G1 X135.977 Y39.885 E4.16591
G1 X138.295 Y38.762 E4.26871
G1 X140.504 Y37.612 E4.36811
G1 X142.693 Y36.393 E4.46811
G1 X144.891 Y35.086 E4.57018
G1 X146.965 Y33.772 E4.66817
G1 X149.715 Y31.904 E4.80085
G1 X150.048 Y31.669 E4.81712
G1 X150.354 Y31.46 E4.83191
G1 X150.639 Y31.273 E4.84552
G1 X151.445 Y30.792 E4.88298
G1 X152.376 Y30.345 E4.9242
G1 X152.496 Y30.294 E4.9294
G1 X154.918 Y29.225 E5.03507
G1 X157.208 Y28.136 E5.13627
G1 X159.534 Y26.948 E5.24052
G1 X160.516 Y26.43 E5.28483
G1 X161.363 Y26.027 E5.32227
G1 X161.897 Y25.818 E5.34515
G1 X163.162 Y25.361 E5.39884
G1 X163.925 Y25.103 E5.43098
G1 X166.28 Y24.234 E5.53117
G1 X168.613 Y23.297 E5.63152
G1 X170.881 Y22.309 E5.73025
G1 X173.215 Y21.214 E5.83315
G1 X175.438 Y20.094 E5.9325
G1 X177.652 Y18.898 E6.03293
G1 X179.841 Y17.634 E6.13382
G1 X181.849 Y16.4 E6.22789
G1 X182.655 Y15.89 E6.26596
G1 X183.469 Y15.423 E6.30341
G1 X184.678 Y14.884 E6.35625
G1 X184.894 Y14.803 E6.36545
G1 X185.785 Y14.512 E6.40286
G1 X186.698 Y14.297 E6.4403
G1 X187.626 Y14.161 E6.47773
G1 X188.562 Y14.105 E6.51516
G1 X189.566 Y14.133 E6.55525
G1 X190.419 Y14.196 E6.58938
G1 X191.013 Y14.256 E6.61321
G1 X191.456 Y14.313 E6.63104
G1 X192.214 Y14.437 E6.66169
G1 X192.698 Y14.534 E6.6814
G1 X193.094 Y14.622 E6.69759
G1 X193.784 Y14.787 E6.7259
G1 X194.58 Y15.009 E6.75888
G1 X195.351 Y15.261 E6.79126
G1 X195.97 Y15.48 E6.81747
G1 X196.693 Y15.765 E6.84848
G1 X197.189 Y15.981 E6.87007
G1 X197.552 Y16.147 E6.88601
G1 X198.111 Y16.415 E6.91075
G1 X198.777 Y16.761 E6.9407
G1 X199.058 Y16.918 E6.95355
G1 X199.586 Y17.23 E6.97803
G1 X200.172 Y17.592 E7.00552
G1 X200.827 Y18.029 E7.03695
G1 X201.247 Y18.332 E7.05762
G1 X201.548 Y18.558 E7.07264
G1 X202.041 Y18.94 E7.09753
G1 X202.648 Y19.446 E7.12907
G1 X203.055 Y19.811 E7.15089
G1 X203.323 Y20.059 E7.16547
G1 X203.781 Y20.498 E7.19079
G1 X204.343 Y21.078 E7.22302
G1 X204.696 Y21.47 E7.24407
G1 X204.954 Y21.766 E7.25975
G1 X205.383 Y22.278 E7.28641
G1 X205.871 Y22.907 E7.31818
G1 X206.373 Y23.611 E7.35269
G1 X206.736 Y24.15 E7.37863
G1 X207.164 Y24.84 E7.41103
G1 X207.585 Y25.587 E7.44526
G1 X207.894 Y26.169 E7.47156
G1 X208.266 Y26.942 E7.5058
G1 X208.591 Y27.7 E7.53871
G1 X208.838 Y28.316 E7.5652
G1 X209.111 Y29.078 E7.59751
G1 X209.268 Y29.572 E7.6182
G1 X209.376 Y29.932 E7.6332
G1 X209.55 Y30.552 E7.6589
G1 X209.729 Y31.287 E7.68909
G1 X209.831 Y31.778 E7.70911
G1 X209.909 Y32.193 E7.72596
G1 X210.021 Y32.86 E7.75295
G1 X210.123 Y33.638 E7.78427
G1 X210.17 Y34.131 E7.80404
G1 X210.199 Y34.502 E7.81889
G1 X210.256 Y35.498 E7.85871
G1 X210.287 Y36.484 E7.89808
G1 X210.303 Y37.404 E7.93481
G1 X210.418 Y39.887 E8.03401
G1 X210.608 Y42.44 E8.13619
G1 X210.864 Y44.924 E8.23586
G1 X211.19 Y47.408 E8.33585
G1 X211.596 Y49.931 E8.43784
G1 X212.062 Y52.386 E8.53758
G1 X212.595 Y54.82 E8.63703
G1 X213.205 Y57.265 E8.7376
G1 X213.891 Y59.725 E8.83953
G1 X214.622 Y62.088 E8.93825
G1 X215.578 Y64.827 E9.05404
G1 X215.952 Y65.943 E9.10102
G1 X216.152 Y66.599 E9.12839
G1 X216.342 Y67.267 E9.15611
G1 X216.525 Y68.005 E9.18646
G1 X216.632 Y68.512 E9.20714
G1 X216.707 Y68.9 E9.22291
G1 X216.834 Y69.631 E9.25252
G1 X216.945 Y70.459 E9.28587
G1 X217.029 Y71.381 E9.32282
G1 X217.072 Y72.042 E9.34926
G1 X217.095 Y72.835 E9.38092
G1 X217.091 Y73.389 E9.40303
G1 X217.082 Y73.752 E9.41752
G1 X217.053 Y74.473 E9.44632
G1 X216.989 Y75.297 E9.47931
G1 X216.929 Y75.815 E9.50012
G1 X216.882 Y76.167 E9.5143
G1 X216.773 Y76.9 E9.54387
G1 X216.669 Y77.488 E9.56771
G1 X216.569 Y77.974 E9.58751
G1 X216.051 Y80.337 E9.68406
G1 X215.586 Y82.797 E9.78398
G1 X215.183 Y85.311 E9.8856
G1 X214.858 Y87.792 E9.98547
G1 X214.602 Y90.28 E10.0853
G1 X214.418 Y92.775 E10.18515
G1 X214.301 Y95.343 E10.28775
G1 X214.258 Y97.835 E10.38723
G1 X214.284 Y100.321 E10.48645
G1 X214.384 Y102.876 E10.58851
G1 X214.555 Y105.391 E10.68912
G1 X214.794 Y107.879 E10.78888
G1 X215.103 Y110.36 E10.88866
G1 X215.496 Y112.921 E10.99208
G1 X215.798 Y114.613 E11.06067
G1 X216.075 Y116.109 E11.1214
G1 X216.129 Y116.446 E11.13502
G1 X216.192 Y116.899 E11.15327
G1 X216.296 Y117.782 E11.18876
G1 X216.353 Y118.423 E11.21444
G1 X216.372 Y118.746 E11.22736
G1 X216.39 Y119.222 E11.24637
G1 X216.404 Y120.126 E11.28246
G1 X216.394 Y120.78 E11.30856
G1 X216.349 Y121.591 E11.34098
G1 X216.269 Y122.494 E11.37716
G1 X216.205 Y123.05 E11.3995
G1 X216.111 Y123.679 E11.42488
G1 X216.03 Y124.131 E11.44321
G1 X215.902 Y124.797 E11.47028
G1 X215.774 Y125.38 E11.4941
G1 X215.497 Y126.411 E11.53671
G1 X215.303 Y127.057 E11.56363
G1 X215.119 Y127.615 E11.58708
G1 X215.005 Y127.932 E11.60053
G1 X214.739 Y128.616 E11.62982
G1 X214.477 Y129.251 E11.65723
G1 X214.236 Y129.795 E11.68098
G1 X213.894 Y130.486 E11.71175
G1 X213.791 Y130.682 E11.72059
G1 X213.433 Y131.349 E11.75081
G1 X213.112 Y131.908 E11.77653
G1 X212.567 Y132.762 E11.81697
G1 X212.189 Y133.321 E11.8439
G1 X211.631 Y134.075 E11.88134
G1 X211.011 Y134.778 E11.91875
G1 X210.333 Y135.426 E11.95618
G1 X209.264 Y136.254 E12.01015
G1 X208.898 Y136.503 E12.02782
G1 X208.101 Y136.997 E12.06524
G1 X207.265 Y137.421 E12.10266
G1 X206.108 Y137.87 E12.15219
G1 X205.327 Y138.124 E12.18497
G1 X202.874 Y138.959 E12.28839
G1 X200.551 Y139.825 E12.38734
G1 X198.184 Y140.785 E12.48928
G1 X195.865 Y141.802 E12.59035
G1 X193.613 Y142.867 E12.68978
G1 X191.352 Y144.014 E12.79097
G1 X189.148 Y145.214 E12.89113
G1 X186.969 Y146.48 E12.99171
G1 X185.665 Y147.281 E13.05279
G1 X184.846 Y147.737 E13.0902
G1 X184.422 Y147.939 E13.10895
G1 X183.573 Y148.321 E13.1461
G1 X183.21 Y148.477 E13.16187
G1 X182.227 Y148.878 E13.20425
G1 X179.934 Y149.888 E13.30425
G1 X177.641 Y150.979 E13.4056
G1 X175.693 Y151.966 E13.49276
G1 X174.839 Y152.354 E13.5302
G1 X174.226 Y152.58 E13.55627
G1 X173.994 Y152.658 E13.56604
G1 X173.17 Y152.9 E13.60032
G1 X170.788 Y153.498 E13.69834
G1 X168.364 Y154.181 E13.79885
G1 X165.941 Y154.938 E13.90017
G1 X163.584 Y155.75 E13.99967
G1 X161.209 Y156.643 E14.10094
G1 X158.901 Y157.586 E14.20045
G1 X156.606 Y158.6 E14.30059
G1 X154.305 Y159.696 E14.40231
G1 X152.067 Y160.84 E14.50263
G1 X149.882 Y162.036 E14.60205
G1 X147.693 Y163.317 E14.70328
G1 X145.557 Y164.648 E14.80372
G1 X143.463 Y166.037 E14.90402
G1 X141.411 Y167.484 E15.00423
G1 X139.391 Y168.996 E15.10494
G1 X138.014 Y170.099 E15.17535
G1 X135.54 Y172.037 E15.30079
G1 X133.981 Y173.198 E15.37837
G1 X133.508 Y173.536 E15.40157
G1 X131.789 Y174.719 E15.48486
G1 X131.305 Y175.038 E15.50799
G1 X129.563 Y176.143 E15.59033
G1 X128.902 Y176.544 E15.62118
G1 X127.178 Y177.55 E15.70085
G1 X126.233 Y178.079 E15.74408
G1 X124.597 Y178.96 E15.81824
G1 X123.262 Y179.65 E15.87822
G1 X122.643 Y179.96 E15.90585
G1 X122.087 Y180.219 E15.93033
G1 X121.333 Y180.542 E15.96307
G1 X120.366 Y180.935 E16.00473
G1 X118.874 Y181.521 E16.0687
G1 X117.079 Y182.189 E16.14515
G1 X116.137 Y182.52 E16.185
G1 X114.129 Y183.186 E16.26943
G1 X113.415 Y183.406 E16.29925
G1 X111.24 Y184.033 E16.3896
G1 X110.861 Y184.135 E16.40526
G1 X108.926 Y184.616 E16.48484
G1 X108.369 Y184.743 E16.50764
G1 X106.45 Y185.148 E16.58592
G1 X105.75 Y185.284 E16.61438
G1 X102.979 Y185.816 E16.727
G1 X100.519 Y186.364 E16.82759
G1 X98.057 Y186.986 E16.92894
G1 X95.657 Y187.665 E17.02849
G1 X93.23 Y188.426 E17.13001
G1 X90.884 Y189.237 E17.22908
G1 X88.51 Y190.133 E17.33035
G1 X86.187 Y191.084 E17.43054
G1 X83.883 Y192.106 E17.53114
G1 X81.594 Y193.198 E17.63236
G1 X79.378 Y194.335 E17.73177
G1 X77.173 Y195.545 E17.83215
G1 X74.994 Y196.823 E17.93298
G1 X72.848 Y198.164 E18.03398
G1 X70.776 Y199.542 E18.13329
G1 X69.537 Y200.425 E18.19402
G1 X68.497 Y201.141 E18.24441
G1 X68.037 Y201.441 E18.26633
G1 X67.794 Y201.591 E18.27773
G1 X66.976 Y202.049 E18.31515
G1 X66.365 Y202.335 E18.34207
G1 X65.883 Y202.542 E18.36301
G1 X63.724 Y203.448 E18.45646
G1 X61.442 Y204.482 E18.55645
G1 X58.837 Y205.758 E18.67223
G1 X58.028 Y206.171 E18.70848
G1 X57.175 Y206.561 E18.74591
G1 X56.662 Y206.755 E18.7678
G1 X55.555 Y207.138 E18.81456
G1 X54.413 Y207.507 E18.86246
G1 X52.037 Y208.349 E18.96307
G1 X49.664 Y209.266 E19.0646
G1 X47.376 Y210.226 E19.16364
G1 X45.057 Y211.276 E19.26524
G1 X42.801 Y212.376 E19.36541
G1 X40.587 Y213.533 E19.46512
G1 X38.358 Y214.782 E19.5671
G1 X36.383 Y215.957 E19.65882
G1 X35.666 Y216.397 E19.69239
G1 X34.846 Y216.853 E19.72984
G1 X33.991 Y217.237 E19.76725
G1 X32.901 Y217.607 E19.81319
G1 X32.706 Y217.662 E19.82128
G1 X31.793 Y217.878 E19.85872
G1 X30.866 Y218.015 E19.89612
G1 X29.93 Y218.073 E19.93355
G1 X28.645 Y218.022 E19.98488
G1 X27.749 Y217.934 E20.02081
G1 X27.279 Y217.878 E20.03971
G1 X26.849 Y217.817 E20.05704
G1 X26.304 Y217.726 E20.07909
G1 X26.056 Y217.678 E20.08918
G1 X25.257 Y217.5 E20.12185
G1 X24.536 Y217.322 E20.15149
G1 X23.944 Y217.158 E20.17601
G1 X22.993 Y216.849 E20.21592
G1 X22.337 Y216.615 E20.24371
G1 X21.743 Y216.383 E20.26917
G1 X21.044 Y216.078 E20.2996
G1 X20.832 Y215.98 E20.30893
G1 X20.191 Y215.675 E20.33726
G1 X19.652 Y215.4 E20.36141
G1 X19.375 Y215.249 E20.374
G1 X18.961 Y215.012 E20.39304
G1 X18.168 Y214.534 E20.43
G1 X17.628 Y214.187 E20.45561
G1 X17.396 Y214.028 E20.46684
G1 X17.022 Y213.759 E20.48523
G1 X16.25 Y213.181 E20.52372
G1 X15.706 Y212.746 E20.55152
G1 X14.999 Y212.123 E20.58913
G1 X14.458 Y211.621 E20.61859
G1 X14.009 Y211.18 E20.6437
G1 X13.532 Y210.673 E20.67149
G1 X13.341 Y210.462 E20.68285
G1 X12.866 Y209.921 E20.71158
G1 X12.471 Y209.445 E20.73627
G1 X12.258 Y209.173 E20.75006
G1 X11.845 Y208.617 E20.7777
G1 X11.467 Y208.089 E20.80362
G1 X11.128 Y207.587 E20.82779
G1 X10.68 Y206.861 E20.86184
G1 X10.58 Y206.689 E20.86978
G1 X10.22 Y206.058 E20.89878
G1 X9.951 Y205.558 E20.92144
G1 X9.827 Y205.312 E20.93244
G1 X9.493 Y204.601 E20.96379
G1 X9.203 Y203.946 E20.99238
G1 X8.974 Y203.388 E21.01645
G1 X8.693 Y202.618 E21.04917
G1 X8.41 Y201.756 E21.08538
G1 X8.228 Y201.141 E21.11098
G1 X7.993 Y200.191 E21.15004
G1 X7.846 Y199.524 E21.1773
G1 X7.739 Y198.972 E21.19974
G1 X7.693 Y198.697 E21.21087
G1 X7.578 Y197.871 E21.24415
G1 X7.497 Y197.157 E21.27283
G1 X7.445 Y196.547 E21.29727
G1 X7.409 Y195.763 E21.32859
G1 X7.396 Y194.841 E21.36539
G1 X7.406 Y194.219 E21.39022
G1 X7.422 Y193.855 E21.40476
G1 X7.453 Y193.383 E21.42364
G1 X7.529 Y192.511 E21.45858
G1 X7.596 Y191.922 E21.48224
G1 X7.721 Y191.12 E21.51463
G1 X7.76 Y190.904 E21.52339
G1 X7.9 Y190.177 E21.55294
G1 X7.995 Y189.735 E21.57099
G1 X8.569 Y187.299 E21.67088
G1 X9.079 Y184.84 E21.77111
G1 X9.527 Y182.321 E21.87323
G1 X9.89 Y179.883 E21.9716
G1 X10.194 Y177.346 E22.07359
G1 X10.424 Y174.841 E22.17399
G1 X10.58 Y172.344 E22.27384
G1 X10.667 Y169.846 E22.3736
G1 X10.683 Y167.286 E22.47578
G1 X10.629 Y164.799 E22.57506
G1 X10.502 Y162.281 E22.67569
G1 X10.303 Y159.758 E22.7767
G1 X10.033 Y157.246 E22.87754
G1 X9.778 Y155.312 E22.9554
G1 X9.677 Y154.613 E22.98359
G1 X9.616 Y154.101 E23.00416
G1 X9.531 Y153.167 E23.0416
G1 X9.488 Y152.495 E23.06847
G1 X9.469 Y152.037 E23.08677
G1 X9.411 Y149.404 E23.19188
G1 X9.284 Y146.886 E23.29251
G1 X9.086 Y144.376 E23.393
G1 X8.816 Y141.857 E23.49411
G1 X8.477 Y139.37 E23.59429
G1 X8.069 Y136.897 E23.69433
G1 X7.591 Y134.437 E23.79435
G1 X7.041 Y131.982 E23.89476
G1 X6.422 Y129.54 E23.99531
G1 X5.735 Y127.113 E24.09598
G1 X4.976 Y124.701 E24.19691
G1 X3.906 Y121.628 E24.32678
G1 X3.776 Y121.229 E24.34353
G1 X3.603 Y120.652 E24.36757
G1 X3.431 Y120.038 E24.39302
G1 X3.241 Y119.25 E24.42537
G1 X3.145 Y118.775 E24.44471
G1 X3.081 Y118.43 E24.45872
G1 X2.965 Y117.744 E24.48649
G1 X2.876 Y117.108 E24.51212
G1 X2.826 Y116.617 E24.53182
G1 X2.786 Y116.102 E24.55243
G1 X2.746 Y115.465 E24.57791
G1 X2.724 Y114.671 E24.60961
G1 X2.729 Y114.146 E24.63056
G1 X2.741 Y113.746 E24.64654
G1 X2.772 Y113.071 E24.67351
G1 X2.821 Y112.417 E24.69968
G1 X2.901 Y111.733 E24.72717
G1 X2.94 Y111.451 E24.73853
G1 X3.046 Y110.758 E24.76651
G1 X3.191 Y109.994 E24.79755
G1 X3.305 Y109.49 E24.81817
G1 X3.399 Y109.107 E24.83391
G1 X3.566 Y108.475 E24.86
G1 X3.75 Y107.855 E24.88581
G1 X3.983 Y107.172 E24.91462
G1 X4.073 Y106.924 E24.92515
G1 X4.324 Y106.263 E24.95337
G1 X4.653 Y105.488 E24.98697
G1 X5.003 Y104.755 E25.01939
G1 X5.314 Y104.142 E25.04682
G1 X5.709 Y103.43 E25.07932
G1 X5.967 Y103.003 E25.09923
G1 X6.164 Y102.689 E25.11403
G1 X6.53 Y102.127 E25.1408
G1 X7.075 Y101.364 E25.17822
G1 X7.683 Y100.65 E25.21565
G1 X8.197 Y100.129 E25.24486
G1 X8.894 Y99.501 E25.28231
G1 X9.643 Y98.936 E25.31975
G1 X10.436 Y98.436 E25.35717
G1 X11.27 Y98.006 E25.39462
G1 X11.927 Y97.727 E25.42311
G1 X12.752 Y97.408 E25.45841
G1 X13.174 Y97.255 E25.47633
G1 X14.45 Y96.821 E25.53012
G1 X16.797 Y95.947 E25.63008
G1 X19.121 Y95.005 E25.73016
G1 X21.434 Y93.99 E25.83098
G1 X23.709 Y92.916 E25.93139
G1 X25.973 Y91.765 E26.03276
G1 X28.16 Y90.577 E26.13209
G1 X30.332 Y89.314 E26.23237
G1 X32.977 Y87.668 E26.35671
G1 X34.21 Y87.006 E26.41257
G1 X35.097 Y86.6 E26.4515
G1 X35.42 Y86.458 E26.46558
G1 X35.829 Y86.286 E26.48329
G1 X38.104 Y85.256 E26.58297
G1 X40.375 Y84.148 E26.68382
G1 X42.094 Y83.249 E26.76124
G0 F1350 X42.683 Y82.941
G0 F7500 X42.872 Y83.294
G1 F1500 X43.701 Y82.894 E26.79798
G1 X44.672 Y82.533 E26.83933
G1 X45.588 Y82.247 E26.87763
G1 X47.084 Y81.816 E26.93976
G1 X49.501 Y81.045 E27.04102
G1 X51.899 Y80.205 E27.14243
G1 X54.258 Y79.302 E27.24325
G1 X56.585 Y78.335 E27.34382
G1 X58.876 Y77.307 E27.44405
