;FLAVOR:Marlin
;TIME:10213
;Filament used: 7.21197m
;Layer height: 0.24
;MINX:0.558
;MINY:7.876
;MINZ:0.24
;MAXX:218.539
;MAXY:216.816
;MAXZ:1.92
;Generated with Cura_SteamEngine 4.5.0
M140 S50
M105
M190 S50
M104 S205
M105
M109 S205
M82 ;absolute extrusion mode
M201 X500.00 Y500.00 Z100.00 E5000.00 ;Setup machine max acceleration
M203 X500.00 Y500.00 Z10.00 E50.00 ;Setup machine max feedrate
M204 P500.00 R1000.00 T500.00 ;Setup Print/Retract/Travel acceleration
M205 X8.00 Y8.00 Z0.40 E5.00 ;Setup Jerk
M220 S100 ;Reset Feedrate
M221 S100 ;Reset Flowrate

G28 ;Home

G92 E0 ;Reset Extruder
G1 Z2.0 F3000 ;Move Z Axis up
G1 X10.1 Y20 Z0.28 F5000.0 ;Move to start position
G1 X10.1 Y200.0 Z0.28 F1500.0 E15 ;Draw the first line
G1 X10.4 Y200.0 Z0.28 F5000.0 ;Move to side a little
G1 X10.4 Y20 Z0.28 F1500.0 E30 ;Draw the second line
G92 E0 ;Reset Extruder
G1 Z2.0 F3000 ;Move Z Axis up

G92 E0
G92 E0
G1 F1500 E-6
;LAYER_COUNT:8
;LAYER:0
M107
M204 S500
M205 X20 Y20
G0 F7500 X11.021 Y16.29 Z0.24
;TYPE:SKIRT
G1 F1500 E0
G1 X11.333 Y16.089 E0.01481
G1 X11.817 Y15.789 E0.03754
G1 X12.928 Y15.186 E0.08799
G1 X13.115 Y15.098 E0.09624
G1 X13.98 Y14.735 E0.13368
G1 X14.873 Y14.447 E0.17113
G1 X15.787 Y14.237 E0.20856
G1 X16.788 Y14.098 E0.2489
G1 X17.048 Y14.074 E0.25932
G1 X17.985 Y14.027 E0.29676
G1 X19.052 Y14.072 E0.33939
G1 X19.8 Y14.141 E0.36937
G1 X21.335 Y14.302 E0.43097
G1 X23.856 Y14.494 E0.53188
G1 X26.341 Y14.613 E0.63118
G1 X28.87 Y14.663 E0.73213
G1 X31.425 Y14.64 E0.83411
G1 X33.885 Y14.549 E0.93236
G1 X36.411 Y14.384 E1.0334
G1 X39.57 Y14.078 E1.16007
G1 X41.125 Y13.901 E1.22253
G1 X42.061 Y13.834 E1.25999
G1 X42.723 Y13.836 E1.28641
G1 X43.382 Y13.857 E1.31272
G1 X46.004 Y13.905 E1.41739
G1 X48.495 Y13.881 E1.51682
G1 X51.478 Y13.762 E1.63597
G1 X52.416 Y13.764 E1.67341
G1 X53.403 Y13.854 E1.71296
G1 X54.546 Y14.01 E1.75901
G1 X57.152 Y14.359 E1.86395
G1 X59.691 Y14.626 E1.96584
G1 X62.181 Y14.816 E2.06551
G1 X64.678 Y14.936 E2.16529
G1 X67.202 Y14.986 E2.26605
G1 X69.725 Y14.964 E2.36675
G1 X72.258 Y14.871 E2.46791
G1 X74.759 Y14.709 E2.56794
G1 X77.252 Y14.475 E2.66788
G1 X79.775 Y14.167 E2.76933
G1 X82.241 Y13.794 E2.86887
G1 X84.727 Y13.347 E2.96968
G1 X87.157 Y12.837 E3.06878
G1 X89.631 Y12.246 E3.1703
G1 X92.088 Y11.585 E3.27186
G1 X94.482 Y10.867 E3.37161
G1 X95.943 Y10.393 E3.43291
G1 X96.61 Y10.171 E3.46097
G1 X96.948 Y10.064 E3.47512
G1 X98.071 Y9.73 E3.52188
G1 X98.393 Y9.64 E3.53523
G1 X99.391 Y9.378 E3.57641
G1 X100.596 Y9.083 E3.62592
G1 X101.491 Y8.886 E3.6625
G1 X102.775 Y8.631 E3.71475
G1 X103.806 Y8.455 E3.75649
G1 X104.7 Y8.317 E3.7926
G1 X105.031 Y8.271 E3.80593
G1 X106.078 Y8.143 E3.84803
G1 X107.341 Y8.012 E3.89871
G1 X108.437 Y7.928 E3.94259
G1 X109.043 Y7.891 E3.96682
G1 X110.036 Y7.876 E4.00645
G1 X110.683 Y7.895 E4.03229
G1 X111.08 Y7.914 E4.04815
G1 X112.346 Y7.997 E4.09879
G1 X113.054 Y8.055 E4.12714
G1 X114.213 Y8.172 E4.17363
G1 X114.632 Y8.224 E4.19049
G1 X115.482 Y8.339 E4.22472
G1 X116.63 Y8.512 E4.27106
G1 X117.868 Y8.736 E4.32127
G1 X119.053 Y8.974 E4.36951
G1 X119.453 Y9.063 E4.38587
G1 X120.175 Y9.234 E4.41548
G1 X121.436 Y9.553 E4.4674
G1 X122.142 Y9.751 E4.49666
G1 X124.677 Y10.516 E4.60234
G1 X127.209 Y11.241 E4.70746
G1 X129.621 Y11.859 E4.80684
G1 X132.068 Y12.41 E4.90695
G1 X134.525 Y12.892 E5.00688
G1 X137.039 Y13.312 E5.10861
G1 X139.502 Y13.653 E5.20786
G1 X142.04 Y13.931 E5.30976
G1 X144.517 Y14.132 E5.40895
G1 X147.035 Y14.264 E5.50958
G1 X149.565 Y14.325 E5.61059
G1 X152.089 Y14.315 E5.71133
G1 X154.578 Y14.234 E5.81072
G1 X157.115 Y14.081 E5.91216
G1 X159.598 Y13.859 E6.01166
G1 X162.108 Y13.564 E6.11253
G1 X165.093 Y13.12 E6.23298
G1 X165.875 Y12.99 E6.26462
G1 X166.806 Y12.876 E6.30205
G1 X167.841 Y12.843 E6.34338
G1 X169.393 Y12.873 E6.40534
G1 X171.901 Y12.906 E6.50545
G1 X174.424 Y12.867 E6.60616
G1 X175.834 Y12.803 E6.66249
G1 X176.935 Y12.765 E6.70646
G1 X178.294 Y12.802 E6.76072
G1 X178.916 Y12.858 E6.78565
G1 X181.576 Y13.111 E6.89229
G1 X184.073 Y13.278 E6.99218
G1 X186.619 Y13.376 E7.09387
G1 X189.115 Y13.401 E7.19349
G1 X191.637 Y13.356 E7.29417
G1 X194.158 Y13.239 E7.3949
G1 X196.632 Y13.054 E7.49391
G1 X200.33 Y12.651 E7.64238
G1 X201.207 Y12.59 E7.67747
G1 X201.557 Y12.58 E7.69145
G1 X202.495 Y12.594 E7.72889
G1 X203.428 Y12.687 E7.76631
G1 X204.35 Y12.859 E7.80374
G1 X205.254 Y13.109 E7.84118
G1 X206.133 Y13.435 E7.8786
G1 X207.205 Y13.956 E7.92617
G1 X207.939 Y14.363 E7.95967
G1 X208.489 Y14.689 E7.98518
G1 X208.857 Y14.922 E8.00257
G1 X209.525 Y15.38 E8.03489
G1 X209.908 Y15.664 E8.05392
G1 X210.207 Y15.894 E8.06898
G1 X210.712 Y16.296 E8.09474
G1 X211.319 Y16.817 E8.12667
G1 X211.68 Y17.15 E8.14627
G1 X211.975 Y17.432 E8.16256
G1 X212.437 Y17.891 E8.18855
G1 X212.823 Y18.295 E8.21085
G1 X213.186 Y18.7 E8.23256
G1 X213.495 Y19.065 E8.25165
G1 X213.915 Y19.577 E8.27808
G1 X214.42 Y20.243 E8.31144
G1 X214.684 Y20.62 E8.32981
G1 X214.878 Y20.906 E8.3436
G1 X215.236 Y21.453 E8.36969
G1 X215.637 Y22.116 E8.40062
G1 X215.872 Y22.537 E8.41986
G1 X216.068 Y22.905 E8.4365
G1 X216.364 Y23.486 E8.46253
G1 X216.697 Y24.2 E8.49397
G1 X216.879 Y24.631 E8.51265
G1 X217.015 Y24.969 E8.52719
G1 X217.251 Y25.584 E8.55348
G1 X217.509 Y26.339 E8.58532
G1 X217.647 Y26.795 E8.60434
G1 X217.751 Y27.16 E8.61949
G1 X217.911 Y27.763 E8.64439
G1 X218.068 Y28.429 E8.6717
G1 X218.16 Y28.895 E8.69065
G1 X218.243 Y29.384 E8.71045
G1 X218.341 Y30.017 E8.73601
G1 X218.419 Y30.636 E8.76092
G1 X218.464 Y31.129 E8.78067
G1 X218.5 Y31.675 E8.80251
G1 X218.53 Y32.309 E8.82785
G1 X218.539 Y33.106 E8.85966
G1 X218.526 Y33.623 E8.8803
G1 X218.51 Y33.998 E8.89528
G1 X218.473 Y34.621 E8.92019
G1 X218.39 Y35.465 E8.95404
G1 X217.951 Y38.663 E9.08287
G1 X217.674 Y41.194 E9.18449
G1 X217.473 Y43.676 E9.28388
G1 X217.341 Y46.192 E9.38444
G1 X217.281 Y48.716 E9.4852
G1 X217.291 Y51.239 E9.5859
G1 X217.373 Y53.737 E9.68566
G1 X217.526 Y56.271 E9.78698
G1 X217.746 Y58.724 E9.88528
G1 X218.165 Y62.157 E10.02331
G1 X218.268 Y62.885 E10.05266
G1 X218.352 Y63.69 E10.08496
G1 X218.387 Y64.214 E10.10592
G1 X218.404 Y64.558 E10.11967
G1 X218.428 Y65.236 E10.14675
G1 X218.427 Y66.039 E10.1788
G1 X218.408 Y66.543 E10.19893
G1 X218.386 Y66.935 E10.2146
G1 X218.333 Y67.656 E10.24345
G1 X218.272 Y68.26 E10.26768
G1 X218.176 Y68.999 E10.29742
G1 X217.921 Y70.815 E10.37061
G1 X217.641 Y73.317 E10.4711
G1 X217.43 Y75.847 E10.57243
G1 X217.294 Y78.331 E10.67172
G1 X217.228 Y80.847 E10.77217
G1 X217.233 Y83.377 E10.87315
G1 X217.309 Y85.899 E10.97385
G1 X217.454 Y88.382 E11.07312
G1 X217.673 Y90.911 E11.17444
G1 X217.963 Y93.418 E11.27517
G1 X218.092 Y94.331 E11.31197
G1 X218.228 Y95.399 E11.35494
G1 X218.277 Y95.863 E11.37356
G1 X218.351 Y96.739 E11.40865
G1 X218.386 Y97.364 E11.43363
G1 X218.394 Y97.656 E11.44529
G1 X218.397 Y98.135 E11.46441
G1 X218.383 Y99.002 E11.49902
G1 X218.357 Y99.591 E11.52255
G1 X218.337 Y99.877 E11.53399
G1 X218.259 Y100.68 E11.56619
G1 X218.146 Y101.594 E11.60295
G1 X217.817 Y104.019 E11.70062
G1 X217.549 Y106.512 E11.8007
G1 X217.351 Y109.029 E11.90147
G1 X217.224 Y111.546 E12.00205
G1 X217.17 Y114.034 E12.10138
G1 X217.186 Y116.593 E12.20351
G1 X217.273 Y119.089 E12.3032
G1 X217.43 Y121.592 E12.40329
G1 X217.658 Y124.089 E12.50337
G1 X218.001 Y126.928 E12.6175
G1 X218.036 Y127.267 E12.6311
G1 X218.078 Y127.737 E12.64994
G1 X218.105 Y128.109 E12.66482
G1 X218.141 Y128.76 E12.69085
G1 X218.156 Y129.583 E12.7237
G1 X218.146 Y130.092 E12.74402
G1 X218.133 Y130.445 E12.75812
G1 X218.101 Y131.063 E12.78282
G1 X218.026 Y131.895 E12.81616
G1 X217.932 Y132.63 E12.84573
G1 X217.613 Y135.304 E12.95321
G1 X217.389 Y137.774 E13.0522
G1 X217.232 Y140.304 E13.15337
G1 X217.146 Y142.824 E13.25401
G1 X217.133 Y145.348 E13.35475
G1 X217.189 Y147.838 E13.45416
G1 X217.319 Y150.393 E13.55626
G1 X217.516 Y152.866 E13.65528
G1 X217.789 Y155.388 E13.75653
G1 X218.128 Y157.88 E13.8569
G1 X218.229 Y158.551 E13.88399
G1 X218.32 Y159.352 E13.91616
G1 X218.358 Y159.849 E13.93606
G1 X218.379 Y160.201 E13.95013
G1 X218.41 Y160.9 E13.97806
G1 X218.417 Y161.694 E14.00975
G1 X218.403 Y162.195 E14.02975
G1 X218.384 Y162.593 E14.04565
G1 X218.339 Y163.294 E14.07369
G1 X218.262 Y164.069 E14.10477
G1 X218.155 Y164.842 E14.13592
G1 X218.098 Y165.207 E14.15067
G1 X217.733 Y167.771 E14.25403
G1 X217.453 Y170.246 E14.35344
G1 X217.238 Y172.776 E14.45479
G1 X217.097 Y175.292 E14.55536
G1 X217.026 Y177.817 E14.65618
G1 X217.026 Y180.342 E14.75696
G1 X217.097 Y182.828 E14.85622
G1 X217.242 Y185.36 E14.95744
G1 X217.453 Y187.838 E15.0567
G1 X217.632 Y189.408 E15.11977
G1 X217.747 Y190.512 E15.16407
G1 X217.813 Y191.272 E15.19452
G1 X217.849 Y191.898 E15.21955
G1 X217.858 Y192.202 E15.23169
G1 X217.862 Y192.689 E15.25112
G1 X217.849 Y193.577 E15.28657
G1 X217.82 Y194.229 E15.31262
G1 X217.794 Y194.58 E15.32667
G1 X217.749 Y195.046 E15.34535
G1 X217.653 Y195.866 E15.3783
G1 X217.568 Y196.457 E15.40213
G1 X217.519 Y196.741 E15.41364
G1 X217.425 Y197.222 E15.4332
G1 X217.234 Y198.095 E15.46887
G1 X217.061 Y198.779 E15.49702
G1 X216.968 Y199.103 E15.51048
G1 X216.838 Y199.523 E15.52803
G1 X216.576 Y200.315 E15.56132
G1 X216.373 Y200.879 E15.58525
G1 X216.258 Y201.172 E15.59781
G1 X216.068 Y201.624 E15.61738
G1 X215.709 Y202.431 E15.65263
G1 X215.373 Y203.121 E15.68326
G1 X215.161 Y203.52 E15.70129
G1 X214.966 Y203.871 E15.71732
G1 X214.607 Y204.491 E15.74591
G1 X214.289 Y205.007 E15.77011
G1 X214.118 Y205.268 E15.78256
G1 X213.858 Y205.648 E15.80094
G1 X213.352 Y206.354 E15.8356
G1 X213.005 Y206.812 E15.85854
G1 X212.846 Y207.011 E15.8687
G1 X212.33 Y207.621 E15.90059
G1 X211.873 Y208.135 E15.92804
G1 X211.479 Y208.556 E15.95106
G1 X211.24 Y208.798 E15.96463
G1 X210.887 Y209.139 E15.98422
G1 X210.265 Y209.715 E16.01806
G1 X209.757 Y210.158 E16.04496
G1 X209.526 Y210.347 E16.05687
G1 X209.188 Y210.612 E16.07401
G1 X208.49 Y211.139 E16.10892
G1 X208.001 Y211.487 E16.13288
G1 X207.492 Y211.824 E16.15724
G1 X207.122 Y212.053 E16.17461
G1 X206.528 Y212.41 E16.20227
G1 X205.705 Y212.859 E16.23969
G1 X204.973 Y213.185 E16.27167
G1 X204.834 Y213.241 E16.27765
G1 X203.95 Y213.554 E16.31508
G1 X203.042 Y213.791 E16.35253
G1 X201.855 Y213.98 E16.4005
G1 X201.652 Y214.001 E16.40865
G1 X200.716 Y214.057 E16.44607
G1 X199.526 Y214.014 E16.4936
G1 X198.792 Y213.944 E16.52303
G1 X196.868 Y213.723 E16.60033
G1 X194.356 Y213.508 E16.70095
G1 X191.823 Y213.363 E16.80221
G1 X189.336 Y213.291 E16.90152
G1 X186.813 Y213.289 E17.00222
G1 X184.291 Y213.359 E17.10291
G1 X181.787 Y213.499 E17.20301
G1 X178.793 Y213.758 E17.32295
G1 X177.294 Y213.913 E17.3831
G1 X176.358 Y213.969 E17.42052
G1 X175.691 Y213.961 E17.44715
G1 X174.794 Y213.922 E17.48298
G1 X172.27 Y213.85 E17.58376
G1 X169.756 Y213.85 E17.6841
G1 X166.986 Y213.929 E17.7947
G1 X166.048 Y213.915 E17.83214
G1 X164.97 Y213.801 E17.87541
G1 X163.805 Y213.617 E17.92248
G1 X161.149 Y213.159 E18.03006
G1 X158.68 Y212.804 E18.12961
G1 X156.182 Y212.518 E18.22996
G1 X153.687 Y212.303 E18.32991
G1 X151.149 Y212.157 E18.43138
G1 X148.652 Y212.084 E18.53108
G1 X146.128 Y212.081 E18.63182
G1 X143.597 Y212.15 E18.73288
G1 X141.093 Y212.288 E18.83297
G1 X138.611 Y212.497 E18.93238
G1 X136.067 Y212.784 E19.03456
G1 X133.607 Y213.131 E19.13372
G1 X131.104 Y213.557 E19.23505
G1 X128.681 Y214.04 E19.33366
G1 X126.078 Y214.636 E19.44024
G1 X124.62 Y214.991 E19.50013
G1 X123.981 Y215.134 E19.52627
G1 X122.035 Y215.536 E19.60558
G1 X121.65 Y215.608 E19.62121
G1 X119.53 Y215.965 E19.70702
G1 X119.09 Y216.029 E19.72476
G1 X117.051 Y216.296 E19.80684
G1 X116.344 Y216.374 E19.83523
G1 X114.397 Y216.555 E19.91327
G1 X113.453 Y216.626 E19.95105
G1 X111.545 Y216.738 E20.02734
G1 X110.202 Y216.795 E20.08099
G1 X109.456 Y216.816 E20.11077
G1 X108.868 Y216.816 E20.13424
G1 X108.033 Y216.792 E20.16758
G1 X107.089 Y216.743 E20.20531
G1 X105.544 Y216.648 E20.26709
G1 X103.655 Y216.499 E20.34272
G1 X102.749 Y216.411 E20.37905
G1 X100.662 Y216.169 E20.46291
G1 X99.991 Y216.077 E20.48994
G1 X98.089 Y215.784 E20.56675
G1 X97.7 Y215.717 E20.5825
G1 X95.482 Y215.291 E20.67264
G1 X95.009 Y215.189 E20.69196
G1 X93.137 Y214.755 E20.76865
G1 X91.956 Y214.461 E20.81723
G1 X90.251 Y214.052 E20.88721
G1 X87.787 Y213.521 E20.98781
G1 X85.313 Y213.063 E21.08823
G1 X82.834 Y212.675 E21.18838
G1 X80.32 Y212.353 E21.28954
G1 X77.852 Y212.109 E21.38852
G1 X75.307 Y211.929 E21.49035
G1 X72.809 Y211.823 E21.59014
G1 X70.294 Y211.788 E21.69053
G1 X67.763 Y211.825 E21.79156
G1 X65.241 Y211.932 E21.89231
G1 X62.775 Y212.107 E21.99098
G1 X60.227 Y212.361 E22.09318
G1 X57.779 Y212.674 E22.19168
G1 X54.024 Y213.288 E22.34354
G1 X53.37 Y213.386 E22.36993
G1 X53.019 Y213.428 E22.38404
G1 X52.084 Y213.5 E22.42147
G1 X51.347 Y213.5 E22.45088
G1 X50.163 Y213.459 E22.49817
G1 X49.672 Y213.435 E22.51779
G1 X47.124 Y213.383 E22.61951
G1 X44.594 Y213.403 E22.72049
G1 X43.437 Y213.446 E22.7667
G1 X42.463 Y213.47 E22.80558
G1 X41.069 Y213.416 E22.86126
G1 X39.617 Y213.264 E22.91953
G1 X39.256 Y213.219 E22.93405
G1 X36.793 Y212.982 E23.03281
G1 X34.276 Y212.811 E23.1335
G1 X31.721 Y212.711 E23.23555
G1 X29.235 Y212.685 E23.33478
G1 X26.743 Y212.728 E23.43426
G1 X24.187 Y212.845 E23.53638
G1 X21.678 Y213.03 E23.63679
G1 X18.959 Y213.31 E23.74589
G1 X18.023 Y213.366 E23.78331
G1 X16.997 Y213.336 E23.82428
G1 X16.761 Y213.318 E23.83372
G1 X15.83 Y213.207 E23.87115
G1 X14.912 Y213.017 E23.90856
G1 X14.013 Y212.749 E23.946
G1 X13.14 Y212.406 E23.98344
G1 X12.069 Y211.859 E24.03144
G1 X11.455 Y211.502 E24.05979
G1 X11.014 Y211.232 E24.08042
G1 X10.525 Y210.916 E24.10366
G1 X9.965 Y210.529 E24.13083
G1 X9.763 Y210.38 E24.14085
G1 X9.44 Y210.132 E24.1571
G1 X8.708 Y209.549 E24.19445
G1 X8.171 Y209.093 E24.22257
G1 X7.956 Y208.898 E24.23415
G1 X7.657 Y208.616 E24.25056
G1 X7.033 Y208.006 E24.28539
G1 X6.599 Y207.557 E24.31031
G1 X6.431 Y207.373 E24.32025
G1 X6.105 Y206.999 E24.34006
G1 X5.504 Y206.278 E24.37752
G1 X5.076 Y205.731 E24.40524
G1 X4.896 Y205.485 E24.41741
G1 X4.65 Y205.134 E24.43451
G1 X4.165 Y204.414 E24.46916
G1 X3.803 Y203.84 E24.49625
G1 X3.645 Y203.571 E24.5087
G1 X3.441 Y203.208 E24.52532
G1 X3.033 Y202.449 E24.55971
G1 X2.742 Y201.866 E24.58572
G1 X2.628 Y201.62 E24.59654
G1 X2.442 Y201.196 E24.61502
G1 X2.092 Y200.349 E24.6516
G1 X1.848 Y199.702 E24.67919
G1 X1.749 Y199.412 E24.69142
G1 X1.615 Y198.992 E24.70902
G1 X1.368 Y198.161 E24.74362
G1 X1.201 Y197.533 E24.76956
G1 X1.139 Y197.268 E24.78042
G1 X1.049 Y196.847 E24.7976
G1 X0.878 Y195.961 E24.83362
G1 X0.753 Y195.15 E24.86637
G1 X0.696 Y194.661 E24.88602
G1 X0.659 Y194.292 E24.90082
G1 X0.603 Y193.614 E24.92797
G1 X0.57 Y192.998 E24.95259
G1 X0.561 Y192.656 E24.96625
G1 X0.558 Y192.213 E24.98393
G1 X0.57 Y191.356 E25.01814
G1 X0.6 Y190.686 E25.0449
G1 X0.622 Y190.393 E25.05663
G1 X0.665 Y189.942 E25.07471
G1 X0.794 Y188.851 E25.11856
G1 X1.145 Y186.228 E25.22418
G1 X1.407 Y183.726 E25.32459
G1 X1.599 Y181.208 E25.42538
G1 X1.718 Y178.726 E25.52456
G1 X1.768 Y176.197 E25.62551
G1 X1.745 Y173.642 E25.72749
G1 X1.654 Y171.182 E25.82574
G1 X1.487 Y168.633 E25.9277
G1 X1.248 Y166.08 E26.03004
G1 X1.097 Y164.771 E26.08263
G1 X1.058 Y164.379 E26.09835
G1 X1.01 Y163.774 E26.12258
G1 X0.986 Y163.363 E26.13901
G1 X0.959 Y162.716 E26.16485
G1 X0.954 Y161.919 E26.19666
G1 X0.97 Y161.398 E26.21747
G1 X0.987 Y161.047 E26.23149
G1 X1.03 Y160.362 E26.25889
G1 X1.087 Y159.735 E26.28402
G1 X1.248 Y158.401 E26.33765
G1 X1.359 Y157.55 E26.3719
G1 X1.614 Y155.061 E26.47176
G1 X1.799 Y152.533 E26.57293
G1 X1.914 Y150 E26.67413
G1 X1.957 Y147.507 E26.77365
G1 X1.929 Y144.987 E26.87423
G1 X1.83 Y142.502 E26.97349
G1 X1.655 Y139.932 E27.0763
G1 X1.417 Y137.46 E27.17542
G1 X1.106 Y134.95 E27.27637
G1 X1.067 Y134.584 E27.29106
G1 X1.029 Y134.163 E27.30793
G1 X1.001 Y133.779 E27.3233
G1 X0.963 Y133.089 E27.35088
G1 X0.948 Y132.296 E27.38253
G1 X0.956 Y131.828 E27.40121
G1 X0.969 Y131.444 E27.41655
G1 X1.003 Y130.791 E27.44265
G1 X1.071 Y130.013 E27.47382
G1 X1.13 Y129.536 E27.493
G1 X1.184 Y129.157 E27.50828
G1 X1.292 Y128.478 E27.53572
G1 X1.67 Y125.866 E27.64106
G1 X1.96 Y123.369 E27.74139
