;FLAVOR:Marlin
;TIME:720
;Filament used: 0.291142m
;Layer height: 0.2
;MINX:94.375
;MINY:94.375
;MINZ:0.3
;MAXX:125.975
;MAXY:125.975
;MAXZ:19.5
;Generated with Cura_SteamEngine 4.5.0
M82 ;absolute extrusion mode
M201 X500.00 Y500.00 Z100.00 E5000.00 ;Setup machine max acceleration
M203 X500.00 Y500.00 Z10.00 E50.00 ;Setup machine max feedrate
M204 P500.00 R1000.00 T500.00 ;Setup Print/Retract/Travel acceleration
M205 X8.00 Y8.00 Z0.40 E5.00 ;Setup Jerk
M220 S100 ;Reset Feedrate
M221 S100 ;Reset Flowrate

M140 S60; start preheating the bed
M104 S205 T0; start preheating hotend
G28 ;Home
M190 S60; heat to bed setting in Cura and WAIT
M109 S205 T0; heat hotend to setting in Cura and WAIT


G92 E0 ;Reset Extruder
G1 Z2.0 F3000 ;Move Z Axis up
G1 X10.1 Y20 Z0.28 F5000.0 ;Move to start position
G1 X10.1 Y200.0 Z0.28 F1500.0 E15 ;Draw the first line
G1 X10.4 Y200.0 Z0.28 F5000.0 ;Move to side a little
G1 X10.4 Y20 Z0.28 F1500.0 E30 ;Draw the second line
G92 E0 ;Reset Extruder
G1 Z2.0 F3000 ;Move Z Axis up

G92 E0
G92 E0
G1 F4500 E-5.5
;LAYER_COUNT:99
;LAYER:0
M107
M204 S500
M205 X100 Y100
G0 F7500 X96.298 Y95.977 Z0.3
;TYPE:SKIRT
G1 F4500 E0
G1 F1500 X96.831 Y95.537 E0.03362
G1 X97.411 Y95.162 E0.06722
G1 X98.031 Y94.856 E0.10085
G1 X98.682 Y94.624 E0.13446
G1 X99.355 Y94.469 E0.16806
G1 X100.182 Y94.387 E0.20848
G1 X100.663 Y94.375 E0.23189
G1 X119.376 Y94.375 E1.14214
G1 X120.075 Y94.385 E1.17615
G1 X120.765 Y94.434 E1.2098
G1 X121.444 Y94.564 E1.24343
G1 X122.103 Y94.77 E1.27701
G1 X122.734 Y95.052 E1.31063
G1 X123.329 Y95.404 E1.34426
G1 X123.879 Y95.823 E1.37789
G1 X124.376 Y96.302 E1.41147
G1 X124.816 Y96.836 E1.44512
G1 X125.19 Y97.416 E1.47869
G1 X125.495 Y98.037 E1.51235
G1 X125.727 Y98.688 E1.54597
G1 X125.881 Y99.361 E1.57955
G1 X125.962 Y100.18 E1.61958
G1 X125.974 Y100.659 E1.64289
G1 X125.975 Y119.338 E2.55149
G1 X125.966 Y120.065 E2.58686
G1 X125.917 Y120.754 E2.62046
G1 X125.789 Y121.434 E2.65411
G1 X125.584 Y122.093 E2.68768
G1 X125.304 Y122.725 E2.72131
G1 X124.952 Y123.32 E2.75494
G1 X124.535 Y123.871 E2.78855
G1 X124.056 Y124.37 E2.8222
G1 X123.524 Y124.81 E2.85578
G1 X122.944 Y125.185 E2.88937
G1 X122.324 Y125.492 E2.92303
G1 X121.673 Y125.724 E2.95664
G1 X121 Y125.88 E2.99025
G1 X120.158 Y125.964 E3.03141
G1 X119.67 Y125.975 E3.05515
G1 X100.98 Y125.975 E3.96429
G1 X100.282 Y125.966 E3.99825
G1 X99.593 Y125.917 E4.03185
G1 X98.914 Y125.789 E4.06546
G1 X98.254 Y125.583 E4.09909
G1 X97.622 Y125.302 E4.13273
G1 X97.027 Y124.951 E4.16634
G1 X96.477 Y124.533 E4.19994
G1 X95.978 Y124.054 E4.23358
G1 X95.538 Y123.521 E4.2672
G1 X95.163 Y122.941 E4.3008
G1 X94.857 Y122.321 E4.33443
G1 X94.625 Y121.67 E4.36805
G1 X94.469 Y120.997 E4.40165
G1 X94.386 Y120.152 E4.44296
G1 X94.375 Y119.658 E4.46699
G1 X94.376 Y100.955 E5.37676
G1 X94.385 Y100.279 E5.40965
G1 X94.434 Y99.59 E5.44324
G1 X94.562 Y98.911 E5.47686
G1 X94.768 Y98.251 E5.51049
G1 X95.049 Y97.62 E5.54409
G1 X95.401 Y97.025 E5.57771
G1 X95.819 Y96.475 E5.61132
G1 X95.884 Y96.407 E5.61589
G0 F1200 X96.298 Y95.977
G0 F7500 X96.678 Y96.159
G1 F1500 X97.206 Y95.749 E5.64841
G1 X97.779 Y95.406 E5.6809
G1 X98.389 Y95.133 E5.7134
G1 X99.027 Y94.935 E5.7459
G1 X99.684 Y94.815 E5.77839
G1 X100.194 Y94.776 E5.80327
G1 X100.663 Y94.765 E5.82609
G1 X119.371 Y94.765 E6.7361
G1 X120.07 Y94.775 E6.7701
G1 X120.736 Y94.824 E6.80259
G1 X121.392 Y94.953 E6.83511
G1 X122.027 Y95.159 E6.86758
G1 X122.634 Y95.439 E6.9001
G1 X123.202 Y95.79 E6.93258
G1 X123.725 Y96.207 E6.96511
G1 X124.194 Y96.682 E6.99758
G1 X124.603 Y97.211 E7.03011
G1 X124.946 Y97.784 E7.06259
G1 X125.218 Y98.394 E7.09508
G1 X125.415 Y99.033 E7.12761
G1 X125.535 Y99.69 E7.1601
G1 X125.572 Y100.192 E7.18458
G1 X125.584 Y100.659 E7.2073
G1 X125.585 Y119.333 E8.11566
G1 X125.576 Y120.06 E8.15103
G1 X125.527 Y120.727 E8.18356
G1 X125.4 Y121.382 E8.21602
G1 X125.195 Y122.018 E8.24852
G1 X124.916 Y122.625 E8.28102
G1 X124.566 Y123.195 E8.31355
G1 X124.151 Y123.718 E8.34603
G1 X123.676 Y124.188 E8.37853
G1 X123.148 Y124.598 E8.41105
G1 X122.576 Y124.942 E8.44352
G1 X121.966 Y125.215 E8.47603
G1 X121.328 Y125.414 E8.50854
G1 X120.671 Y125.534 E8.54102
G1 X120.148 Y125.574 E8.56654
G1 X119.67 Y125.585 E8.58979
G1 X100.985 Y125.585 E9.49869
G1 X100.287 Y125.576 E9.53264
G1 X99.621 Y125.527 E9.56513
G1 X98.965 Y125.399 E9.59764
G1 X98.329 Y125.194 E9.63014
G1 X97.722 Y124.914 E9.66266
G1 X97.153 Y124.564 E9.69515
G1 X96.63 Y124.149 E9.72763
G1 X96.16 Y123.674 E9.76014
G1 X95.75 Y123.146 E9.79265
G1 X95.407 Y122.573 E9.82514
G1 X95.134 Y121.963 E9.85765
G1 X94.936 Y121.325 E9.89014
G1 X94.815 Y120.668 E9.92264
G1 X94.776 Y120.142 E9.94829
G1 X94.765 Y119.658 E9.97184
G1 X94.765 Y100.961 E10.88132
G1 X94.774 Y100.285 E10.9142
G1 X94.823 Y99.618 E10.94674
G1 X94.951 Y98.963 E10.9792
G1 X95.157 Y98.327 E11.01172
G1 X95.437 Y97.72 E11.04424
G1 X95.787 Y97.151 E11.07673
G1 X96.203 Y96.628 E11.10924
G1 X96.253 Y96.578 E11.11268
G0 F1200 X96.678 Y96.159
G0 F7500 X97.057 Y96.348
G1 F1500 X97.579 Y95.97 E11.14403
G1 X98.144 Y95.66 E11.17537
G1 X98.743 Y95.422 E11.20673
G1 X99.367 Y95.26 E11.23809
G1 X100.205 Y95.166 E11.27911
G1 X100.663 Y95.155 E11.30139
G1 X119.365 Y95.155 E12.21111
G1 X120.064 Y95.165 E12.24512
G1 X120.707 Y95.214 E12.27648
G1 X121.338 Y95.342 E12.3078
G1 X121.949 Y95.548 E12.33917
G1 X122.53 Y95.827 E12.37052
G1 X123.071 Y96.176 E12.40183
G1 X123.565 Y96.59 E12.43319
G1 X124.004 Y97.061 E12.46451
G1 X124.382 Y97.584 E12.4959
G1 X124.691 Y98.149 E12.52722
G1 X124.929 Y98.748 E12.55857
G1 X125.09 Y99.372 E12.58992
G1 X125.183 Y100.203 E12.6306
G1 X125.194 Y100.659 E12.65278
G1 X125.195 Y119.328 E13.5609
G1 X125.186 Y120.055 E13.59626
G1 X125.138 Y120.698 E13.62763
G1 X125.011 Y121.33 E13.65899
G1 X124.806 Y121.941 E13.69034
G1 X124.528 Y122.522 E13.72167
G1 X124.18 Y123.064 E13.753
G1 X123.767 Y123.559 E13.78435
G1 X123.296 Y123.999 E13.81571
G1 X122.775 Y124.377 E13.84702
G1 X122.21 Y124.688 E13.87839
G1 X121.612 Y124.927 E13.90972
G1 X120.988 Y125.089 E13.94107
G1 X120.137 Y125.184 E13.98273
G1 X119.67 Y125.195 E14.00545
G1 X100.99 Y125.195 E14.9141
G1 X100.292 Y125.186 E14.94806
G1 X99.649 Y125.137 E14.97942
G1 X99.018 Y125.01 E15.01073
G1 X98.407 Y124.805 E15.04208
G1 X97.826 Y124.527 E15.07341
G1 X97.284 Y124.178 E15.10477
G1 X96.789 Y123.765 E15.13613
G1 X96.349 Y123.294 E15.16748
G1 X95.971 Y122.772 E15.19883
G1 X95.661 Y122.208 E15.23014
G1 X95.422 Y121.609 E15.26151
G1 X95.26 Y120.986 E15.29282
G1 X95.166 Y120.131 E15.33466
G1 X95.155 Y119.658 E15.35767
G1 X95.155 Y100.966 E16.26691
G1 X95.164 Y100.29 E16.29979
G1 X95.213 Y99.647 E16.33116
G1 X95.341 Y99.016 E16.36248
G1 X95.546 Y98.405 E16.39383
G1 X95.825 Y97.824 E16.42518
G1 X96.173 Y97.282 E16.45651
G1 X96.586 Y96.788 E16.48783
G1 X96.621 Y96.755 E16.49017
G0 F1200 X97.057 Y96.348
G1 F4500 E10.99017
;MESH:four_square_cons.stl
G0 F7500 X119.024 Y99.685
G0 X119.025 Y101.324
;TYPE:WALL-INNER
G1 F4500 E16.49017
G1 F1500 X119.025 Y119.025 E17.3512
G1 X101.325 Y119.025 E18.21218
G1 X101.325 Y101.325 E19.07316
G1 X118.428 Y101.324 E19.9051
G0 F1200 X119.025 Y101.324
G0 F7500 X119.415 Y100.934
G1 F1500 X119.415 Y119.415 E20.80407
G1 X100.935 Y119.415 E21.70299
G1 X100.935 Y100.935 E22.60192
G1 X118.818 Y100.934 E23.4718
G0 F1200 X119.415 Y100.934
G0 F7500 X119.8 Y100.549
;TYPE:WALL-OUTER
G1 F1500 X119.8 Y119.8 E24.3614
G1 X100.55 Y119.8 E25.25096
G1 X100.55 Y100.55 E26.14052
G1 X119.203 Y100.549 E27.00249
G0 F1200 X119.8 Y100.549
G0 F7500 X119.8 Y100.949
G0 X119.371 Y100.949
G0 X118.645 Y101.704
;TYPE:SKIN
G1 F1500 X118.645 Y118.645 E27.82655
G1 X101.705 Y118.645 E28.65056
G1 X101.705 Y101.705 E29.47457
G1 X118.048 Y101.704 E30.26954
G0 F1200 X118.645 Y101.704
G0 F7500 X118.488 Y101.942
G1 F1500 X118.407 Y101.86 E30.27515
G0 F7500 X117.855 Y101.86
G1 F1500 X118.488 Y102.493 E30.31869
G0 F7500 X118.488 Y103.045
G1 F1500 X117.304 Y101.86 E30.40018
G0 F7500 X116.752 Y101.86
G1 F1500 X118.488 Y103.596 E30.5196
G0 F7500 X118.488 Y104.148
G1 F1500 X116.2 Y101.86 E30.67699
G0 F7500 X115.649 Y101.86
G1 F1500 X118.488 Y104.699 E30.87229
G0 F7500 X118.488 Y105.251
G1 F1500 X115.097 Y101.86 E31.10557
G0 F7500 X114.546 Y101.86
G1 F1500 X118.488 Y105.802 E31.37674
G0 F7500 X118.488 Y106.354
G1 F1500 X113.994 Y101.86 E31.68589
G0 F7500 X113.443 Y101.86
G1 F1500 X118.488 Y106.906 E32.03298
G0 F7500 X118.488 Y107.457
G1 F1500 X112.891 Y101.86 E32.418
G0 F7500 X112.34 Y101.86
G1 F1500 X118.488 Y108.009 E32.84097
G0 F7500 X118.488 Y108.56
G1 F1500 X111.788 Y101.86 E33.30187
G0 F7500 X111.237 Y101.86
G1 F1500 X118.488 Y109.112 E33.80071
G0 F7500 X118.488 Y109.663
G1 F1500 X110.685 Y101.86 E34.33749
G0 F7500 X110.134 Y101.86
G1 F1500 X118.488 Y110.215 E34.91221
G0 F7500 X118.488 Y110.766
G1 F1500 X109.582 Y101.86 E35.52487
G0 F7500 X109.03 Y101.86
G1 F1500 X118.488 Y111.318 E36.1755
G0 F7500 X118.488 Y111.869
G1 F1500 X108.479 Y101.86 E36.86403
G0 F7500 X107.927 Y101.86
G1 F1500 X118.488 Y112.421 E37.59054
G0 F7500 X118.488 Y112.973
G1 F1500 X107.376 Y101.86 E38.35499
G0 F7500 X106.824 Y101.86
G1 F1500 X118.488 Y113.524 E39.15737
G0 F7500 X118.488 Y114.076
G1 F1500 X106.273 Y101.86 E39.99769
G0 F7500 X105.721 Y101.86
G1 F1500 X118.488 Y114.627 E40.87596
G0 F7500 X118.488 Y115.179
G1 F1500 X105.17 Y101.86 E41.79216
G0 F7500 X104.618 Y101.86
G1 F1500 X118.488 Y115.73 E42.74629
G0 F7500 X118.488 Y116.282
G1 F1500 X104.067 Y101.86 E43.73837
G0 F7500 X103.515 Y101.86
G1 F1500 X118.488 Y116.833 E44.76839
G0 F7500 X118.488 Y117.385
G1 F1500 X102.963 Y101.86 E45.83637
G0 F7500 X102.412 Y101.86
G1 F1500 X118.488 Y117.936 E46.94227
G0 F7500 X118.488 Y118.488
G1 F1500 X101.86 Y101.86 E48.08613
G0 F7500 X101.86 Y102.412
G1 F1500 X117.936 Y118.487 E49.19199
G0 F7500 X117.384 Y118.487
G1 F1500 X101.86 Y102.963 E50.25991
G0 F7500 X101.86 Y103.515
G1 F1500 X116.833 Y118.487 E51.28989
G0 F7500 X116.281 Y118.487
G1 F1500 X101.86 Y104.067 E52.2819
G0 F7500 X101.86 Y104.618
G1 F1500 X115.73 Y118.487 E53.236
G0 F7500 X115.178 Y118.487
G1 F1500 X101.86 Y105.17 E54.15213
G0 F7500 X101.86 Y105.721
G1 F1500 X114.626 Y118.487 E55.03033
G0 F7500 X114.075 Y118.487
G1 F1500 X101.86 Y106.273 E55.87058
G0 F7500 X101.86 Y106.824
G1 F1500 X113.523 Y118.487 E56.6729
G0 F7500 X112.972 Y118.487
G1 F1500 X101.86 Y107.376 E57.43727
G0 F7500 X101.86 Y107.927
G1 F1500 X112.42 Y118.487 E58.16371
G0 F7500 X111.869 Y118.487
G1 F1500 X101.86 Y108.479 E58.85221
G0 F7500 X101.86 Y109.03
G1 F1500 X111.317 Y118.487 E59.50277
G0 F7500 X110.766 Y118.487
G1 F1500 X101.86 Y109.582 E60.1154
G0 F7500 X101.86 Y110.134
G1 F1500 X110.214 Y118.487 E60.69005
G0 F7500 X109.663 Y118.487
G1 F1500 X101.86 Y110.685 E61.22679
G0 F7500 X101.86 Y111.237
G1 F1500 X109.111 Y118.487 E61.72556
G0 F7500 X108.559 Y118.487
G1 F1500 X101.86 Y111.788 E62.1864
G0 F7500 X101.86 Y112.34
G1 F1500 X108.008 Y118.487 E62.60929
G0 F7500 X107.456 Y118.487
G1 F1500 X101.86 Y112.891 E62.99425
G0 F7500 X101.86 Y113.443
G1 F1500 X106.905 Y118.487 E63.34127
G0 F7500 X106.353 Y118.487
G1 F1500 X101.86 Y113.994 E63.65035
G0 F7500 X101.86 Y114.546
G1 F1500 X105.802 Y118.487 E63.92149
G0 F7500 X105.25 Y118.487
G1 F1500 X101.86 Y115.097 E64.1547
G0 F7500 X101.86 Y115.649
G1 F1500 X104.699 Y118.487 E64.34996
G0 F7500 X104.147 Y118.487
G1 F1500 X101.86 Y116.2 E64.50729
G0 F7500 X101.86 Y116.752
G1 F1500 X103.596 Y118.487 E64.62667
G0 F7500 X103.044 Y118.487
G1 F1500 X101.86 Y117.304 E64.70809
G0 F7500 X101.86 Y117.855
G1 F1500 X102.493 Y118.487 E64.7516
G0 F7500 X101.941 Y118.487
M104 S205
G1 F1500 X101.86 Y118.407 E64.75714
G1 F4500 E59.25714
;MESH:NONMESH
G0 F300 X101.86 Y118.407 Z0.5
G0 F7500 X99.685 Y118.407
G0 X99.697 Y99.697
G0 X118.634 Y99.685
G0 X118.635 Y101.464
;TIME_ELAPSED:61.323008
;LAYER:1
M140 S60
M106 S127.5
;TYPE:WALL-INNER
;MESH:four_square_cons.stl
G1 F4500 E64.75714
G1 F1725 X118.635 Y118.635 E65.31397
G1 X101.465 Y118.635 E65.87077
G1 X101.465 Y101.465 E66.42757
G1 X117.738 Y101.464 E66.95528
G0 F1380 X118.635 Y101.464
G0 F8625 X119.025 Y101.074
G1 F1725 X119.025 Y119.025 E67.53741
G1 X101.075 Y119.025 E68.1195
G1 X101.075 Y101.075 E68.70159
G1 X118.128 Y101.074 E69.2546
G0 F1380 X119.025 Y101.074
G0 F8625 X119.415 Y100.684
G1 F1725 X119.415 Y119.415 E69.86202
G1 X100.685 Y119.415 E70.46941
G1 X100.685 Y100.685 E71.0768
G1 X118.518 Y100.684 E71.6551
G0 F1380 X119.415 Y100.684
G0 F8625 X119.8 Y100.299
;TYPE:WALL-OUTER
G1 F1725 X119.8 Y119.8 E72.25587
G1 X100.3 Y119.8 E72.85661
G1 X100.3 Y100.3 E73.45735
G1 X118.903 Y100.299 E74.03045
G0 F1380 X119.8 Y100.299
G0 F8625 X119.8 Y100.699
G0 X119.371 Y100.699
G0 X118.255 Y101.844
;TYPE:SKIN
G1 F1725 X118.255 Y118.255 E74.56264
G1 X101.845 Y118.255 E75.0948
G1 X101.845 Y101.845 E75.62695
G1 X117.358 Y101.844 E76.13001
G0 F1380 X118.255 Y101.844
G1 F4500 E70.63001
G0 F8625 X118.254 Y99.435
G0 X101.999 Y99.435
G0 X102 Y102.07
G1 F4500 E76.13001
G1 F1725 X102.07 Y102 E76.13322
G0 F8625 X102.622 Y102
G1 F1725 X102 Y102.621 E76.16173
G0 F8625 X102 Y103.173
G1 F1725 X103.173 Y102 E76.21552
G0 F8625 X103.725 Y102
G1 F1725 X102 Y103.724 E76.29461
G0 F8625 X102 Y104.276
G1 F1725 X104.277 Y102 E76.39901
G0 F8625 X104.828 Y102
G1 F1725 X102 Y104.827 E76.52868
G0 F8625 X102 Y105.379
G1 F1725 X105.38 Y102 E76.68367
G0 F8625 X105.931 Y102
G1 F1725 X102 Y105.93 E76.86393
G0 F8625 X102 Y106.482
G1 F1725 X106.483 Y102 E77.0695
G0 F8625 X107.034 Y102
G1 F1725 X102 Y107.034 E77.30036
G0 F8625 X102 Y107.585
G1 F1725 X107.586 Y102 E77.55652
G0 F8625 X108.137 Y102
G1 F1725 X102 Y108.137 E77.83797
G0 F8625 X102 Y108.688
G1 F1725 X108.689 Y102 E78.14471
G0 F8625 X109.24 Y102
G1 F1725 X102 Y109.24 E78.47675
G0 F8625 X102 Y109.791
G1 F1725 X109.792 Y102 E78.83407
G0 F8625 X110.344 Y102
G1 F1725 X102 Y110.343 E79.21671
G0 F8625 X102 Y110.894
G1 F1725 X110.895 Y102 E79.62462
G0 F8625 X111.447 Y102
G1 F1725 X102 Y111.446 E80.05785
G0 F8625 X102 Y111.997
G1 F1725 X111.998 Y102 E80.51634
G0 F8625 X112.55 Y102
G1 F1725 X102 Y112.549 E81.00016
G0 F8625 X102 Y113.101
G1 F1725 X113.101 Y102 E81.50926
G0 F8625 X113.653 Y102
G1 F1725 X102 Y113.652 E82.04365
G0 F8625 X102 Y114.204
G1 F1725 X114.204 Y102 E82.60334
G0 F8625 X114.756 Y102
G1 F1725 X102 Y114.755 E83.18832
G0 F8625 X102 Y115.307
G1 F1725 X115.307 Y102 E83.79859
G0 F8625 X115.859 Y102
G1 F1725 X102 Y115.858 E84.43416
G0 F8625 X102 Y116.41
G1 F1725 X116.41 Y102 E85.09502
G0 F8625 X116.962 Y102
G1 F1725 X102 Y116.961 E85.78117
G0 F8625 X102 Y117.513
G1 F1725 X117.514 Y102 E86.49263
G0 F8625 X118.065 Y102
G1 F1725 X102 Y118.064 E87.22936
G0 F8625 X102.518 Y118.098
G1 F1725 X118.098 Y102.519 E87.94386
G0 F8625 X118.098 Y103.07
G1 F1725 X103.07 Y118.098 E88.63306
G0 F8625 X103.621 Y118.098
G1 F1725 X118.098 Y103.622 E89.29696
G0 F8625 X118.098 Y104.173
G1 F1725 X104.173 Y118.098 E89.93558
G0 F8625 X104.724 Y118.098
G1 F1725 X118.098 Y104.725 E90.5489
G0 F8625 X118.098 Y105.276
G1 F1725 X105.276 Y118.098 E91.13693
G0 F8625 X105.827 Y118.098
G1 F1725 X118.098 Y105.828 E91.69967
G0 F8625 X118.098 Y106.379
G1 F1725 X106.379 Y118.098 E92.23711
G0 F8625 X106.93 Y118.098
G1 F1725 X118.098 Y106.931 E92.74927
G0 F8625 X118.098 Y107.483
G1 F1725 X107.482 Y118.098 E93.2361
G0 F8625 X108.033 Y118.098
G1 F1725 X118.098 Y108.034 E93.69767
G0 F8625 X118.098 Y108.586
G1 F1725 X108.585 Y118.098 E94.13392
G0 F8625 X109.136 Y118.098
G1 F1725 X118.098 Y109.137 E94.54491
G0 F8625 X118.098 Y109.689
G1 F1725 X109.688 Y118.098 E94.93058
G0 F8625 X110.24 Y118.098
G1 F1725 X118.098 Y110.24 E95.29095
G0 F8625 X118.098 Y110.792
G1 F1725 X110.791 Y118.098 E95.62603
G0 F8625 X111.343 Y118.098
G1 F1725 X118.098 Y111.343 E95.93583
G0 F8625 X118.098 Y111.895
G1 F1725 X111.894 Y118.098 E96.22032
G0 F8625 X112.446 Y118.098
G1 F1725 X118.098 Y112.446 E96.47953
G0 F8625 X118.098 Y112.998
G1 F1725 X112.997 Y118.098 E96.71344
G0 F8625 X113.549 Y118.098
G1 F1725 X118.098 Y113.55 E96.92204
G0 F8625 X118.098 Y114.101
G1 F1725 X114.1 Y118.098 E97.10537
G0 F8625 X114.652 Y118.098
G1 F1725 X118.098 Y114.653 E97.26339
G0 F8625 X118.098 Y115.204
G1 F1725 X115.203 Y118.098 E97.39613
