;FLAVOR:Marlin
;TIME:862
;Filament used: 0.284333m
;Layer height: 0.2
;MINX:89.4
;MINY:89.4
;MINZ:0.2
;MAXX:130.999
;MAXY:131
;MAXZ:19.6
;Generated with Cura_SteamEngine 4.5.0
M82 ;absolute extrusion mode
M201 X500.00 Y500.00 Z100.00 E5000.00 ;Setup machine max acceleration
M203 X500.00 Y500.00 Z10.00 E50.00 ;Setup machine max feedrate
M204 P500.00 R1000.00 T500.00 ;Setup Print/Retract/Travel acceleration
M205 X8.00 Y8.00 Z0.40 E5.00 ;Setup Jerk
M220 S100 ;Reset Feedrate
M221 S100 ;Reset Flowrate

M140 S50; start preheating the bed
M104 S200 T0; start preheating hotend
G28 ;Home
M190 S50; heat to bed setting in Cura and WAIT
M109 S200 T0; heat hotend to setting in Cura and WAIT


G92 E0 ;Reset Extruder
G1 Z2.0 F3000 ;Move Z Axis up
G1 X10.1 Y20 Z0.28 F5000.0 ;Move to start position
G1 X10.1 Y200.0 Z0.28 F1500.0 E15 ;Draw the first line
G1 X10.4 Y200.0 Z0.28 F5000.0 ;Move to side a little
G1 X10.4 Y20 Z0.28 F1500.0 E30 ;Draw the second line
G92 E0 ;Reset Extruder
G1 Z2.0 F3000 ;Move Z Axis up

G92 E0
G92 E0
G1 F2700 E-5
;LAYER_COUNT:100
;LAYER:0
M107
G0 F6000 X92.596 Y92.666 Z0.2
;TYPE:SKIRT
G1 F2700 E0
G1 F1200 X93.284 Y92.029 E0.03119
G1 X94.024 Y91.452 E0.0624
G1 X94.81 Y90.941 E0.09358
G1 X95.637 Y90.498 E0.12478
G1 X96.498 Y90.128 E0.15595
G1 X97.388 Y89.832 E0.18715
G1 X98.3 Y89.613 E0.21834
G1 X99.228 Y89.473 E0.24956
G1 X100.083 Y89.414 E0.27806
G1 X100.712 Y89.4 E0.29899
G1 X119.448 Y89.4 E0.92215
G1 X120.147 Y89.41 E0.9454
G1 X121.084 Y89.464 E0.97662
G1 X122.012 Y89.596 E1.00779
G1 X122.926 Y89.808 E1.039
G1 X123.818 Y90.097 E1.07019
G1 X124.683 Y90.46 E1.10139
G1 X125.513 Y90.896 E1.13257
G1 X126.303 Y91.401 E1.16375
G1 X127.048 Y91.972 E1.19497
G1 X127.741 Y92.604 E1.22617
G1 X128.378 Y93.292 E1.25735
G1 X128.953 Y94.033 E1.28855
G1 X129.464 Y94.819 E1.31973
G1 X129.906 Y95.647 E1.35095
G1 X130.275 Y96.508 E1.3821
G1 X130.57 Y97.399 E1.41332
G1 X130.788 Y98.311 E1.44451
G1 X130.928 Y99.238 E1.47569
G1 X130.985 Y100.079 E1.50373
G1 X130.999 Y100.708 E1.52465
G1 X130.999 Y119.4 E2.14635
G1 X130.99 Y120.127 E2.17053
G1 X130.939 Y121.064 E2.20174
G1 X130.807 Y121.992 E2.23292
G1 X130.598 Y122.906 E2.2641
G1 X130.311 Y123.799 E2.2953
G1 X129.949 Y124.665 E2.32652
G1 X129.515 Y125.496 E2.3577
G1 X129.011 Y126.287 E2.3889
G1 X128.442 Y127.032 E2.42008
G1 X127.811 Y127.727 E2.4513
G1 X127.124 Y128.365 E2.48248
G1 X126.385 Y128.942 E2.51367
G1 X125.599 Y129.454 E2.54487
G1 X124.773 Y129.897 E2.57604
G1 X123.911 Y130.269 E2.60727
G1 X123.022 Y130.565 E2.63843
G1 X122.11 Y130.785 E2.66963
G1 X121.183 Y130.926 E2.70082
G1 X120.299 Y130.987 E2.73029
G1 X119.67 Y131 E2.75122
G1 X100.965 Y130.999 E3.37335
G1 X100.267 Y130.99 E3.39657
G1 X99.331 Y130.938 E3.42775
G1 X98.402 Y130.806 E3.45895
G1 X97.488 Y130.596 E3.49015
G1 X96.595 Y130.309 E3.52134
G1 X95.73 Y129.946 E3.55254
G1 X94.899 Y129.512 E3.58373
G1 X94.108 Y129.008 E3.61492
G1 X93.363 Y128.438 E3.64612
G1 X92.669 Y127.807 E3.67732
G1 X92.032 Y127.12 E3.70848
G1 X91.455 Y126.38 E3.73969
G1 X90.943 Y125.594 E3.77089
G1 X90.5 Y124.767 E3.80209
G1 X90.129 Y123.906 E3.83327
G1 X89.833 Y123.016 E3.86447
G1 X89.614 Y122.104 E3.89567
G1 X89.473 Y121.177 E3.92685
G1 X89.413 Y120.288 E3.95649
G1 X89.4 Y119.658 E3.97745
G1 X89.401 Y100.939 E4.60004
G1 X89.41 Y100.263 E4.62253
G1 X89.462 Y99.326 E4.65374
G1 X89.594 Y98.398 E4.68492
G1 X89.805 Y97.484 E4.71612
G1 X90.093 Y96.591 E4.74732
G1 X90.456 Y95.726 E4.77853
G1 X90.891 Y94.895 E4.80972
G1 X91.395 Y94.105 E4.84089
G1 X91.965 Y93.36 E4.87209
G1 X92.596 Y92.666 E4.90329
G0 F6000 X92.988 Y92.84
G1 F1200 X93.673 Y92.225 E4.9339
G1 X94.408 Y91.671 E4.96452
G1 X95.189 Y91.183 E4.99515
G1 X96.009 Y90.765 E5.02576
G1 X96.863 Y90.42 E5.05639
G1 X97.743 Y90.15 E5.08701
G1 X98.643 Y89.957 E5.11762
G1 X99.557 Y89.843 E5.14826
G1 X100.095 Y89.814 E5.16618
G1 X100.712 Y89.8 E5.18671
G1 X119.443 Y89.8 E5.8097
G1 X120.142 Y89.81 E5.83295
G1 X121.061 Y89.863 E5.86357
G1 X121.972 Y89.996 E5.89419
G1 X122.868 Y90.207 E5.92481
G1 X123.742 Y90.495 E5.95541
G1 X124.588 Y90.858 E5.98603
G1 X125.4 Y91.293 E6.01667
G1 X126.17 Y91.797 E6.04728
G1 X126.894 Y92.366 E6.07791
G1 X127.566 Y92.995 E6.10852
G1 X128.181 Y93.681 E6.13917
G1 X128.734 Y94.417 E6.16978
G1 X129.221 Y95.198 E6.2004
G1 X129.638 Y96.019 E6.23102
G1 X129.983 Y96.873 E6.26166
G1 X130.252 Y97.753 E6.29226
G1 X130.444 Y98.653 E6.32287
G1 X130.557 Y99.567 E6.3535
G1 X130.585 Y100.091 E6.37096
G1 X130.599 Y100.708 E6.39148
G1 X130.599 Y119.395 E7.01302
G1 X130.59 Y120.122 E7.0372
G1 X130.539 Y121.041 E7.06781
G1 X130.408 Y121.953 E7.09845
G1 X130.198 Y122.849 E7.12906
G1 X129.912 Y123.724 E7.15968
G1 X129.551 Y124.571 E7.1903
G1 X129.117 Y125.383 E7.22093
G1 X128.615 Y126.155 E7.25156
G1 X128.047 Y126.88 E7.28219
G1 X127.419 Y127.553 E7.3128
G1 X126.735 Y128.169 E7.34342
G1 X126 Y128.723 E7.37403
G1 X125.22 Y129.212 E7.40465
G1 X124.4 Y129.631 E7.43528
G1 X123.547 Y129.977 E7.4659
G1 X122.667 Y130.248 E7.49652
G1 X121.767 Y130.441 E7.52714
G1 X120.853 Y130.556 E7.55778
G1 X120.288 Y130.587 E7.5766
G1 X119.67 Y130.6 E7.59715
G1 X100.97 Y130.599 E8.21912
G1 X100.272 Y130.59 E8.24234
G1 X99.353 Y130.538 E8.27295
G1 X98.442 Y130.407 E8.30356
G1 X97.546 Y130.197 E8.33417
G1 X96.671 Y129.91 E8.3648
G1 X95.824 Y129.548 E8.39544
G1 X95.012 Y129.114 E8.42606
G1 X94.241 Y128.612 E8.45666
G1 X93.516 Y128.044 E8.48729
G1 X92.843 Y127.415 E8.51793
G1 X92.228 Y126.731 E8.54852
G1 X91.674 Y125.996 E8.57914
G1 X91.186 Y125.215 E8.60977
G1 X90.767 Y124.395 E8.64039
G1 X90.421 Y123.542 E8.67101
G1 X90.151 Y122.662 E8.70163
G1 X89.958 Y121.761 E8.73227
G1 X89.844 Y120.848 E8.76288
G1 X89.813 Y120.277 E8.7819
G1 X89.8 Y119.658 E8.80249
G1 X89.801 Y100.944 E9.42492
G1 X89.81 Y100.268 E9.4474
G1 X89.862 Y99.349 E9.47802
G1 X89.994 Y98.438 E9.50864
G1 X90.204 Y97.541 E9.53928
G1 X90.492 Y96.667 E9.56988
G1 X90.854 Y95.82 E9.60052
G1 X91.288 Y95.008 E9.63114
G1 X91.791 Y94.237 E9.66176
G1 X92.359 Y93.513 E9.69237
G1 X92.988 Y92.84 E9.72301
G0 F6000 X93.379 Y93.018
G1 F1200 X94.061 Y92.425 E9.75306
G1 X94.792 Y91.895 E9.7831
G1 X95.567 Y91.432 E9.81312
G1 X96.38 Y91.039 E9.84316
G1 X97.224 Y90.719 E9.87318
G1 X98.094 Y90.475 E9.90323
G1 X98.982 Y90.309 E9.93328
G1 X100.107 Y90.213 E9.97083
G1 X100.712 Y90.2 E9.99096
G1 X119.437 Y90.2 E10.61375
G1 X120.136 Y90.21 E10.63701
G1 X121.037 Y90.263 E10.66702
G1 X121.931 Y90.395 E10.69708
G1 X122.809 Y90.606 E10.72712
G1 X123.665 Y90.894 E10.75715
G1 X124.492 Y91.256 E10.78718
G1 X125.284 Y91.69 E10.81722
G1 X126.035 Y92.193 E10.84728
G1 X126.738 Y92.76 E10.87732
G1 X127.388 Y93.387 E10.90736
G1 X127.98 Y94.069 E10.9374
G1 X128.509 Y94.8 E10.96741
G1 X128.972 Y95.576 E10.99746
G1 X129.364 Y96.389 E11.02748
G1 X129.683 Y97.234 E11.05752
G1 X129.926 Y98.104 E11.08757
G1 X130.091 Y98.992 E11.11761
G1 X130.185 Y100.103 E11.15469
G1 X130.199 Y100.708 E11.17482
G1 X130.199 Y119.39 E11.79618
G1 X130.19 Y120.117 E11.82037
G1 X130.139 Y121.019 E11.85042
G1 X130.008 Y121.913 E11.88047
G1 X129.799 Y122.791 E11.91049
G1 X129.513 Y123.648 E11.94053
G1 X129.152 Y124.476 E11.97058
G1 X128.72 Y125.268 E12.00058
G1 X128.219 Y126.02 E12.03064
G1 X127.653 Y126.724 E12.06068
G1 X127.028 Y127.375 E12.0907
G1 X126.347 Y127.969 E12.12075
G1 X125.616 Y128.5 E12.1508
G1 X124.842 Y128.964 E12.18082
G1 X124.029 Y129.358 E12.21087
G1 X123.185 Y129.678 E12.24089
G1 X122.315 Y129.923 E12.27095
G1 X121.428 Y130.089 E12.30096
G1 X120.277 Y130.187 E12.33939
G1 X119.67 Y130.2 E12.35958
G1 X100.975 Y130.199 E12.98138
G1 X100.277 Y130.19 E13.0046
G1 X99.376 Y130.139 E13.03461
G1 X98.482 Y130.007 E13.06467
G1 X97.604 Y129.798 E13.09469
G1 X96.747 Y129.511 E13.12475
G1 X95.92 Y129.15 E13.15476
G1 X95.127 Y128.717 E13.18481
G1 X94.376 Y128.216 E13.21484
G1 X93.672 Y127.65 E13.24488
G1 X93.021 Y127.024 E13.27492
G1 X92.428 Y126.343 E13.30495
G1 X91.898 Y125.612 E13.33498
G1 X91.434 Y124.837 E13.36503
G1 X91.04 Y124.024 E13.39508
G1 X90.72 Y123.18 E13.4251
G1 X90.476 Y122.31 E13.45515
G1 X90.31 Y121.422 E13.4852
G1 X90.213 Y120.267 E13.52375
G1 X90.2 Y119.658 E13.54401
G1 X90.201 Y100.949 E14.16627
G1 X90.21 Y100.273 E14.18876
G1 X90.262 Y99.372 E14.21877
G1 X90.393 Y98.478 E14.24883
G1 X90.603 Y97.6 E14.27885
G1 X90.89 Y96.743 E14.30891
G1 X91.252 Y95.916 E14.33894
G1 X91.685 Y95.124 E14.36896
G1 X92.187 Y94.373 E14.399
G1 X92.753 Y93.669 E14.42905
G1 X93.379 Y93.018 E14.45909
G1 F2700 E9.45909
;MESH:four_square_cons.stl
G0 F6000 X100.813 Y99.735
G0 X100.814 Y100.814
G0 X101.4 Y119
;TYPE:WALL-INNER
G1 F2700 E14.45909
G1 F1200 X101.4 Y101.4 E15.04447
G1 X118.801 Y101.399 E15.62323
G1 X119 Y101.399 E15.62984
G1 X119 Y101.598 E15.63413
G1 X119 Y119 E16.21292
G1 X101.4 Y119 E16.7983
G0 F6000 X101 Y119.4
G1 F1200 X101 Y101 E17.41028
G1 X119.201 Y100.999 E18.01565
G1 X119.4 Y100.999 E18.02227
G1 X119.4 Y101.198 E18.02655
G1 X119.4 Y119.4 E18.63195
G1 X101 Y119.4 E19.24394
G0 F6000 X100.6 Y119.8
;TYPE:WALL-OUTER
G1 F1200 X100.6 Y100.6 E19.88254
G1 X119.8 Y100.599 E20.52113
G1 X119.8 Y119.8 E21.15976
G1 X100.6 Y119.8 E21.79835
G0 F6000 X100.87 Y119.53
G0 X101.51 Y118.61
G0 X101.79 Y118.61
;TYPE:SKIN
G1 F1200 X101.79 Y101.79 E22.35779
G1 X118.61 Y101.789 E22.91722
G1 X118.61 Y118.61 E23.47669
G1 X101.79 Y118.61 E24.03613
G0 F6000 X102.044 Y118.449
G1 F1200 X101.949 Y118.354 E24.0406
G0 F6000 X101.949 Y117.789
G1 F1200 X102.61 Y118.449 E24.07166
G0 F6000 X103.176 Y118.449
G1 F1200 X101.949 Y117.223 E24.12935
G0 F6000 X101.949 Y116.657
G1 F1200 X103.741 Y118.449 E24.21365
G0 F6000 X104.307 Y118.449
G1 F1200 X101.949 Y116.092 E24.32453
G0 F6000 X101.949 Y115.526
G1 F1200 X104.873 Y118.449 E24.46205
G0 F6000 X105.438 Y118.449
G1 F1200 X101.949 Y114.96 E24.62616
G0 F6000 X101.949 Y114.395
G1 F1200 X106.004 Y118.449 E24.81687
G0 F6000 X106.57 Y118.449
G1 F1200 X101.949 Y113.829 E25.0342
G0 F6000 X101.949 Y113.263
G1 F1200 X107.135 Y118.449 E25.27814
G0 F6000 X107.701 Y118.449
G1 F1200 X101.949 Y112.697 E25.54869
G0 F6000 X101.949 Y112.132
G1 F1200 X108.267 Y118.449 E25.84585
G0 F6000 X108.832 Y118.449
G1 F1200 X101.949 Y111.566 E26.16961
G0 F6000 X101.949 Y111
G1 F1200 X109.398 Y118.449 E26.51998
G0 F6000 X109.964 Y118.449
G1 F1200 X101.949 Y110.435 E26.89696
G0 F6000 X101.949 Y109.869
G1 F1200 X110.529 Y118.449 E27.30054
G0 F6000 X111.095 Y118.449
G1 F1200 X101.949 Y109.303 E27.73074
G0 F6000 X101.949 Y108.738
G1 F1200 X111.661 Y118.449 E28.18754
G0 F6000 X112.227 Y118.449
G1 F1200 X101.949 Y108.172 E28.67096
G0 F6000 X101.949 Y107.606
G1 F1200 X112.792 Y118.449 E29.18098
G0 F6000 X113.358 Y118.449
G1 F1200 X101.949 Y107.041 E29.7176
G0 F6000 X101.949 Y106.475
G1 F1200 X113.924 Y118.449 E30.28085
G0 F6000 X114.489 Y118.449
G1 F1200 X101.949 Y105.909 E30.87069
G0 F6000 X101.949 Y105.344
G1 F1200 X115.055 Y118.449 E31.48713
G0 F6000 X115.621 Y118.449
G1 F1200 X101.949 Y104.778 E32.1302
G0 F6000 X101.949 Y104.212
G1 F1200 X116.186 Y118.449 E32.79986
G0 F6000 X116.752 Y118.449
G1 F1200 X101.949 Y103.647 E33.49613
G0 F6000 X101.949 Y103.081
G1 F1200 X117.318 Y118.449 E34.21901
G0 F6000 X117.883 Y118.449
G1 F1200 X101.949 Y102.515 E34.9685
G0 F6000 X101.949 Y101.949
G1 F1200 X118.449 Y118.449 E35.74461
G0 F6000 X118.449 Y117.883
G1 F1200 X102.515 Y101.949 E36.49409
G0 F6000 X103.081 Y101.949
G1 F1200 X118.449 Y117.318 E37.21698
G0 F6000 X118.449 Y116.752
G1 F1200 X103.647 Y101.949 E37.91325
G0 F6000 X104.212 Y101.949
G1 F1200 X118.449 Y116.186 E38.58291
G0 F6000 X118.449 Y115.621
G1 F1200 X104.778 Y101.949 E39.22598
G0 F6000 X105.344 Y101.949
G1 F1200 X118.449 Y115.055 E39.84242
G0 F6000 X118.449 Y114.489
G1 F1200 X105.909 Y101.949 E40.43226
G0 F6000 X106.475 Y101.949
G1 F1200 X118.449 Y113.924 E40.99551
G0 F6000 X118.449 Y113.358
G1 F1200 X107.041 Y101.949 E41.53213
G0 F6000 X107.606 Y101.949
G1 F1200 X118.449 Y112.792 E42.04215
G0 F6000 X118.449 Y112.227
G1 F1200 X108.172 Y101.949 E42.52557
G0 F6000 X108.738 Y101.949
G1 F1200 X118.449 Y111.661 E42.98237
G0 F6000 X118.449 Y111.095
G1 F1200 X109.303 Y101.949 E43.41257
G0 F6000 X109.869 Y101.949
G1 F1200 X118.449 Y110.529 E43.81615
G0 F6000 X118.449 Y109.964
G1 F1200 X110.435 Y101.949 E44.19312
G0 F6000 X111 Y101.949
G1 F1200 X118.449 Y109.398 E44.5435
G0 F6000 X118.449 Y108.832
G1 F1200 X111.566 Y101.949 E44.86726
G0 F6000 X112.132 Y101.949
G1 F1200 X118.449 Y108.267 E45.16441
G0 F6000 X118.449 Y107.701
G1 F1200 X112.697 Y101.949 E45.43497
G0 F6000 X113.263 Y101.949
G1 F1200 X118.449 Y107.135 E45.6789
G0 F6000 X118.449 Y106.57
G1 F1200 X113.829 Y101.949 E45.89624
G0 F6000 X114.395 Y101.949
G1 F1200 X118.449 Y106.004 E46.08695
G0 F6000 X118.449 Y105.438
G1 F1200 X114.96 Y101.949 E46.25106
G0 F6000 X115.526 Y101.949
G1 F1200 X118.449 Y104.873 E46.38857
G0 F6000 X118.449 Y104.307
G1 F1200 X116.092 Y101.949 E46.49946
G0 F6000 X116.657 Y101.949
G1 F1200 X118.449 Y103.741 E46.58375
G0 F6000 X118.449 Y103.176
G1 F1200 X117.223 Y101.949 E46.64144
G0 F6000 X117.789 Y101.949
G1 F1200 X118.449 Y102.61 E46.67251
G0 F6000 X118.449 Y102.044
G1 F1200 X118.354 Y101.949 E46.67698
M104 S200
G0 F6000 X118.354 Y101.209
G1 F2700 E41.67698
;MESH:NONMESH
G0 F300 X118.354 Y101.209 Z0.4
G0 F6000 X101.582 Y101.582
G0 X101.2 Y119
;TIME_ELAPSED:81.292746
;LAYER:1
M140 S50
M106 S85
;TYPE:WALL-INNER
;MESH:four_square_cons.stl
G1 F2700 E46.67698
G1 F1800 X101.2 Y101.2 E47.26901
G1 X118.801 Y101.199 E47.85442
G1 X119 Y101.199 E47.86104
G1 X119 Y101.398 E47.86532
G1 X119 Y119 E48.45077
G1 X101.2 Y119 E49.0428
G0 F9000 X100.8 Y119.4
G1 F1800 X100.8 Y100.8 E49.66144
G1 X119.201 Y100.799 E50.27346
G1 X119.4 Y100.799 E50.28008
G1 X119.4 Y100.998 E50.28436
G1 X119.4 Y119.4 E50.89641
G1 X100.8 Y119.4 E51.51505
G0 F9000 X100.4 Y119.8
;TYPE:WALL-OUTER
G1 F1800 X100.4 Y100.4 E52.1603
G1 X119.8 Y100.399 E52.80554
G1 X119.8 Y119.8 E53.45082
G1 X100.4 Y119.8 E54.09607
G0 F9000 X100.67 Y119.53
G0 X101.31 Y118.61
G0 X101.59 Y118.61
;TYPE:SKIN
G1 F1800 X101.59 Y101.59 E54.66216
G1 X118.61 Y101.589 E55.22824
G1 X118.61 Y118.61 E55.79436
G1 X101.59 Y118.61 E56.36045
G0 F9000 X101.31 Y118.61
G0 X101.31 Y101.896
G0 X101.749 Y101.896
G1 F1800 X101.897 Y101.749 E56.36739
G0 F9000 X102.463 Y101.749
G1 F1800 X101.749 Y102.462 E56.40095
G0 F9000 X101.749 Y103.028
G1 F1800 X103.028 Y101.749 E56.46111
G0 F9000 X103.594 Y101.749
G1 F1800 X101.749 Y103.593 E56.54787
G0 F9000 X101.749 Y104.159
G1 F1800 X104.16 Y101.749 E56.66125
G0 F9000 X104.726 Y101.749
G1 F1800 X101.749 Y104.725 E56.80126
G0 F9000 X101.749 Y105.291
G1 F1800 X105.291 Y101.749 E56.96786
G0 F9000 X105.857 Y101.749
G1 F1800 X101.749 Y105.856 E57.16107
G0 F9000 X101.749 Y106.422
G1 F1800 X106.423 Y101.749 E57.38089
G0 F9000 X106.988 Y101.749
G1 F1800 X101.749 Y106.988 E57.62732
G0 F9000 X101.749 Y107.553
G1 F1800 X107.554 Y101.749 E57.90035
G0 F9000 X108.12 Y101.749
G1 F1800 X101.749 Y108.119 E58.2
G0 F9000 X101.749 Y108.685
G1 F1800 X108.685 Y101.749 E58.52624
G0 F9000 X109.251 Y101.749
G1 F1800 X101.749 Y109.25 E58.87909
G0 F9000 X101.749 Y109.816
G1 F1800 X109.817 Y101.749 E59.25856
G0 F9000 X110.382 Y101.749
G1 F1800 X101.749 Y110.382 E59.66463
G0 F9000 X101.749 Y110.947
G1 F1800 X110.948 Y101.749 E60.0973
G0 F9000 X111.514 Y101.749
G1 F1800 X101.749 Y111.513 E60.55659
G0 F9000 X101.749 Y112.079
G1 F1800 X112.079 Y101.749 E61.04248
G0 F9000 X112.645 Y101.749
G1 F1800 X101.749 Y112.644 E61.55498
G0 F9000 X101.749 Y113.21
G1 F1800 X113.211 Y101.749 E62.09409
G0 F9000 X113.777 Y101.749
G1 F1800 X101.749 Y113.776 E62.65983
G0 F9000 X101.749 Y114.341
G1 F1800 X114.342 Y101.749 E63.25214
G0 F9000 X114.908 Y101.749
G1 F1800 X101.749 Y114.907 E63.87107
G0 F9000 X101.749 Y115.473
G1 F1800 X115.474 Y101.749 E64.51663
G0 F9000 X116.039 Y101.749
G1 F1800 X101.749 Y116.039 E65.18879
G0 F9000 X101.749 Y116.604
G1 F1800 X116.605 Y101.749 E65.88755
G0 F9000 X117.171 Y101.749
G1 F1800 X101.749 Y117.17 E66.61293
G0 F9000 X101.749 Y117.736
G1 F1800 X117.736 Y101.749 E67.36491
G0 F9000 X118.302 Y101.749
G1 F1800 X101.749 Y118.301 E68.14349
G0 F9000 X102.167 Y118.449
G1 F1800 X118.449 Y102.167 E68.90934
G0 F9000 X118.449 Y102.733
