;FLAVOR:Marlin
;TIME:6890
;Filament used: 11.4628m
;Layer height: 0.32
;MINX:3.328
;MINY:1.969
;MINZ:0.35
;MAXX:217.073
;MAXY:218.887
;MAXZ:6.75
;Generated with Cura_SteamEngine 4.5.0
M82 ;absolute extrusion mode
M201 X500.00 Y500.00 Z100.00 E5000.00 ;Setup machine max acceleration
M203 X500.00 Y500.00 Z10.00 E50.00 ;Setup machine max feedrate
M204 P500.00 R1000.00 T500.00 ;Setup Print/Retract/Travel acceleration
M205 X8.00 Y8.00 Z0.40 E5.00 ;Setup Jerk
M220 S100 ;Reset Feedrate
M221 S100 ;Reset Flowrate

M140 S50; start preheating the bed
M104 S220 T0; start preheating hotend
G28 ;Home
G1 Z2.0 F3000 ;Move Z Axis up
M190 S50; heat to bed setting in Cura and WAIT
M109 S220 T0; heat hotend to setting in Cura and WAIT


G92 E0 ;Reset Extruder
G1 Z2.0 F3000 ;Move Z Axis up
G1 X218 Y20 Z0.28 F5000.0 ;Move to start position
G1 X218 Y200.0 Z0.28 F1500.0 E15 ;Draw the first line
G1 X218 Y200.0 Z0.28 F5000.0 ;Move to side a little
G1 X218 Y15 Z0.28 F1500.0 E30 ;Draw the second line
G92 E0 ;Reset Extruder
G1 Z2.0 F3000 ;Move Z Axis up
G92 E0
G92 E0
G1 F3000 E-6.5
;LAYER_COUNT:21
;LAYER:0
M107
M204 S500
;MESH:CE5_Wonder_Woman_FASTR.3mf(6)
G0 F9000 X52.015 Y38.734 Z0.35
;TYPE:WALL-INNER
G1 F2700 E0
G1 F3000 X68.164 Y38.734 E1.17495
G1 X68.166 Y38.734 E1.17509
G1 X68.645 Y38.734 E1.20994
G1 X68.368 Y39.126 E1.22935
G1 X67.483 Y40.379 E1.34096
G1 X49.794 Y40.379 E2.62795
G1 X49.663 Y40.558 E2.64409
G1 X49.596 Y40.567 E2.64901
G1 X44.816 Y41.194 E2.99977
G1 X45.187 Y44.031 E3.20793
G1 X46.605 Y44.053 E3.31112
G1 X47.23 Y44.254 E3.35888
G1 X47.77 Y44.627 E3.40663
G1 X48.181 Y45.145 E3.45474
G1 X48.422 Y45.755 E3.50246
G1 X48.476 Y46.408 E3.55013
G1 X48.336 Y47.053 E3.59815
G1 X48.018 Y47.627 E3.6459
G1 X47.544 Y48.086 E3.6939
G1 X46.962 Y48.384 E3.74148
G1 X46.312 Y48.503 E3.78955
G1 X45.66 Y48.427 E3.83731
G1 X45.059 Y48.167 E3.88495
G1 X44.556 Y47.74 E3.93296
G1 X44.197 Y47.186 E3.98099
G1 X44.004 Y46.508 E4.03228
G1 X43.329 Y41.39 E4.40787
G1 X32.908 Y42.758 E5.17257
G1 X33.28 Y45.6 E5.38111
G1 X34.698 Y45.622 E5.48429
G1 X35.323 Y45.823 E5.53206
G1 X35.863 Y46.196 E5.57981
G1 X36.273 Y46.713 E5.62782
G1 X36.515 Y47.324 E5.67563
G1 X36.569 Y47.977 E5.7233
G1 X36.429 Y48.622 E5.77132
G1 X36.111 Y49.196 E5.81907
G1 X35.637 Y49.655 E5.86707
G1 X35.055 Y49.953 E5.91464
G1 X34.405 Y50.072 E5.96272
G1 X33.753 Y49.996 E6.01048
G1 X33.153 Y49.736 E6.05806
G1 X32.645 Y49.307 E6.10643
G1 X32.293 Y48.76 E6.15376
G1 X32.097 Y48.073 E6.20574
G1 X31.421 Y42.953 E6.58148
G1 X21.245 Y44.288 E7.3282
G1 X20.999 Y44.32 E7.34625
G1 X21.031 Y44.566 E7.35793
G1 X21.375 Y47.169 E7.54896
G1 X22.791 Y47.191 E7.652
G1 X23.416 Y47.392 E7.69976
G1 X23.956 Y47.765 E7.74751
G1 X24.366 Y48.282 E7.79552
G1 X24.608 Y48.893 E7.84333
G1 X24.662 Y49.546 E7.89101
G1 X24.522 Y50.191 E7.93903
G1 X24.204 Y50.765 E7.98677
G1 X23.73 Y51.224 E8.03478
G1 X23.148 Y51.522 E8.08235
G1 X22.498 Y51.641 E8.13043
G1 X21.846 Y51.565 E8.17818
G1 X21.246 Y51.305 E8.22576
G1 X20.743 Y50.878 E8.27377
G1 X20.384 Y50.324 E8.3218
G1 X20.19 Y49.645 E8.37317
G1 X19.513 Y44.516 E8.74958
G1 X9.337 Y45.851 E9.49629
G1 X9.091 Y45.883 E9.51434
G1 X9.123 Y46.129 E9.52602
G1 X9.468 Y48.738 E9.7175
G1 X10.884 Y48.76 E9.82053
G1 X11.509 Y48.961 E9.8683
G1 X12.049 Y49.334 E9.91605
G1 X12.459 Y49.851 E9.96406
G1 X12.701 Y50.462 E10.01187
G1 X12.755 Y51.115 E10.05954
G1 X12.615 Y51.761 E10.10764
G1 X12.298 Y52.333 E10.15522
G1 X11.823 Y52.793 E10.20333
G1 X11.241 Y53.091 E10.2509
G1 X10.591 Y53.21 E10.29898
G1 X9.939 Y53.134 E10.34673
G1 X9.339 Y52.874 E10.39431
G1 X8.836 Y52.447 E10.44232
G1 X8.477 Y51.893 E10.49035
G1 X8.283 Y51.214 E10.54172
G1 X5.55 Y30.471 E12.06396
G1 X5.561 Y29.757 E12.11591
G1 X5.762 Y29.132 E12.16368
G1 X6.135 Y28.593 E12.21137
G1 X6.654 Y28.181 E12.25958
G1 X7.264 Y27.94 E12.3073
G1 X7.918 Y27.886 E12.35504
G1 X8.563 Y28.026 E12.40306
G1 X9.136 Y28.344 E12.45074
G1 X9.595 Y28.818 E12.49875
G1 X9.895 Y29.403 E12.54658
G1 X10.014 Y30.051 E12.59452
G1 X9.938 Y30.704 E12.64235
G1 X9.678 Y31.305 E12.68999
G1 X9.248 Y31.811 E12.7383
G1 X8.699 Y32.165 E12.78583
G1 X7.336 Y32.555 E12.88898
G1 X7.67 Y35.066 E13.07328
G1 X17.843 Y33.73 E13.81979
G1 X18.089 Y33.698 E13.83783
G1 X18.057 Y33.452 E13.84952
G1 X17.457 Y28.902 E14.18342
G1 X17.468 Y28.188 E14.23538
G1 X17.669 Y27.563 E14.28314
G1 X18.042 Y27.024 E14.33083
G1 X18.561 Y26.612 E14.37905
G1 X19.171 Y26.371 E14.42677
G1 X19.825 Y26.317 E14.47451
G1 X20.47 Y26.457 E14.52253
G1 X21.043 Y26.775 E14.57021
G1 X21.502 Y27.249 E14.61822
G1 X21.802 Y27.834 E14.66605
G1 X21.921 Y28.482 E14.71398
G1 X21.846 Y29.134 E14.76174
G1 X21.583 Y29.739 E14.80973
G1 X21.157 Y30.241 E14.85763
G1 X20.606 Y30.596 E14.90532
G1 X19.243 Y30.986 E15.00847
G1 X19.578 Y33.502 E15.19314
G1 X29.749 Y32.166 E15.9395
G1 X29.995 Y32.134 E15.95755
G1 X29.963 Y31.888 E15.96923
G1 X29.364 Y27.333 E16.30349
G1 X29.375 Y26.619 E16.35545
G1 X29.576 Y25.994 E16.40321
G1 X29.949 Y25.455 E16.4509
G1 X30.468 Y25.043 E16.49912
G1 X31.078 Y24.802 E16.54684
G1 X31.732 Y24.748 E16.59458
G1 X32.377 Y24.888 E16.6426
G1 X32.95 Y25.206 E16.69028
G1 X33.41 Y25.681 E16.73839
G1 X33.708 Y26.263 E16.78596
G1 X33.828 Y26.914 E16.83412
G1 X33.753 Y27.565 E16.8818
G1 X33.49 Y28.17 E16.9298
G1 X33.064 Y28.672 E16.9777
G1 X32.513 Y29.027 E17.02539
G1 X31.149 Y29.417 E17.12861
G1 X31.485 Y31.938 E17.31365
G1 X41.658 Y30.602 E18.06016
G1 X41.904 Y30.57 E18.07821
G1 X41.872 Y30.324 E18.08989
G1 X41.271 Y25.764 E18.42453
G1 X41.282 Y25.05 E18.47648
G1 X41.483 Y24.425 E18.52425
G1 X41.856 Y23.885 E18.572
G1 X42.374 Y23.474 E18.62011
G1 X42.985 Y23.233 E18.66789
G1 X43.639 Y23.179 E18.71564
G1 X44.284 Y23.319 E18.76366
G1 X44.857 Y23.637 E18.81134
G1 X45.317 Y24.112 E18.85945
G1 X45.615 Y24.694 E18.90702
G1 X45.735 Y25.345 E18.95518
G1 X45.66 Y25.996 E19.00286
G1 X45.397 Y26.601 E19.05086
G1 X44.971 Y27.103 E19.09876
G1 X44.42 Y27.458 E19.14645
G1 X43.056 Y27.848 E19.24966
G1 X43.393 Y30.373 E19.435
G1 X45.308 Y30.124 E19.57551
G1 X59.4 Y30.108 E20.60079
G1 X66.272 Y30.108 E21.10077
G1 X77.929 Y12.521 E22.6359
G1 X78.136 Y12.208 E22.6632
G1 X78.343 Y12.521 E22.67911
G1 X85.58 Y23.439 E23.63213
G1 X85.787 Y23.752 E23.65943
G1 X85.994 Y23.439 E23.67534
G1 X93.23 Y12.521 E24.62832
G1 X93.437 Y12.208 E24.65562
G1 X93.644 Y12.521 E24.67153
G1 X105.302 Y30.108 E26.2067
G1 X126.153 Y30.108 E27.72374
G1 X127.325 Y30.261 E27.80974
G1 X127.939 Y30.345 E27.85482
G1 X128.186 Y30.378 E27.87296
G1 X128.218 Y30.131 E27.88465
G1 X128.52 Y27.848 E28.0522
G1 X127.157 Y27.458 E28.15535
G1 X126.606 Y27.103 E28.20304
G1 X126.18 Y26.601 E28.25094
G1 X125.919 Y25.997 E28.29881
G1 X125.843 Y25.344 E28.34665
G1 X125.962 Y24.694 E28.39472
G1 X126.26 Y24.112 E28.4423
G1 X126.72 Y23.637 E28.4904
G1 X127.293 Y23.319 E28.53808
G1 X127.938 Y23.179 E28.5861
G1 X128.592 Y23.233 E28.63385
G1 X129.203 Y23.474 E28.68164
G1 X129.721 Y23.885 E28.72975
G1 X130.094 Y24.425 E28.7775
G1 X130.295 Y25.051 E28.82533
G1 X130.307 Y25.764 E28.87722
G1 X129.705 Y30.324 E29.21186
G1 X129.673 Y30.57 E29.22991
G1 X129.919 Y30.602 E29.24159
G1 X140.094 Y31.938 E29.98825
G1 X140.427 Y29.417 E30.17326
G1 X139.064 Y29.027 E30.2764
G1 X138.513 Y28.672 E30.32409
G1 X138.087 Y28.17 E30.372
G1 X137.826 Y27.566 E30.41987
G1 X137.75 Y26.913 E30.4677
G1 X137.869 Y26.263 E30.51578
G1 X138.167 Y25.681 E30.56335
G1 X138.627 Y25.206 E30.61146
G1 X139.2 Y24.888 E30.65914
G1 X139.845 Y24.748 E30.70716
G1 X140.499 Y24.802 E30.7549
G1 X141.11 Y25.043 E30.80269
G1 X141.628 Y25.454 E30.8508
G1 X142.001 Y25.994 E30.89855
G1 X142.202 Y26.62 E30.94639
G1 X142.214 Y27.333 E30.99827
G1 X141.613 Y31.888 E31.33255
G1 X141.581 Y32.134 E31.3506
G1 X141.827 Y32.166 E31.36228
G1 X152.002 Y33.502 E32.10893
G1 X152.334 Y30.986 E32.29357
G1 X150.971 Y30.596 E32.39672
G1 X150.42 Y30.241 E32.44441
G1 X149.994 Y29.739 E32.49231
G1 X149.733 Y29.135 E32.54018
G1 X149.657 Y28.482 E32.58801
G1 X149.776 Y27.832 E32.63609
G1 X150.074 Y27.25 E32.68366
G1 X150.534 Y26.775 E32.73177
G1 X151.107 Y26.457 E32.77945
G1 X151.752 Y26.317 E32.82747
G1 X152.406 Y26.371 E32.87522
G1 X153.017 Y26.612 E32.923
G1 X153.535 Y27.023 E32.97111
G1 X153.908 Y27.563 E33.01886
G1 X154.109 Y28.189 E33.0667
G1 X154.121 Y28.902 E33.11858
G1 X153.521 Y33.452 E33.45249
G1 X153.489 Y33.698 E33.47054
G1 X153.735 Y33.73 E33.48222
G1 X163.909 Y35.066 E34.2288
G1 X164.241 Y32.555 E34.41308
G1 X162.878 Y32.165 E34.51623
G1 X162.327 Y31.81 E34.56392
G1 X161.901 Y31.308 E34.61182
G1 X161.638 Y30.703 E34.65982
G1 X161.563 Y30.052 E34.70749
G1 X161.683 Y29.401 E34.75566
G1 X161.981 Y28.819 E34.80323
G1 X162.441 Y28.344 E34.85134
G1 X163.014 Y28.026 E34.89902
G1 X163.659 Y27.886 E34.94704
G1 X164.313 Y27.94 E34.99478
G1 X164.923 Y28.181 E35.0425
G1 X165.442 Y28.593 E35.09071
G1 X165.815 Y29.132 E35.1384
G1 X166.016 Y29.757 E35.18617
G1 X166.027 Y30.471 E35.23813
G1 X163.294 Y51.216 E36.7605
G1 X163.1 Y51.894 E36.81181
G1 X162.743 Y52.448 E36.85976
G1 X162.241 Y52.873 E36.90762
G1 X161.638 Y53.134 E36.95542
G1 X160.986 Y53.21 E37.00318
G1 X160.336 Y53.091 E37.05126
G1 X159.754 Y52.793 E37.09883
G1 X159.279 Y52.333 E37.14694
G1 X158.962 Y51.761 E37.19452
G1 X158.822 Y51.115 E37.24261
G1 X158.876 Y50.462 E37.29028
G1 X159.118 Y49.851 E37.3381
G1 X159.528 Y49.334 E37.38611
G1 X160.068 Y48.961 E37.43386
G1 X160.693 Y48.76 E37.48162
G1 X162.11 Y48.738 E37.58473
G1 X162.455 Y46.129 E37.77621
G1 X162.487 Y45.883 E37.79425
G1 X162.241 Y45.851 E37.80593
G1 X152.064 Y44.516 E38.55272
G1 X151.387 Y49.647 E38.92927
G1 X151.193 Y50.325 E38.98058
G1 X150.837 Y50.877 E39.02837
G1 X150.332 Y51.305 E39.07653
G1 X149.731 Y51.565 E39.12418
G1 X149.079 Y51.641 E39.17193
G1 X148.429 Y51.522 E39.22001
G1 X147.847 Y51.224 E39.26758
G1 X147.373 Y50.765 E39.31559
G1 X147.055 Y50.191 E39.36333
G1 X146.915 Y49.546 E39.41135
G1 X146.969 Y48.893 E39.45903
G1 X147.211 Y48.282 E39.50684
G1 X147.621 Y47.765 E39.55485
G1 X148.161 Y47.392 E39.6026
G1 X148.786 Y47.191 E39.65036
G1 X150.203 Y47.169 E39.75347
G1 X150.548 Y44.566 E39.94451
G1 X150.58 Y44.32 E39.96256
G1 X150.334 Y44.288 E39.97424
G1 X140.156 Y42.953 E40.7211
G1 X139.48 Y48.078 E41.09721
G1 X139.286 Y48.756 E41.14852
G1 X138.93 Y49.308 E41.19631
G1 X138.425 Y49.736 E41.24447
G1 X137.824 Y49.996 E41.29211
G1 X137.172 Y50.072 E41.33987
G1 X136.522 Y49.953 E41.38795
G1 X135.941 Y49.655 E41.43546
G1 X135.467 Y49.197 E41.48341
G1 X135.147 Y48.619 E41.53148
G1 X135.008 Y47.977 E41.57927
G1 X135.062 Y47.324 E41.62694
G1 X135.304 Y46.713 E41.67476
G1 X135.714 Y46.196 E41.72277
G1 X136.254 Y45.823 E41.77052
G1 X136.879 Y45.622 E41.81828
G1 X138.296 Y45.6 E41.92139
G1 X138.64 Y43.004 E42.11192
G1 X138.672 Y42.758 E42.12997
G1 X138.426 Y42.726 E42.14165
G1 X128.248 Y41.39 E42.88852
G1 X127.573 Y46.508 E43.26411
G1 X127.38 Y47.186 E43.3154
G1 X127.021 Y47.74 E43.36343
G1 X126.518 Y48.167 E43.41143
G1 X125.917 Y48.427 E43.45908
G1 X125.265 Y48.503 E43.50683
G1 X124.615 Y48.384 E43.55491
G1 X124.034 Y48.086 E43.60242
G1 X123.56 Y47.628 E43.65038
G1 X123.24 Y47.05 E43.69844
G1 X123.101 Y46.408 E43.74624
G1 X123.156 Y45.757 E43.79377
G1 X123.398 Y45.144 E43.84172
G1 X123.808 Y44.627 E43.88973
G1 X124.347 Y44.254 E43.93742
G1 X124.972 Y44.053 E43.98518
G1 X126.389 Y44.031 E44.08829
G1 X126.734 Y41.441 E44.2784
G1 X126.766 Y41.195 E44.29644
G1 X126.52 Y41.163 E44.30812
G1 X121.617 Y40.52 E44.6679
G1 X121.514 Y40.379 E44.68061
G1 X103.998 Y40.379 E45.95501
G1 X103.113 Y39.126 E46.06662
G1 X102.836 Y38.734 E46.10155
G1 X103.315 Y38.734 E46.12092
G1 X103.317 Y38.734 E46.12106
G1 X119.294 Y38.734 E47.28349
G1 X119.711 Y37.913 E47.35049
G1 X118.372 Y36.081 E47.51559
G1 X101.709 Y36.081 E48.72793
G1 X101.58 Y36.328 E48.7482
G1 X101.392 Y36.692 E48.77801
G1 X101.156 Y36.357 E48.79507
G1 X100.961 Y36.081 E48.81966
G1 X98.66 Y36.081 E48.98707
G1 X93.634 Y29.234 E49.60504
G1 X93.434 Y28.961 E49.62966
G1 X93.234 Y29.234 E49.64434
G1 X87.186 Y37.47 E50.38777
G1 X88.819 Y39.752 E50.59194
G1 X88.353 Y40.218 E50.63988
G1 X85.882 Y40.218 E50.81967
G1 X77.82 Y29.234 E51.81098
G1 X77.62 Y28.961 E51.83561
G1 X77.42 Y29.234 E51.85028
G1 X72.393 Y36.079 E52.46818
G1 X70.521 Y36.079 E52.60438
G1 X70.326 Y36.354 E52.62891
G1 X70.09 Y36.689 E52.65872
G1 X69.902 Y36.325 E52.67577
G1 X69.774 Y36.079 E52.69595
G1 X52.938 Y36.079 E53.92088
G1 X51.598 Y37.913 E54.08614
G1 X51.851 Y38.41 E54.12671
G0 F2700 X52.015 Y38.734
G0 F9000 X52.322 Y38.234
;TYPE:WALL-OUTER
G1 F3000 X68.631 Y38.234 E55.3133
G1 X69.61 Y36.849 E55.4367
G1 X69.47 Y36.579 E55.45883
G1 X53.192 Y36.579 E56.64316
G1 X52.216 Y37.914 E56.76348
G0 F2700 X52.183 Y37.96
G0 X52.322 Y38.234
G0 F9000 X52.522 Y38.234
G0 X52.522 Y38.784
G1 F3000 E50.26348
G0 F9000 X118.987 Y38.234
G1 F2700 E56.76348
G1 F3000 X119.126 Y37.96 E56.78583
G1 X118.118 Y36.581 E56.91011
G1 X102.013 Y36.581 E58.08185
G1 X101.873 Y36.851 E58.10398
G1 X102.849 Y38.234 E58.22714
G1 X118.623 Y38.234 E59.3748
G0 F2700 X118.987 Y38.234
G0 F9000 X119.077 Y38.056
G0 X119.567 Y38.306
G1 F3000 E52.8748
G0 F9000 X93.945 Y24.11
;TYPE:WALL-INNER
G1 F2700 E59.3748
G1 F3000 X94.147 Y24.392 E59.40004
G1 X101.401 Y34.524 E60.30666
G1 X116.216 Y34.524 E61.38455
G1 X116.633 Y33.703 E61.45155
G1 X115.333 Y31.925 E61.6118
G1 X102.961 Y31.925 E62.51194
G1 X94.157 Y19.319 E63.63065
G1 X93.953 Y19.027 E63.65656
G1 X93.749 Y19.319 E63.67185
G1 X85.995 Y30.422 E64.65716
G1 X85.791 Y30.714 E64.68308
G1 X85.587 Y30.422 E64.69836
G1 X77.833 Y19.318 E65.68373
G1 X77.629 Y19.026 E65.70965
G1 X77.425 Y19.318 E65.72494
G1 X68.62 Y31.925 E66.84374
G1 X55.975 Y31.925 E67.76375
G1 X55.018 Y33.235 E67.88178
G1 X54.676 Y33.703 E67.92396
G1 X55.093 Y34.524 E67.99095
G1 X70.163 Y34.524 E69.0874
G1 X77.42 Y24.392 E69.99415
G1 X77.622 Y24.11 E70.01938
G1 X77.824 Y24.391 E70.03432
G1 X78.306 Y25.061 E70.09437
G1 X85.582 Y35.226 E71.00388
G1 X85.784 Y35.508 E71.02912
G1 X85.986 Y35.226 E71.04407
G1 X93.743 Y24.392 E72.01353
G1 X93.945 Y24.11 E72.02848
G0 F9000 X93.945 Y23.251
;TYPE:WALL-OUTER
G1 F3000 X101.658 Y34.024 E72.99246
G1 X115.909 Y34.024 E74.02932
G1 X116.048 Y33.75 E74.05167
G1 X115.079 Y32.425 E74.1711
G1 X102.7 Y32.425 E75.07175
G1 X93.953 Y19.9 E76.18325
G1 X91.936 Y22.789 E76.43961
G1 X93.098 Y24.434 E76.58614
G1 X93.733 Y23.547 E76.66551
G0 F2700 X93.945 Y23.251
G0 F9000 X94.061 Y23.413
G1 F3000 E70.16551
G0 F9000 X85.791 Y31.587
G1 F2700 E76.66551
G1 F3000 X80.082 Y23.414 E77.39085
G1 X78.919 Y25.061 E77.53755
G1 X85.784 Y34.649 E78.39551
G1 X87.743 Y31.913 E78.64034
G1 X92.606 Y25.122 E79.24805
G1 X91.449 Y23.485 E79.3939
G1 X85.999 Y31.289 E80.08644
G0 F2700 X85.791 Y31.587
G0 F9000 X85.677 Y31.424
G1 F3000 E73.58644
G0 F9000 X77.621 Y23.253
G1 F2700 E80.08644
G1 F3000 X78.427 Y24.373 E80.18684
G1 X79.595 Y22.718 E80.33422
G1 X77.629 Y19.9 E80.58421
G1 X68.881 Y32.425 E81.69575
G1 X56.229 Y32.425 E82.61627
G1 X55.422 Y33.53 E82.71582
G1 X55.261 Y33.75 E82.73565
G1 X55.4 Y34.024 E82.75801
G1 X69.906 Y34.024 E83.81341
G1 X77.41 Y23.548 E84.75098
G0 F2700 X77.621 Y23.253
G0 F9000 X77.737 Y23.415
G1 F3000 E78.25098
G0 F9000 X78.136 Y11.303
G1 F2700 E84.75098
G1 F3000 X82.746 Y18.26 E85.35819
G1 X83.758 Y16.827 E85.48582
G1 X84.257 Y17.507 E85.54719
G1 X83.219 Y18.973 E85.67788
G1 X85.787 Y22.847 E86.01604
G1 X88.309 Y19.04 E86.34829
G1 X87.198 Y17.469 E86.48829
G1 X87.697 Y16.79 E86.54959
G1 X88.783 Y18.326 E86.68646
G1 X93.437 Y11.303 E87.29944
G1 X105.57 Y29.608 E88.89724
G1 X126.187 Y29.608 E90.39726
G1 X127.39 Y29.765 E90.48553
G1 X127.756 Y29.815 E90.51241
G1 X127.968 Y28.21 E90.6302
G1 X126.949 Y27.919 E90.7073
G1 X126.274 Y27.484 E90.76572
G1 X125.749 Y26.865 E90.82478
G1 X125.43 Y26.128 E90.88321
G1 X125.337 Y25.328 E90.9418
G1 X125.483 Y24.532 E91.00068
G1 X125.849 Y23.818 E91.05906
G1 X126.411 Y23.237 E91.11787
G1 X127.118 Y22.845 E91.17669
G1 X127.903 Y22.675 E91.23513
G1 X128.708 Y22.741 E91.29389
G1 X129.457 Y23.037 E91.35249
G1 X130.088 Y23.538 E91.41111
G1 X130.548 Y24.203 E91.46994
G1 X130.794 Y24.969 E91.52847
G1 X130.808 Y25.794 E91.58851
G1 X130.234 Y30.139 E91.90738
G1 X139.664 Y31.377 E92.59936
