;FLAVOR:Marlin
;TIME:7574
;Filament used: 11.3561m
;Layer height: 0.32
;MINX:2.416
;MINY:1.393
;MINZ:0.32
;MAXX:218.613
;MAXY:219.793
;MAXZ:6.72
;Generated with Cura_SteamEngine 4.6.0
M82 ;absolute extrusion mode
M201 X500.00 Y500.00 Z100.00 E5000.00 ;Setup machine max acceleration
M203 X500.00 Y500.00 Z10.00 E50.00 ;Setup machine max feedrate
M204 P500.00 R1000.00 T500.00 ;Setup Print/Retract/Travel acceleration
M205 X8.00 Y8.00 Z0.40 E5.00 ;Setup Jerk
M220 S100 ;Reset Feedrate
M221 S100 ;Reset Flowrate

M140 S50; start preheating the bed
M104 S220 T0; start preheating hotend
G28 ;Home
G1 Z2.0 F3000 ;Move Z Axis up
M190 S50; heat to bed setting in Cura and WAIT
M109 S220 T0; heat hotend to setting in Cura and WAIT


G92 E0 ;Reset Extruder
G1 Z2.0 F3000 ;Move Z Axis up
G1 X210 Y20 Z0.28 F5000.0 ;Move to start position
G1 X210 Y200.0 Z0.28 F1500.0 E15 ;Draw the first line
G1 X210 Y200.0 Z0.28 F5000.0 ;Move to side a little
G1 X210 Y20 Z0.28 F1500.0 E30 ;Draw the second line
G92 E0 ;Reset Extruder
G1 Z2.0 F3000 ;Move Z Axis up
G92 E0
G92 E0
G1 F3000 E-6.5
;LAYER_COUNT:21
;LAYER:0
M107
M204 S500
;MESH:CE5_Wonder_Woman.3mf(7)
G0 F9000 X52.013 Y40.221 Z0.32
;TYPE:WALL-INNER
G1 F2700 E0
G1 X68.165 Y40.221 E1.07444
G1 X68.167 Y40.221 E1.07457
G1 X68.646 Y40.221 E1.10643
G1 X68.369 Y40.613 E1.12418
G1 X67.483 Y41.867 E1.22632
G1 X49.794 Y41.867 E2.40299
G1 X49.663 Y42.047 E2.4178
G1 X45.061 Y42.651 E2.72655
G1 X44.815 Y42.683 E2.74306
G1 X44.847 Y42.929 E2.75374
G1 X45.189 Y45.519 E2.92752
G1 X46.605 Y45.541 E3.02172
G1 X47.23 Y45.742 E3.06539
G1 X47.77 Y46.114 E3.10901
G1 X48.181 Y46.633 E3.15305
G1 X48.422 Y47.243 E3.19668
G1 X48.476 Y47.896 E3.24027
G1 X48.336 Y48.541 E3.28417
G1 X48.019 Y49.113 E3.32767
G1 X47.545 Y49.572 E3.37157
G1 X46.96 Y49.872 E3.4153
G1 X46.312 Y49.991 E3.45912
G1 X45.66 Y49.916 E3.50278
G1 X45.056 Y49.654 E3.54658
G1 X44.554 Y49.228 E3.59037
G1 X44.199 Y48.676 E3.63403
G1 X44.004 Y47.996 E3.68109
G1 X43.329 Y42.879 E4.02442
G1 X41.944 Y43.059 E4.11733
G1 X32.908 Y44.246 E4.72357
G1 X33.28 Y47.088 E4.91423
G1 X34.698 Y47.11 E5.00857
G1 X35.323 Y47.311 E5.05224
G1 X35.863 Y47.684 E5.0959
G1 X36.273 Y48.201 E5.13979
G1 X36.515 Y48.812 E5.18351
G1 X36.569 Y49.465 E5.22709
G1 X36.429 Y50.11 E5.271
G1 X36.112 Y50.682 E5.3145
G1 X35.638 Y51.141 E5.35839
G1 X35.053 Y51.441 E5.40212
G1 X34.405 Y51.56 E5.44595
G1 X33.753 Y51.485 E5.48961
G1 X33.153 Y51.224 E5.53313
G1 X32.646 Y50.795 E5.57731
G1 X32.293 Y50.246 E5.62073
G1 X32.097 Y49.56 E5.66819
G1 X31.421 Y44.441 E6.01166
G1 X21.245 Y45.776 E6.69437
G1 X20.999 Y45.808 E6.71087
G1 X21.031 Y46.054 E6.72155
G1 X21.375 Y48.657 E6.89621
G1 X22.791 Y48.679 E6.99041
G1 X23.416 Y48.88 E7.03409
G1 X23.956 Y49.253 E7.07774
G1 X24.366 Y49.77 E7.12164
G1 X24.608 Y50.381 E7.16535
G1 X24.662 Y51.034 E7.20894
G1 X24.522 Y51.677 E7.25271
G1 X24.202 Y52.255 E7.29666
G1 X23.731 Y52.711 E7.34027
G1 X23.149 Y53.01 E7.38379
G1 X22.498 Y53.129 E7.42782
G1 X21.846 Y53.054 E7.47147
G1 X21.244 Y52.792 E7.51515
G1 X20.741 Y52.366 E7.55899
G1 X20.386 Y51.816 E7.60254
G1 X20.19 Y51.129 E7.65006
G1 X19.513 Y46.003 E7.99401
G1 X9.337 Y47.339 E8.67673
G1 X9.091 Y47.371 E8.69323
G1 X9.123 Y47.617 E8.70391
G1 X9.468 Y50.226 E8.87897
G1 X10.884 Y50.248 E8.97317
G1 X11.509 Y50.449 E9.01685
G1 X12.049 Y50.822 E9.0605
G1 X12.459 Y51.339 E9.1044
G1 X12.701 Y51.95 E9.14811
G1 X12.755 Y52.603 E9.1917
G1 X12.615 Y53.246 E9.23547
G1 X12.295 Y53.824 E9.27942
G1 X11.824 Y54.28 E9.32303
G1 X11.242 Y54.579 E9.36655
G1 X10.591 Y54.698 E9.41058
G1 X9.939 Y54.623 E9.45423
G1 X9.337 Y54.361 E9.49791
G1 X8.834 Y53.935 E9.54175
G1 X8.479 Y53.385 E9.5853
G1 X8.283 Y52.698 E9.63282
G1 X5.55 Y31.958 E11.02438
G1 X5.561 Y31.245 E11.07181
G1 X5.762 Y30.62 E11.11549
G1 X6.135 Y30.081 E11.15909
G1 X6.654 Y29.669 E11.20317
G1 X7.264 Y29.428 E11.2468
G1 X7.918 Y29.374 E11.29045
G1 X8.56 Y29.513 E11.33415
G1 X9.138 Y29.833 E11.37809
G1 X9.595 Y30.306 E11.42184
G1 X9.895 Y30.891 E11.46558
G1 X10.014 Y31.539 E11.5094
G1 X9.938 Y32.192 E11.55313
G1 X9.678 Y32.793 E11.59669
G1 X9.248 Y33.299 E11.64086
G1 X8.699 Y33.653 E11.68432
G1 X7.338 Y34.043 E11.7785
G1 X7.558 Y35.733 E11.89186
G1 X7.678 Y36.553 E11.94699
G1 X17.843 Y35.217 E12.62899
G1 X18.089 Y35.185 E12.64549
G1 X18.057 Y34.939 E12.65617
G1 X17.457 Y30.389 E12.96145
G1 X17.468 Y29.676 E13.00889
G1 X17.669 Y29.051 E13.05256
G1 X18.042 Y28.512 E13.09616
G1 X18.561 Y28.1 E13.14024
G1 X19.171 Y27.859 E13.18387
G1 X19.825 Y27.805 E13.22753
G1 X20.467 Y27.944 E13.27122
G1 X21.045 Y28.264 E13.31517
G1 X21.502 Y28.737 E13.35892
G1 X21.802 Y29.322 E13.40265
G1 X21.921 Y29.97 E13.44648
G1 X21.846 Y30.622 E13.49014
G1 X21.583 Y31.227 E13.53402
G1 X21.157 Y31.729 E13.57781
G1 X20.606 Y32.084 E13.62142
G1 X19.244 Y32.474 E13.71566
G1 X19.466 Y34.168 E13.82931
G1 X19.585 Y34.989 E13.88449
G1 X20.961 Y34.809 E13.9768
G1 X29.75 Y33.654 E14.56648
G1 X29.996 Y33.622 E14.58298
G1 X29.964 Y33.376 E14.59366
G1 X29.364 Y28.82 E14.89934
G1 X29.375 Y28.107 E14.94677
G1 X29.576 Y27.482 E14.99045
G1 X29.949 Y26.943 E15.03405
G1 X30.468 Y26.531 E15.07813
G1 X31.078 Y26.29 E15.12176
G1 X31.732 Y26.236 E15.16541
G1 X32.374 Y26.375 E15.20911
G1 X32.952 Y26.695 E15.25305
G1 X33.41 Y27.169 E15.2969
G1 X33.708 Y27.751 E15.34039
G1 X33.828 Y28.402 E15.38443
G1 X33.753 Y29.053 E15.42802
G1 X33.491 Y29.655 E15.47169
G1 X33.061 Y30.162 E15.51592
G1 X32.513 Y30.515 E15.55928
G1 X31.149 Y30.905 E15.65365
G1 X31.487 Y33.426 E15.82284
G1 X41.658 Y32.09 E16.50523
G1 X41.904 Y32.058 E16.52174
G1 X41.872 Y31.812 E16.53242
G1 X41.271 Y27.249 E16.83857
G1 X41.282 Y26.538 E16.88587
G1 X41.483 Y25.913 E16.92954
G1 X41.856 Y25.373 E16.9732
G1 X42.374 Y24.962 E17.01719
G1 X42.985 Y24.721 E17.06088
G1 X43.639 Y24.667 E17.10453
G1 X44.281 Y24.806 E17.14823
G1 X44.859 Y25.126 E17.19217
G1 X45.317 Y25.6 E17.23602
G1 X45.615 Y26.182 E17.27951
G1 X45.735 Y26.833 E17.32355
G1 X45.66 Y27.484 E17.36714
G1 X45.398 Y28.086 E17.41081
G1 X44.968 Y28.593 E17.45503
G1 X44.42 Y28.946 E17.4984
G1 X43.056 Y29.336 E17.59276
G1 X43.395 Y31.862 E17.7623
G1 X45.423 Y31.596 E17.89836
G1 X66.271 Y31.596 E19.28517
G1 X77.929 Y14.009 E20.68875
G1 X78.136 Y13.696 E20.71372
G1 X78.343 Y14.009 E20.72826
G1 X85.58 Y24.927 E21.59959
G1 X85.787 Y25.24 E21.62456
G1 X85.994 Y24.927 E21.6391
G1 X93.23 Y14.009 E22.51039
G1 X93.437 Y13.696 E22.53536
G1 X93.644 Y14.009 E22.5499
G1 X105.302 Y31.596 E23.95348
G1 X126.154 Y31.596 E25.34056
G1 X127.34 Y31.75 E25.42012
G1 X127.936 Y31.837 E25.46018
G1 X128.185 Y31.873 E25.47692
G1 X128.217 Y31.624 E25.48766
G1 X128.52 Y29.336 E25.64119
G1 X127.157 Y28.946 E25.7355
G1 X126.609 Y28.593 E25.77886
G1 X126.179 Y28.085 E25.82313
G1 X125.919 Y27.485 E25.86663
G1 X125.843 Y26.832 E25.91036
G1 X125.962 Y26.182 E25.95432
G1 X126.26 Y25.6 E25.99781
G1 X126.718 Y25.126 E26.04166
G1 X127.296 Y24.806 E26.08561
G1 X127.938 Y24.667 E26.1293
G1 X128.592 Y24.721 E26.17295
G1 X129.203 Y24.962 E26.21664
G1 X129.721 Y25.373 E26.26063
G1 X130.094 Y25.913 E26.30429
G1 X130.295 Y26.539 E26.34802
G1 X130.307 Y27.249 E26.39526
G1 X129.705 Y31.812 E26.70142
G1 X129.673 Y32.058 E26.71792
G1 X129.919 Y32.09 E26.7286
G1 X140.094 Y33.426 E27.41126
G1 X140.427 Y30.905 E27.58041
G1 X139.064 Y30.515 E27.67472
G1 X138.516 Y30.162 E27.71808
G1 X138.086 Y29.654 E27.76235
G1 X137.826 Y29.054 E27.80585
G1 X137.75 Y28.401 E27.84958
G1 X137.869 Y27.751 E27.89354
G1 X138.167 Y27.169 E27.93703
G1 X138.625 Y26.695 E27.98088
G1 X139.203 Y26.375 E28.02483
G1 X139.845 Y26.236 E28.06852
G1 X140.499 Y26.29 E28.11217
G1 X141.11 Y26.531 E28.15586
G1 X141.628 Y26.942 E28.19985
G1 X142.001 Y27.482 E28.24351
G1 X142.202 Y28.108 E28.28724
G1 X142.214 Y28.82 E28.33461
G1 X141.613 Y33.376 E28.6403
G1 X141.581 Y33.622 E28.65681
G1 X141.827 Y33.654 E28.66749
G1 X152.002 Y34.99 E29.35014
G1 X152.334 Y32.474 E29.51895
G1 X150.971 Y32.084 E29.61326
G1 X150.42 Y31.729 E29.65686
G1 X149.994 Y31.227 E29.70066
G1 X149.733 Y30.623 E29.74443
G1 X149.657 Y29.97 E29.78816
G1 X149.776 Y29.32 E29.83211
G1 X150.074 Y28.738 E29.87561
G1 X150.532 Y28.264 E29.91945
G1 X151.11 Y27.944 E29.9634
G1 X151.752 Y27.805 E30.0071
G1 X152.406 Y27.859 E30.05075
G1 X153.017 Y28.1 E30.09444
G1 X153.535 Y28.511 E30.13843
G1 X153.908 Y29.051 E30.18209
G1 X154.109 Y29.677 E30.22582
G1 X154.121 Y30.389 E30.27319
G1 X153.521 Y34.939 E30.57848
G1 X153.489 Y35.185 E30.59498
G1 X153.735 Y35.217 E30.60566
G1 X163.909 Y36.554 E31.28825
G1 X164.241 Y34.043 E31.45674
G1 X162.878 Y33.653 E31.55105
G1 X162.327 Y33.298 E31.59465
G1 X161.901 Y32.796 E31.63844
G1 X161.638 Y32.191 E31.68233
G1 X161.563 Y31.54 E31.72592
G1 X161.683 Y30.889 E31.76995
G1 X161.981 Y30.307 E31.81345
G1 X162.439 Y29.833 E31.85729
G1 X163.017 Y29.513 E31.90124
G1 X163.659 Y29.374 E31.94494
G1 X164.313 Y29.428 E31.98859
G1 X164.923 Y29.669 E32.03222
G1 X165.442 Y30.081 E32.0763
G1 X165.815 Y30.62 E32.1199
G1 X166.016 Y31.245 E32.16357
G1 X166.027 Y31.958 E32.21101
G1 X163.294 Y52.703 E33.60289
G1 X163.099 Y53.383 E33.64995
G1 X162.743 Y53.937 E33.69376
G1 X162.16 Y54.428 E33.74446
G1 X162.173 Y54.471 E33.74745
G1 X162.173 Y54.472 E33.74751
G1 X161.657 Y54.695 E33.78491
G1 X161.59 Y54.703 E33.78939
G1 X161.576 Y54.675 E33.79148
G1 X161.518 Y54.681 E33.79536
G1 X161.495 Y54.636 E33.79872
G1 X160.983 Y54.696 E33.83301
G1 X160.335 Y54.579 E33.87681
G1 X159.753 Y54.28 E33.92034
G1 X159.282 Y53.824 E33.96394
G1 X158.962 Y53.246 E34.00789
G1 X158.822 Y52.603 E34.05167
G1 X158.876 Y51.95 E34.09525
G1 X159.118 Y51.339 E34.13897
G1 X159.528 Y50.822 E34.18286
G1 X160.068 Y50.449 E34.22652
G1 X160.693 Y50.248 E34.27019
G1 X162.11 Y50.226 E34.36446
G1 X162.456 Y47.617 E34.53953
G1 X162.488 Y47.371 E34.55603
G1 X162.242 Y47.339 E34.56671
G1 X152.064 Y46.003 E35.24957
G1 X151.387 Y51.134 E35.59384
G1 X151.192 Y51.814 E35.6409
G1 X150.837 Y52.366 E35.68455
G1 X150.254 Y52.86 E35.73538
G1 X150.267 Y52.903 E35.73837
G1 X149.751 Y53.126 E35.77577
G1 X149.683 Y53.134 E35.78032
G1 X149.669 Y53.106 E35.7824
G1 X149.611 Y53.112 E35.78628
G1 X149.588 Y53.067 E35.78964
G1 X149.076 Y53.127 E35.82393
G1 X148.428 Y53.01 E35.86774
G1 X147.846 Y52.711 E35.91126
G1 X147.375 Y52.255 E35.95487
G1 X147.055 Y51.677 E35.99882
G1 X146.915 Y51.034 E36.04259
G1 X146.969 Y50.381 E36.08618
G1 X147.211 Y49.77 E36.12989
G1 X147.621 Y49.253 E36.17379
G1 X148.161 Y48.88 E36.21744
G1 X148.786 Y48.679 E36.26112
G1 X150.203 Y48.657 E36.35539
G1 X150.548 Y46.054 E36.53005
G1 X150.58 Y45.808 E36.54656
G1 X150.334 Y45.776 E36.55724
G1 X140.156 Y44.441 E37.24008
G1 X139.48 Y49.565 E37.58388
G1 X139.285 Y50.245 E37.63094
G1 X138.931 Y50.795 E37.67445
G1 X138.343 Y51.296 E37.72583
G1 X138.354 Y51.331 E37.72827
G1 X138.34 Y51.343 E37.7295
G1 X137.844 Y51.557 E37.76544
G1 X137.776 Y51.565 E37.76999
G1 X137.762 Y51.537 E37.77207
G1 X137.704 Y51.543 E37.77595
G1 X137.681 Y51.498 E37.77931
G1 X137.169 Y51.558 E37.8136
G1 X136.522 Y51.442 E37.85733
G1 X135.942 Y51.142 E37.90077
G1 X135.465 Y50.682 E37.94485
G1 X135.148 Y50.11 E37.98835
G1 X135.008 Y49.465 E38.03225
G1 X135.062 Y48.812 E38.07584
G1 X135.304 Y48.201 E38.11956
G1 X135.714 Y47.684 E38.16345
G1 X136.254 Y47.311 E38.20711
G1 X136.879 Y47.11 E38.25078
G1 X138.296 Y47.088 E38.34505
G1 X138.64 Y44.492 E38.51924
G1 X138.672 Y44.246 E38.53575
G1 X138.426 Y44.214 E38.54643
G1 X128.248 Y42.878 E39.22928
G1 X127.573 Y47.996 E39.57268
G1 X127.378 Y48.676 E39.61973
G1 X127.024 Y49.226 E39.66324
G1 X126.436 Y49.727 E39.71463
G1 X126.447 Y49.762 E39.71707
G1 X126.433 Y49.774 E39.7183
G1 X125.937 Y49.988 E39.75423
G1 X125.869 Y49.996 E39.75878
G1 X125.855 Y49.968 E39.76087
G1 X125.797 Y49.974 E39.76475
G1 X125.774 Y49.929 E39.76811
G1 X125.262 Y49.989 E39.8024
G1 X124.615 Y49.873 E39.84612
G1 X124.035 Y49.573 E39.88956
G1 X123.558 Y49.113 E39.93364
G1 X123.241 Y48.541 E39.97714
G1 X123.101 Y47.896 E40.02105
G1 X123.156 Y47.245 E40.06451
G1 X123.399 Y46.629 E40.10856
G1 X123.806 Y46.115 E40.15217
G1 X124.347 Y45.742 E40.19588
G1 X124.972 Y45.541 E40.23955
G1 X126.39 Y45.519 E40.33389
G1 X126.661 Y43.45 E40.4727
G1 X126.736 Y42.933 E40.50745
G1 X126.771 Y42.684 E40.52417
G1 X126.522 Y42.652 E40.53494
G1 X121.617 Y42.008 E40.86402
G1 X121.514 Y41.867 E40.87563
G1 X103.997 Y41.867 E42.04087
G1 X103.112 Y40.614 E42.14291
G1 X102.835 Y40.221 E42.1749
G1 X103.315 Y40.221 E42.19266
G1 X103.316 Y40.221 E42.19272
G1 X119.294 Y40.221 E43.25558
G1 X119.711 Y39.4 E43.31684
G1 X118.372 Y37.568 E43.46778
G1 X101.709 Y37.568 E44.57621
G1 X101.58 Y37.815 E44.59475
G1 X101.392 Y38.179 E44.622
G1 X101.156 Y37.844 E44.6376
G1 X100.961 Y37.568 E44.66008
G1 X98.659 Y37.568 E44.81321
G1 X93.636 Y30.72 E45.37814
G1 X93.435 Y30.446 E45.40075
G1 X93.234 Y30.72 E45.41422
G1 X87.186 Y38.958 E46.09403
G1 X88.819 Y41.239 E46.28064
G1 X88.352 Y41.706 E46.32458
G1 X85.882 Y41.706 E46.48888
G1 X77.82 Y30.722 E47.39523
G1 X77.62 Y30.449 E47.41774
G1 X77.42 Y30.722 E47.43116
G1 X72.393 Y37.567 E47.99609
G1 X70.521 Y37.567 E48.12062
G1 X70.326 Y37.842 E48.14304
G1 X70.09 Y38.177 E48.1703
G1 X69.902 Y37.813 E48.18589
G1 X69.774 Y37.567 E48.20434
G1 X52.938 Y37.567 E49.32428
G1 X51.597 Y39.398 E49.47525
G1 X51.833 Y39.864 E49.50999
G0 F2430 X52.013 Y40.221
G0 F9000 X52.321 Y39.721
;TYPE:WALL-OUTER
G1 F2700 X68.631 Y39.721 E50.59494
G1 X68.902 Y39.338 E50.62615
G1 X68.905 Y39.335 E50.62643
G1 X69.61 Y38.337 E50.70771
G1 X69.47 Y38.067 E50.72794
G1 X53.192 Y38.067 E51.81076
G1 X52.236 Y39.372 E51.91837
G0 F2430 X52.182 Y39.446
G0 X52.321 Y39.721
G0 F9000 X52.521 Y39.721
G0 X52.521 Y40.271
G1 F3000 E45.41837
G0 F9000 X52.521 Y43.282
G0 X73.445 Y43.282
G0 X77.413 Y37.317
G0 X83.021 Y42.927
G0 X83.292 Y43.282
G0 X87.195 Y43.282
G0 X87.129 Y43.099
G0 X88.885 Y43.099
G0 X88.826 Y43.282
G0 X118.987 Y43.282
G0 X118.987 Y39.721
G1 F2700 E51.91837
G1 X119.126 Y39.447 E51.93881
G1 X118.118 Y38.068 E52.05243
G1 X102.013 Y38.068 E53.12374
G1 X101.873 Y38.338 E53.14397
G1 X102.849 Y39.721 E53.25657
G1 X118.587 Y39.721 E54.30347
G0 F2430 X118.987 Y39.721
G0 F9000 X119.077 Y39.543
G0 X119.567 Y39.793
G1 F3000 E47.80347
G0 F9000 X119.567 Y43.282
G0 X95.094 Y24.774
G0 X93.944 Y25.598
;TYPE:WALL-INNER
G1 F2700 E54.30347
G1 X94.146 Y25.88 E54.32654
G1 X101.401 Y36.012 E55.1555
G1 X116.216 Y36.012 E56.14099
G1 X116.633 Y35.191 E56.20225
G1 X115.333 Y33.413 E56.34876
G1 X102.961 Y33.413 E57.17175
G1 X94.157 Y20.807 E58.19457
G1 X93.953 Y20.515 E58.21826
G1 X93.749 Y20.807 E58.23224
G1 X85.995 Y31.91 E59.13309
G1 X85.791 Y32.202 E59.15679
G1 X85.587 Y31.91 E59.17077
G1 X80.084 Y24.032 E59.81001
G1 X77.833 Y20.806 E60.07168
G1 X77.629 Y20.514 E60.09537
G1 X77.425 Y20.806 E60.10935
G1 X68.62 Y33.413 E61.13226
G1 X55.975 Y33.413 E61.97341
G1 X54.676 Y35.187 E62.11967
G1 X55.09 Y36.012 E62.18107
G1 X70.163 Y36.012 E63.18373
G1 X77.42 Y25.879 E64.01281
G1 X77.622 Y25.597 E64.03589
G1 X77.824 Y25.878 E64.04954
G1 X78.306 Y26.548 E64.10445
G1 X78.305 Y26.55 E64.10459
G1 X85.582 Y36.713 E64.93608
G1 X85.784 Y36.995 E64.95915
G1 X85.986 Y36.713 E64.97282
G1 X93.22 Y26.612 E65.79928
G1 X93.219 Y26.61 E65.79943
G1 X93.742 Y25.881 E65.85911
G1 X93.743 Y25.88 E65.85921
G1 X93.944 Y25.598 E65.87286
G0 F9000 X93.945 Y24.739
;TYPE:WALL-OUTER
G1 F2700 X101.658 Y35.512 E66.75421
G1 X115.909 Y35.512 E67.70219
G1 X116.048 Y35.238 E67.72263
G1 X115.079 Y33.913 E67.83183
G1 X102.7 Y33.913 E68.65528
G1 X93.953 Y21.388 E69.67151
G1 X91.935 Y24.277 E69.90593
G1 X93.098 Y25.921 E70.03988
G1 X93.712 Y25.064 E70.11001
G0 F2430 X93.945 Y24.739
G0 F9000 X94.061 Y24.901
G1 F3000 E63.61001
G0 F9000 X93.103 Y24.372
G0 X91.544 Y26.561
G0 X88.779 Y30.449
G0 X86.541 Y33.598
G0 X85.791 Y33.075
G1 F2700 E70.11001
G1 X80.082 Y24.902 E70.77319
G1 X78.919 Y26.548 E70.90725
G1 X85.784 Y36.136 E71.69168
G1 X87.665 Y33.509 E71.9066
G1 X92.606 Y26.61 E72.47108
G1 X91.448 Y24.974 E72.60441
G1 X86.02 Y32.748 E73.23512
G0 F2430 X85.791 Y33.075
G0 F9000 X85.677 Y32.912
G1 F3000 E66.73512
G0 F9000 X84.928 Y33.436
G0 X78.421 Y24.313
G0 X77.621 Y24.74
G1 F2700 E73.23512
G1 X78.427 Y25.86 E73.32691
G1 X79.595 Y24.206 E73.46161
