; generated by PrusaSlicer 2.2.0+win64 on 2020-06-11 at 22:33:23 UTC

; 

; external perimeters extrusion width = 0.41mm
; perimeters extrusion width = 0.44mm
; infill extrusion width = 0.44mm
; solid infill extrusion width = 0.44mm
; top infill extrusion width = 0.42mm
; first layer extrusion width = 0.44mm

M73 P0 R87
M73 Q0 S90
M201 X9000 Y9000 Z500 E10000 ; sets maximum accelerations, mm/sec^2
M203 X500 Y500 Z80 E120 ; sets maximum feedrates, mm/sec
M204 P1500 R1500 T1500 ; sets acceleration (P, T) and retract acceleration (R), mm/sec^2
M205 X10.00 Y10.00 Z0.20 E2.50 ; sets the jerk limits, mm/sec
M205 S0 T0 ; sets the minimum extruding and travel feed rate, mm/sec
M107
G90 ; use absolute coordinates
M83 ; extruder relative mode
M104 S220 ; set extruder temp
M140 S60 ; set bed temp
G28 ; home all
G1 Z2 F240
M190 S60 ; wait for bed temp
M109 S220 ; wait for extruder temp
G1 X219 Y190 F3000
G1 Z0.28 F240
G92 E0.0
G1 Y20 E15.0 F1500.0 ; intro line
M73 Q0 S90
M73 P0 R87
G1 X219.3 F5000
G1 Y190 E30 F1200.0 ; intro line
G92 E0.0
G21 ; set units to millimeters
G90 ; use absolute coordinates
M82 ; use absolute distances for extrusion
G92 E0
;BEFORE_LAYER_CHANGE
;0.32
G1 Z0.320 F12000.000
;AFTER_LAYER_CHANGE
;0.32
; printing object ww_headband.STL id:2 copy 0
G1 E-6.50000 F3000.00000
G92 E0
G1 Z0.420 F12000.000
G1 X136.855 Y194.703
G1 Z0.320
G1 E6.50000 F2700.00000
G1 F2100.000
G1 X142.929 Y196.894 E6.81903
G1 X145.650 Y197.691 E6.95905
G1 X147.918 Y198.234 E7.07427
G1 X150.277 Y198.680 E7.19288
G1 X152.714 Y199.019 E7.31444
G1 X155.199 Y199.243 E7.43770
G1 X158.623 Y199.427 E7.60710
G1 X159.535 Y200.004 E7.66037
G1 X159.992 Y200.769 E7.70444
G1 X160.693 Y203.050 E7.82232
G1 X160.551 Y204.142 E7.87669
G1 X159.884 Y205.023 E7.93130
G1 X159.263 Y205.353 E7.96604
G1 X155.950 Y206.506 E8.13933
G1 X153.408 Y207.221 E8.26979
G1 X150.726 Y207.848 E8.40587
G1 X147.906 Y208.387 E8.54770
G1 X144.247 Y208.938 E8.73050
G1 X143.328 Y208.849 E8.77610
G1 X142.443 Y208.212 E8.82997
G1 X134.726 Y197.949 E9.46431
G1 X134.494 Y196.865 E9.51907
G1 X134.852 Y195.750 E9.57690
G1 X135.712 Y194.968 E9.63435
G1 X136.796 Y194.716 E9.68934
G1 X136.832 Y195.089 F12000.000
G1 F2100.000
G1 X142.814 Y197.247 E10.00351
G1 X145.554 Y198.050 E10.14456
G1 X147.840 Y198.597 E10.26068
G1 X150.217 Y199.047 E10.38017
G1 X152.672 Y199.388 E10.50262
G1 X155.172 Y199.613 E10.62665
G1 X158.507 Y199.793 E10.79161
G1 X159.261 Y200.270 E10.83572
G1 X159.651 Y200.921 E10.87320
G1 X160.314 Y203.082 E10.98488
G1 X160.196 Y203.996 E11.03040
G1 X159.637 Y204.734 E11.07610
G1 X159.114 Y205.012 E11.10538
G1 X155.839 Y206.152 E11.27669
G1 X153.315 Y206.861 E11.40619
G1 X150.648 Y207.485 E11.54149
G1 X147.843 Y208.021 E11.68258
G1 X144.237 Y208.564 E11.86275
G1 X143.463 Y208.489 E11.90113
G1 X142.706 Y207.944 E11.94726
G1 X135.072 Y197.791 E12.57476
G1 X134.878 Y196.884 E12.62059
G1 X135.175 Y195.958 E12.66863
G1 X135.890 Y195.307 E12.71639
G1 X136.773 Y195.103 E12.76117
G1 X136.809 Y195.476 F12000.000
G1 F2100.000
G1 X142.699 Y197.600 E13.07049
G1 X145.459 Y198.409 E13.21256
G1 X147.762 Y198.960 E13.32958
G1 X150.157 Y199.413 E13.44996
G1 X152.629 Y199.757 E13.57330
G1 X155.146 Y199.984 E13.69811
G1 X158.390 Y200.159 E13.85861
G1 X158.988 Y200.537 E13.89357
G1 X159.309 Y201.073 E13.92445
G1 X159.935 Y203.115 E14.02994
G1 X159.840 Y203.851 E14.06661
G1 X159.390 Y204.444 E14.10339
G1 X158.965 Y204.671 E14.12722
G1 X155.727 Y205.797 E14.29656
G1 X153.222 Y206.501 E14.42509
G1 X150.571 Y207.122 E14.55961
G1 X147.781 Y207.655 E14.69997
G1 X144.227 Y208.190 E14.87750
G1 X143.599 Y208.129 E14.90867
G1 X142.968 Y207.675 E14.94705
G1 X135.418 Y197.633 E15.56772
G1 X135.262 Y196.903 E15.60460
G1 X135.499 Y196.166 E15.64285
G1 X136.069 Y195.647 E15.68093
G1 X136.751 Y195.489 E15.71551
G1 X136.786 Y195.862 F12000.000
G1 F2100.000
G1 X142.583 Y197.954 E16.01998
G1 X145.363 Y198.768 E16.16307
G1 X147.685 Y199.323 E16.28099
G1 X150.096 Y199.780 E16.40225
G1 X152.587 Y200.126 E16.52648
G1 X155.119 Y200.354 E16.65207
G1 X158.273 Y200.524 E16.80812
G1 X158.715 Y200.803 E16.83392
G1 X158.967 Y201.225 E16.85820
G1 X159.557 Y203.147 E16.95750
G1 X159.485 Y203.705 E16.98532
G1 X159.144 Y204.155 E17.01318
G1 X158.815 Y204.329 E17.03156
G1 X155.616 Y205.443 E17.19892
G1 X153.130 Y206.142 E17.32649
G1 X150.494 Y206.758 E17.46023
G1 X147.718 Y207.289 E17.59985
G1 X144.217 Y207.816 E17.77475
G1 X143.735 Y207.769 E17.79870
G1 X143.231 Y207.407 E17.82934
G1 X135.764 Y197.476 E18.44317
G1 X135.646 Y196.922 E18.47112
G1 X135.822 Y196.374 E18.49957
G1 X136.247 Y195.987 E18.52796
G1 X136.728 Y195.876 E18.55235
G1 X137.009 Y195.530 F12000.000
G1 E12.05235 F3000.00000
G92 E0
G1 Z0.420 F12000.000
G1 X94.746 Y196.865
G1 Z0.320
G1 E6.50000 F2700.00000
G1 F2100.000
G1 X94.514 Y197.949 E6.55476
G1 X86.798 Y208.212 E7.18910
G1 X85.913 Y208.849 E7.24297
G1 X84.995 Y208.938 E7.28850
G1 X81.632 Y208.439 E7.45647
G1 X78.629 Y207.873 E7.60742
G1 X75.830 Y207.219 E7.74944
G1 X73.291 Y206.506 E7.87973
G1 X69.978 Y205.353 E8.05303
G1 X69.357 Y205.023 E8.08777
G1 X68.689 Y204.142 E8.14238
G1 X68.548 Y203.050 E8.19675
G1 X69.248 Y200.769 E8.31463
G1 X69.706 Y200.004 E8.35870
G1 X70.609 Y199.433 E8.41146
G1 X76.305 Y199.043 E8.69353
G1 X78.931 Y198.684 E8.82444
G1 X81.296 Y198.239 E8.94335
G1 X83.516 Y197.711 E9.05609
G1 X85.831 Y197.047 E9.17505
G1 X88.096 Y196.290 E9.29305
G1 X92.300 Y194.711 E9.51490
G1 X93.512 Y194.953 E9.57596
G1 X94.388 Y195.750 E9.63448
G1 X94.728 Y196.808 E9.68935
G1 X94.362 Y196.884 F12000.000
G1 F2100.000
G1 X94.168 Y197.791 E9.73518
G1 X86.535 Y207.944 E10.36268
G1 X85.777 Y208.489 E10.40880
G1 X85.005 Y208.564 E10.44714
G1 X81.694 Y208.073 E10.61250
G1 X78.706 Y207.509 E10.76269
G1 X75.922 Y206.859 E10.90392
G1 X73.402 Y206.152 E11.03323
G1 X70.127 Y205.012 E11.20456
G1 X69.603 Y204.734 E11.23384
G1 X69.045 Y203.996 E11.27954
G1 X68.927 Y203.082 E11.32506
G1 X69.590 Y200.921 E11.43674
G1 X69.979 Y200.270 E11.47422
G1 X70.728 Y199.797 E11.51796
G1 X76.343 Y199.413 E11.79602
G1 X78.990 Y199.050 E11.92800
G1 X81.373 Y198.602 E12.04780
G1 X83.611 Y198.070 E12.16140
G1 X85.941 Y197.402 E12.28118
G1 X88.221 Y196.640 E12.39992
G1 X92.332 Y195.096 E12.61686
G1 X93.339 Y195.297 E12.66759
G1 X94.065 Y195.958 E12.71613
G1 X94.344 Y196.827 E12.76121
G1 X93.979 Y196.903 F12000.000
G1 F2100.000
G1 X93.822 Y197.633 E12.79809
G1 X86.272 Y207.675 E13.41876
G1 X85.641 Y208.129 E13.45714
G1 X85.014 Y208.190 E13.48828
G1 X81.755 Y207.707 E13.65103
G1 X78.783 Y207.146 E13.80047
G1 X76.015 Y206.499 E13.94090
G1 X73.513 Y205.797 E14.06925
G1 X70.276 Y204.671 E14.23859
G1 X69.850 Y204.444 E14.26242
G1 X69.400 Y203.851 E14.29920
G1 X69.305 Y203.115 E14.33587
G1 X69.932 Y201.073 E14.44136
G1 X70.253 Y200.537 E14.47224
G1 X70.847 Y200.161 E14.50697
G1 X76.381 Y199.782 E14.78101
G1 X79.050 Y199.417 E14.91407
G1 X81.451 Y198.965 E15.03477
G1 X83.705 Y198.430 E15.14922
G1 X86.051 Y197.757 E15.26982
G1 X88.345 Y196.990 E15.38930
G1 X92.363 Y195.481 E15.60133
G1 X93.165 Y195.641 E15.64173
G1 X93.742 Y196.166 E15.68028
G1 X93.960 Y196.846 E15.71557
G1 X93.595 Y196.922 F12000.000
G1 F2100.000
G1 X93.476 Y197.476 E15.74352
G1 X86.009 Y207.407 E16.35735
G1 X85.506 Y207.769 E16.38799
G1 X85.024 Y207.816 E16.41193
G1 X81.817 Y207.341 E16.57206
G1 X78.860 Y206.782 E16.72075
G1 X76.107 Y206.139 E16.86038
G1 X73.625 Y205.443 E16.98776
G1 X70.425 Y204.329 E17.15513
G1 X70.097 Y204.155 E17.17350
G1 X69.756 Y203.705 E17.20137
G1 X69.684 Y203.147 E17.22919
G1 X70.274 Y201.225 E17.32848
G1 X70.526 Y200.803 E17.35277
G1 X70.966 Y200.525 E17.37848
G1 X76.419 Y200.152 E17.64851
G1 X79.109 Y199.784 E17.78265
G1 X81.528 Y199.329 E17.90423
G1 X83.799 Y198.789 E18.01954
G1 X86.161 Y198.112 E18.14096
G1 X88.469 Y197.340 E18.26117
G1 X92.394 Y195.865 E18.46831
G1 X92.991 Y195.985 E18.49837
G1 X93.419 Y196.374 E18.52694
G1 X93.576 Y196.865 E18.55243
G1 X93.951 Y197.105 F12000.000
G1 E12.05243 F3000.00000
G92 E0
G1 Z0.420 F12000.000
G1 X52.719 Y198.311
G1 Z0.320
G1 E6.50000 F2700.00000
G1 F2100.000
G1 X57.445 Y197.802 E6.73480
G1 X59.874 Y197.413 E6.85637
G1 X63.513 Y197.872 E7.03755
G1 X66.120 Y198.089 E7.16676
G1 X68.628 Y198.205 E7.29082
G1 X73.340 Y198.144 E7.52363
G1 X77.796 Y197.706 E7.74481
G1 X79.998 Y197.338 E7.85509
G1 X82.196 Y196.866 E7.96618
G1 X86.142 Y195.752 E8.16873
G1 X90.390 Y194.197 E8.39218
G1 X100.091 Y190.042 E8.91353
G1 X103.926 Y188.636 E9.11533
G1 X105.681 Y188.105 E9.20589
G1 X109.213 Y187.283 E9.38507
G1 X110.955 Y187.002 E9.47225
G1 X114.643 Y186.669 E9.65517
G1 X115.342 Y186.708 E9.68973
G1 X117.452 Y186.896 E9.79441
G1 X119.352 Y187.164 E9.88921
G1 X121.246 Y187.529 E9.98449
G1 X124.751 Y188.458 E10.16363
G1 X128.582 Y189.816 E10.36439
G1 X137.526 Y193.652 E10.84519
G1 X140.479 Y194.831 E11.00229
G1 X144.521 Y196.193 E11.21298
G1 X148.491 Y197.189 E11.41515
G1 X150.548 Y197.568 E11.51850
G1 X154.750 Y198.068 E11.72754
G1 X159.251 Y198.226 E11.95006
G1 X161.677 Y198.168 E12.06994
G1 X166.800 Y197.756 E12.32384
G1 X169.376 Y197.413 E12.45222
G1 X173.055 Y197.971 E12.63605
G1 X176.528 Y198.307 E12.80844
G1 X177.409 Y197.838 E12.85774
G1 X177.887 Y197.229 E12.89596
G1 X178.103 Y196.379 E12.93928
G1 X177.988 Y195.698 E12.97344
G1 X178.156 Y195.631 E12.98236
G1 X178.252 Y195.777 E12.99101
G1 X179.138 Y197.605 E13.09137
G1 X179.789 Y198.239 E13.13624
G1 X180.609 Y198.455 E13.17812
G1 X186.540 Y198.444 E13.47115
G1 X187.363 Y198.067 E13.51587
G1 X187.846 Y197.506 E13.55244
G1 X188.112 Y196.815 E13.58901
G1 X188.059 Y195.975 E13.63059
G1 X187.952 Y195.721 E13.64420
G1 X188.131 Y195.626 E13.65423
G1 X188.247 Y195.801 E13.66460
G1 X189.204 Y197.582 E13.76452
G1 X189.930 Y198.153 E13.81015
G1 X190.751 Y198.437 E13.85306
G1 X211.880 Y198.445 E14.89684
G1 X212.577 Y198.195 E14.93342
G1 X213.225 Y197.562 E14.97820
G1 X213.512 Y196.815 E15.01771
G1 X213.459 Y195.975 E15.05929
G1 X213.350 Y195.717 E15.07312
G1 X213.543 Y195.626 E15.08366
G1 X214.118 Y196.713 E15.14442
G1 X214.491 Y197.668 E15.19508
G1 X214.762 Y198.663 E15.24602
G1 X214.926 Y199.681 E15.29696
G1 X214.980 Y200.711 E15.34790
G1 X214.926 Y201.741 E15.39884
G1 X214.762 Y202.759 E15.44978
G1 X214.491 Y203.754 E15.50072
G1 X214.116 Y204.714 E15.55166
G1 X213.642 Y205.630 E15.60260
G1 X213.531 Y205.797 E15.61249
G1 X213.352 Y205.701 E15.62252
G1 X213.459 Y205.447 E15.63613
G1 X213.512 Y204.607 E15.67771
G1 X213.225 Y203.860 E15.71722
G1 X212.577 Y203.227 E15.76200
G1 X211.880 Y202.977 E15.79858
G1 X190.751 Y202.986 E16.84236
G1 X189.930 Y203.269 E16.88527
G1 X189.204 Y203.840 E16.93090
G1 X188.247 Y205.622 E17.03082
G1 X188.131 Y205.797 E17.04119
G1 X187.952 Y205.701 E17.05122
G1 X188.059 Y205.447 E17.06483
G1 X188.112 Y204.607 E17.10641
G1 X187.825 Y203.860 E17.14592
G1 X187.133 Y203.184 E17.19370
G1 X186.313 Y202.968 E17.23564
G1 X180.608 Y202.968 E17.51746
G1 X179.789 Y203.183 E17.55928
G1 X179.138 Y203.817 E17.60416
G1 X178.252 Y205.645 E17.70451
G1 X178.156 Y205.791 E17.71316
G1 X177.988 Y205.725 E17.72208
G1 X178.103 Y205.043 E17.75624
G1 X177.887 Y204.193 E17.79956
G1 X177.409 Y203.584 E17.83778
G1 X176.522 Y203.111 E17.88747
G1 X171.795 Y203.620 E18.12231
G1 X166.597 Y204.548 E18.38318
G1 X161.465 Y205.866 E18.64490
G1 X156.380 Y207.568 E18.90982
G1 X153.096 Y208.476 E19.07813
G1 X150.609 Y209.039 E19.20411
G1 X145.299 Y209.946 E19.47024
G1 X139.415 Y210.589 E19.76263
G1 X132.170 Y211.022 E20.12122
G1 X122.575 Y211.249 E20.59535
G1 X114.622 Y211.316 E20.98826
G1 X102.857 Y211.190 E21.56949
G1 X98.382 Y211.071 E21.79064
G1 X90.996 Y210.681 E22.15605
G1 X84.916 Y210.076 E22.45788
G1 X82.235 Y209.694 E22.59164
G1 X77.317 Y208.754 E22.83900
G1 X72.859 Y207.567 E23.06695
G1 X68.838 Y206.191 E23.27686
G1 X66.386 Y205.469 E23.40315
G1 X61.483 Y204.306 E23.65207
G1 X56.192 Y203.451 E23.91687
G1 X52.712 Y203.115 E24.08958
G1 X51.831 Y203.584 E24.13888
G1 X51.354 Y204.193 E24.17710
G1 X51.138 Y205.043 E24.22042
G1 X51.253 Y205.725 E24.25458
G1 X51.085 Y205.791 E24.26350
G1 X50.988 Y205.645 E24.27215
G1 X50.102 Y203.817 E24.37250
G1 X49.451 Y203.183 E24.41738
G1 X48.633 Y202.968 E24.45920
G1 X42.928 Y202.968 E24.74102
G1 X42.107 Y203.184 E24.78296
G1 X41.372 Y203.903 E24.83374
G1 X41.104 Y204.832 E24.88152
G1 X41.204 Y205.501 E24.91494
G1 X41.288 Y205.701 E24.92565
G1 X41.109 Y205.797 E24.93568
G1 X40.994 Y205.622 E24.94605
G1 X40.037 Y203.840 E25.04596
G1 X39.310 Y203.269 E25.09160
G1 X38.489 Y202.986 E25.13451
G1 X17.301 Y202.977 E26.18123
G1 X16.477 Y203.355 E26.22602
G1 X15.994 Y203.916 E26.26259
G1 X15.728 Y204.607 E26.29916
G1 X15.781 Y205.447 E26.34074
G1 X15.888 Y205.701 E26.35435
G1 X15.709 Y205.797 E26.36438
G1 X15.599 Y205.630 E26.37427
G1 X15.124 Y204.714 E26.42521
G1 X14.749 Y203.754 E26.47615
G1 X14.479 Y202.759 E26.52708
G1 X14.315 Y201.741 E26.57802
G1 X14.260 Y200.711 E26.62896
G1 X14.315 Y199.681 E26.67990
G1 X14.479 Y198.663 E26.73084
G1 X14.749 Y197.668 E26.78178
G1 X15.124 Y196.708 E26.83272
G1 X15.599 Y195.792 E26.88366
G1 X15.709 Y195.626 E26.89355
G1 X15.888 Y195.721 E26.90358
G1 X15.781 Y195.975 E26.91719
G1 X15.728 Y196.815 E26.95877
G1 X15.994 Y197.506 E26.99534
G1 X16.477 Y198.067 E27.03191
G1 X17.301 Y198.445 E27.07670
G1 X38.489 Y198.437 E28.12342
G1 X39.310 Y198.153 E28.16633
G1 X40.037 Y197.582 E28.21196
G1 X40.994 Y195.801 E28.31188
G1 X41.109 Y195.626 E28.32225
G1 X41.288 Y195.721 E28.33228
G1 X41.204 Y195.921 E28.34299
G1 X41.104 Y196.590 E28.37641
G1 X41.355 Y197.461 E28.42119
G1 X41.877 Y198.067 E28.46070
G1 X42.700 Y198.444 E28.50542
G1 X48.632 Y198.455 E28.79845
G1 X49.451 Y198.239 E28.84033
G1 X50.102 Y197.605 E28.88521
G1 X50.988 Y195.777 E28.98556
G1 X51.085 Y195.631 E28.99421
G1 X51.253 Y195.698 E29.00313
G1 X51.138 Y196.379 E29.03729
G1 X51.354 Y197.229 E29.08061
G1 X51.831 Y197.838 E29.11883
G1 X52.666 Y198.283 E29.16556
G1 X52.793 Y197.930 F12000.000
G1 F2100.000
G1 X57.395 Y197.434 E29.39424
G1 X59.868 Y197.038 E29.51796
G1 X63.552 Y197.502 E29.70138
G1 X66.144 Y197.719 E29.82986
G1 X68.634 Y197.834 E29.95304
G1 X73.320 Y197.773 E30.18452
G1 X77.747 Y197.337 E30.40430
G1 X79.928 Y196.973 E30.51355
G1 X82.107 Y196.505 E30.62362
G1 X86.028 Y195.398 E30.82490
G1 X90.253 Y193.852 E31.04716
G1 X99.954 Y189.697 E31.56851
G1 X103.808 Y188.284 E31.77132
G1 X105.585 Y187.746 E31.86301
G1 X109.142 Y186.919 E32.04342
G1 X110.909 Y186.633 E32.13187
G1 X114.637 Y186.297 E32.31677
G1 X115.368 Y186.338 E32.35297
G1 X117.495 Y186.527 E32.45842
G1 X119.413 Y186.798 E32.55416
G1 X121.329 Y187.167 E32.65053
G1 X124.861 Y188.103 E32.83105
G1 X128.717 Y189.470 E33.03315
G1 X137.668 Y193.308 E33.51431
G1 X140.608 Y194.483 E33.67067
G1 X144.626 Y195.836 E33.88014
G1 X148.570 Y196.825 E34.08100
G1 X150.604 Y197.201 E34.18318
G1 X154.778 Y197.698 E34.39086
G1 X159.253 Y197.855 E34.61208
G1 X161.658 Y197.797 E34.73090
G1 X166.761 Y197.386 E34.98380
G1 X169.380 Y197.038 E35.11433
G1 X173.101 Y197.603 E35.30027
G1 X176.453 Y197.927 E35.46663
G1 X177.165 Y197.547 E35.50652
G1 X177.546 Y197.062 E35.53699
G1 X177.723 Y196.364 E35.57257
G1 X177.636 Y195.842 E35.59870
G1 X176.765 Y193.815 E35.70770
G1 X176.471 Y193.341 E35.73529
G1 X176.625 Y193.217 E35.74504
G1 X177.310 Y193.886 E35.79235
G1 X177.992 Y194.711 E35.84524
G1 X178.576 Y195.593 E35.89748
G1 X179.444 Y197.385 E35.99584
G1 X179.978 Y197.905 E36.03267
G1 X180.657 Y198.083 E36.06733
G1 X186.459 Y198.073 E36.35398
G1 X187.135 Y197.763 E36.39071
G1 X187.523 Y197.313 E36.42009
G1 X187.736 Y196.758 E36.44947
G1 X187.693 Y196.061 E36.48393
G1 X186.746 Y193.817 E36.60425
G1 X186.450 Y193.341 E36.63198
G1 X186.604 Y193.217 E36.64173
G1 X187.289 Y193.886 E36.68905
G1 X187.971 Y194.711 E36.74194
G1 X188.566 Y195.610 E36.79517
G1 X189.494 Y197.338 E36.89209
G1 X190.111 Y197.822 E36.93081
G1 X190.814 Y198.065 E36.96756
G1 X211.815 Y198.074 E38.00507
G1 X212.375 Y197.873 E38.03446
G1 X212.908 Y197.353 E38.07123
G1 X213.136 Y196.758 E38.10273
G1 X213.093 Y196.061 E38.13719
G1 X212.146 Y193.817 E38.25751
G1 X211.850 Y193.341 E38.28524
G1 X212.004 Y193.217 E38.29499
G1 X212.689 Y193.886 E38.34231
