;FLAVOR:Marlin
;TIME:5364
;Filament used: 8.0757m
;Layer height: 0.33
;MINX:2.944
;MINY:3.594
;MINZ:0.33
;MAXX:217.056
;MAXY:216.406
;MAXZ:0.99
;Generated with Cura_SteamEngine 4.6.0
M82 ;absolute extrusion mode
M201 X500.00 Y500.00 Z100.00 E5000.00 ;Setup machine max acceleration
M203 X500.00 Y500.00 Z10.00 E50.00 ;Setup machine max feedrate
M204 P500.00 R1000.00 T500.00 ;Setup Print/Retract/Travel acceleration
M205 X8.00 Y8.00 Z0.40 E5.00 ;Setup Jerk
M220 S100 ;Reset Feedrate
M221 S100 ;Reset Flowrate

M140 S50; start preheating the bed
M104 S220 T0; start preheating hotend
G28 ;Home
G1 Z2.0 F3000 ;Move Z Axis up
M190 S50; heat to bed setting in Cura and WAIT
M109 S220 T0; heat hotend to setting in Cura and WAIT


G92 E0 ;Reset Extruder
G1 Z2.0 F3000 ;Move Z Axis up
G1 X220 Y200 Z0.28 F5000.0 ;Move to start position
G1 X220 Y20.0 Z0.28 F1500.0 E15 ;Draw the first line
G1 X219.5 Y20.0 Z0.28 F5000.0 ;Move to side a little
G1 X219.5 Y200 Z0.28 F1500.0 E30 ;Draw the second line
G92 E0 ;Reset Extruder
G1 Z2.0 F3000 ;Move Z Axis up
G90 ;absolute xyze mode
G92 E0
G92 E0
G1 F3000 E-6.5
;LAYER_COUNT:3
;LAYER:0
M107
M204 S500
;MESH:LtWtSaversX10b.stl
G0 F9000 X210.702 Y23.512 Z0.33
;TYPE:WALL-INNER
G1 F2700 E0
G1 F3000 X211.383 Y18.42 E0.36651
G1 X211.417 Y18.164 E0.38494
G1 X211.161 Y18.13 E0.39685
G1 X188.5 Y15.107 E2.02787
G1 X187.65 Y21.35 E2.47737
G1 X187.615 Y21.607 E2.49588
G1 X187.872 Y21.641 E2.50782
G1 X210.329 Y24.639 E4.12418
G1 X210.827 Y23.637 E4.20401
G1 X210.76 Y23.57 E4.21077
G0 F2700 X210.702 Y23.512
G0 F9000 X210.153 Y23.698
;TYPE:WALL-OUTER
G1 F3000 X210.833 Y18.611 E4.57692
G1 X188.945 Y15.691 E6.15231
G1 X188.201 Y21.161 E6.54615
G1 X210.029 Y24.074 E8.11723
G1 X210.079 Y23.973 E8.12527
G0 F2700 X210.195 Y23.74
G0 X210.153 Y23.698
G0 F9000 X210.179 Y23.5
G1 F3000 E1.62527
G0 F9000 X154.94 Y10.974
;TYPE:WALL-INNER
G1 F2700 E8.12527
G1 F3000 X156.136 Y17.41 E8.5923
G1 X186.732 Y21.49 E10.79443
G1 X186.962 Y19.774 E10.91795
G1 X186.963 Y19.773 E10.91805
G1 X187.6 Y14.989 E11.26237
G1 X155.228 Y10.67 E13.59235
G1 X154.875 Y10.623 E13.61775
G1 X154.94 Y10.974 E13.6329
G0 F9000 X155.517 Y11.233
;TYPE:WALL-OUTER
G1 F3000 X156.578 Y16.944 E14.04731
G1 X186.286 Y20.906 E16.18554
G1 X186.47 Y19.531 E16.28451
G1 X186.471 Y19.53 E16.28461
G1 X187.016 Y15.436 E16.57926
G1 X178.453 Y14.292 E17.1956
G1 X155.833 Y11.275 E18.82367
G0 F2700 X155.517 Y11.233
G0 F9000 X155.553 Y11.429
G0 X154.991 Y11.532
G1 F3000 E12.32367
G0 F9000 X111.961 Y19.057
;TYPE:WALL-INNER
G1 F2700 E18.82367
G1 F3000 X153.563 Y19.058 E21.79168
G1 X153.962 Y18.095 E21.86605
G1 X153.763 Y17.896 E21.88613
G1 X151.705 Y6.823 E22.68963
G1 X113.924 Y6.823 E25.38504
G1 X111.706 Y18.751 E26.25061
G1 X111.649 Y19.057 E26.27282
G1 X111.96 Y19.057 E26.28648
G1 X111.961 Y19.057 E26.28655
G0 F9000 X112.275 Y18.537
;TYPE:WALL-OUTER
G1 F3000 X153.216 Y18.538 E29.2074
G1 X153.349 Y18.217 E29.23219
G1 X153.282 Y18.15 E29.23895
G1 X151.273 Y7.343 E30.02317
G1 X114.356 Y7.343 E32.65693
G1 X112.333 Y18.224 E33.44652
G0 F2700 X112.275 Y18.537
G0 F9000 X112.475 Y18.537
G0 X112.475 Y19.109
G1 F3000 E26.94652
G0 F9000 X110.689 Y10.974
;TYPE:WALL-INNER
G1 F2700 E33.44652
G1 F3000 X110.754 Y10.623 E33.47199
G1 X110.401 Y10.67 E33.4871
G1 X78.284 Y14.954 E35.79872
G1 X78.028 Y14.988 E35.81714
G1 X78.062 Y15.244 E35.82905
G1 X78.896 Y21.49 E36.27861
G1 X101.283 Y18.506 E37.88989
G1 X101.284 Y18.505 E37.88999
G1 X109.493 Y17.41 E38.48084
G1 X110.631 Y11.287 E38.92515
G0 F2700 X110.689 Y10.974
G0 F9000 X110.112 Y11.233
;TYPE:WALL-OUTER
G1 F3000 X78.612 Y15.435 E41.19236
G1 X79.343 Y20.906 E41.58615
G1 X101.04 Y18.014 E43.14777
G1 X101.041 Y18.013 E43.14787
G1 X109.051 Y16.944 E43.72439
G1 X110.054 Y11.546 E44.11609
G0 F2700 X110.112 Y11.233
G0 F9000 X109.914 Y11.259
G0 X109.84 Y10.693
G1 F3000 E37.61609
G0 F9000 X77.756 Y21.642
;TYPE:WALL-INNER
G1 F2700 E44.11609
G1 F3000 X78.013 Y21.608 E44.13459
G1 X77.979 Y21.351 E44.14655
G1 X77.364 Y16.823 E44.47255
G1 X77.362 Y16.821 E44.47276
G1 X77.129 Y15.107 E44.59616
G1 X54.214 Y18.165 E46.24548
G1 X55.045 Y24.411 E46.69501
G1 X55.079 Y24.667 E46.71344
G1 X55.335 Y24.633 E46.72535
G1 X77.756 Y21.642 E48.3391
G0 F9000 X77.428 Y21.161
;TYPE:WALL-OUTER
G1 F3000 X76.872 Y17.067 E48.63386
G1 X76.871 Y17.066 E48.63396
G1 X76.684 Y15.691 E48.73296
G1 X54.797 Y18.612 E50.30829
G1 X54.99 Y20.074 E50.4135
G1 X55.526 Y24.083 E50.70205
G1 X77.112 Y21.203 E52.25571
G0 F2700 X77.428 Y21.161
G0 F9000 X77.402 Y20.963
G0 X77.968 Y20.888
G1 F3000 E45.75571
G0 F9000 X81.861 Y27.003
;TYPE:WALL-INNER
G1 F2700 E52.25571
G1 F3000 X82.017 Y27.107 E52.26909
G1 X82.057 Y27.141 E52.27283
G1 X82.233 Y27.303 E52.2899
G1 X82.28 Y27.355 E52.2949
G1 X82.407 Y27.516 E52.30953
G1 X82.458 Y27.595 E52.31624
G1 X82.581 Y27.819 E52.33447
G1 X82.684 Y28.103 E52.35602
G1 X82.737 Y28.376 E52.37586
G1 X82.747 Y28.685 E52.39792
G1 X82.714 Y28.963 E52.41789
G1 X82.634 Y29.247 E52.43894
G1 X82.512 Y29.512 E52.45975
G1 X82.352 Y29.753 E52.48039
G1 X82.158 Y29.97 E52.50116
G1 X81.93 Y30.153 E52.52202
G1 X81.687 Y30.294 E52.54206
G1 X81.413 Y30.4 E52.56302
G1 X81.347 Y30.416 E52.56786
G1 X81.134 Y30.462 E52.58341
G1 X81.064 Y30.469 E52.58843
G1 X80.838 Y30.481 E52.60457
G1 X80.777 Y30.478 E52.60893
G1 X80.554 Y30.455 E52.62493
G1 X80.488 Y30.442 E52.62973
G1 X80.224 Y30.367 E52.6493
G1 X79.942 Y30.239 E52.6714
G1 X79.708 Y30.082 E52.6915
G1 X79.493 Y29.885 E52.71231
G1 X79.31 Y29.657 E52.73316
G1 X79.168 Y29.406 E52.75374
G1 X79.062 Y29.131 E52.77476
G1 X78.996 Y28.817 E52.79766
G1 X78.264 Y23.452 E53.18396
G1 X67.5 Y24.889 E53.95871
G1 X67.244 Y24.923 E53.97713
G1 X67.278 Y25.179 E53.98904
G1 X67.716 Y28.452 E54.22463
G1 X67.752 Y28.724 E54.2442
G1 X68.022 Y28.672 E54.25668
G1 X68.78 Y28.523 E54.31179
G1 X69.073 Y28.513 E54.3327
G1 X69.361 Y28.547 E54.35339
G1 X69.643 Y28.625 E54.37427
G1 X69.907 Y28.744 E54.39493
G1 X69.964 Y28.779 E54.3997
G1 X70.145 Y28.901 E54.41527
G1 X70.192 Y28.941 E54.41967
G1 X70.39 Y29.127 E54.43906
G1 X70.579 Y29.373 E54.46119
G1 X70.709 Y29.608 E54.48035
G1 X70.814 Y29.901 E54.50255
G1 X70.867 Y30.178 E54.52267
G1 X70.877 Y30.476 E54.54395
G1 X70.843 Y30.761 E54.56442
G1 X70.763 Y31.044 E54.5854
G1 X70.642 Y31.307 E54.60606
G1 X70.48 Y31.551 E54.62695
G1 X70.287 Y31.764 E54.64746
G1 X70.067 Y31.942 E54.66765
G1 X69.806 Y32.094 E54.6892
G1 X69.542 Y32.196 E54.70939
G1 X69.269 Y32.256 E54.72933
G1 X69.188 Y32.264 E54.73514
G1 X68.968 Y32.276 E54.75086
G1 X68.909 Y32.273 E54.75507
G1 X68.634 Y32.241 E54.77482
G1 X68.399 Y32.179 E54.79216
G1 X68.347 Y32.16 E54.79611
G1 X68.069 Y32.031 E54.81798
G1 X67.845 Y31.883 E54.83713
G1 X67.617 Y31.675 E54.85915
G1 X67.442 Y31.455 E54.8792
G1 X67.294 Y31.194 E54.90061
G1 X67.192 Y30.929 E54.92087
G1 X67.126 Y30.624 E54.94313
G1 X66.366 Y25.039 E55.34525
G1 X55.582 Y26.479 E56.12144
G1 X55.326 Y26.513 E56.13987
G1 X55.36 Y26.769 E56.15178
G1 X55.771 Y29.841 E56.3729
G1 X55.807 Y30.112 E56.3924
G1 X56.076 Y30.061 E56.40483
G1 X56.837 Y29.914 E56.46013
G1 X57.13 Y29.903 E56.48104
G1 X57.417 Y29.937 E56.50166
G1 X57.695 Y30.014 E56.52224
G1 X57.962 Y30.135 E56.54316
G1 X58.002 Y30.16 E56.54652
G1 X58.234 Y30.318 E56.56655
G1 X58.424 Y30.494 E56.58502
G1 X58.457 Y30.532 E56.58862
G1 X58.6 Y30.711 E56.60496
G1 X58.637 Y30.767 E56.60975
G1 X58.763 Y30.996 E56.6284
G1 X58.87 Y31.292 E56.65085
G1 X58.923 Y31.57 E56.67104
G1 X58.933 Y31.866 E56.69217
G1 X58.899 Y32.148 E56.71244
G1 X58.817 Y32.436 E56.7338
G1 X58.696 Y32.7 E56.75452
G1 X58.535 Y32.942 E56.77525
G1 X58.347 Y33.151 E56.79531
G1 X58.121 Y33.333 E56.81601
G1 X57.868 Y33.48 E56.83689
G1 X57.596 Y33.587 E56.85774
G1 X57.534 Y33.602 E56.86229
G1 X57.324 Y33.647 E56.87761
G1 X57.251 Y33.654 E56.88284
G1 X57.022 Y33.667 E56.89921
G1 X56.969 Y33.664 E56.903
G1 X56.739 Y33.64 E56.91949
G1 X56.659 Y33.624 E56.92531
G1 X56.406 Y33.552 E56.94408
G1 X56.14 Y33.431 E56.96493
G1 X55.895 Y33.269 E56.98588
G1 X55.676 Y33.068 E57.00709
G1 X55.499 Y32.846 E57.02735
G1 X55.349 Y32.584 E57.04889
G1 X55.248 Y32.32 E57.06905
G1 X55.181 Y32.005 E57.09203
G1 X52.375 Y11.399 E58.57569
G1 X52.357 Y11.076 E58.59877
G1 X52.387 Y10.765 E58.62106
G1 X52.476 Y10.449 E58.64448
G1 X52.582 Y10.215 E58.66281
G1 X52.616 Y10.157 E58.6676
G1 X52.74 Y9.971 E58.68355
G1 X52.785 Y9.916 E58.68862
G1 X52.982 Y9.709 E58.70901
G1 X53.222 Y9.527 E58.7305
G1 X53.474 Y9.392 E58.75089
G1 X53.773 Y9.289 E58.77345
G1 X54.052 Y9.24 E58.79366
G1 X54.355 Y9.232 E58.81529
G1 X54.646 Y9.273 E58.83625
G1 X54.691 Y9.286 E58.8396
G1 X54.932 Y9.361 E58.8576
G1 X54.983 Y9.384 E58.86159
G1 X55.199 Y9.492 E58.87882
G1 X55.241 Y9.519 E58.88239
G1 X55.472 Y9.69 E58.90289
G1 X55.672 Y9.891 E58.92312
G1 X55.857 Y10.15 E58.94583
G1 X55.987 Y10.416 E58.96695
G1 X56.075 Y10.706 E58.98857
G1 X56.116 Y10.999 E59.00968
G1 X56.111 Y11.297 E59.03094
G1 X56.059 Y11.591 E59.05224
G1 X56.043 Y11.641 E59.05599
G1 X55.945 Y11.905 E59.07608
G1 X55.788 Y12.18 E59.09867
G1 X55.606 Y12.405 E59.11931
G1 X55.381 Y12.608 E59.14093
G1 X55.139 Y12.764 E59.16148
G1 X54.852 Y12.89 E59.18384
G1 X54.571 Y12.964 E59.20457
G1 X53.799 Y13.042 E59.25993
G1 X53.534 Y13.068 E59.27892
G1 X53.569 Y13.332 E59.2911
G1 X53.931 Y16.064 E59.48771
G1 X53.965 Y16.32 E59.50614
G1 X54.221 Y16.286 E59.51805
G1 X64.721 Y14.884 E60.2738
G1 X64.978 Y14.85 E60.29229
G1 X64.943 Y14.593 E60.30424
G1 X64.319 Y10.002 E60.63479
G1 X64.3 Y9.676 E60.65808
G1 X64.33 Y9.378 E60.67945
G1 X64.42 Y9.059 E60.7031
G1 X64.526 Y8.825 E60.72143
G1 X64.562 Y8.764 E60.72648
G1 X64.685 Y8.577 E60.74245
G1 X64.717 Y8.538 E60.74605
G1 X64.926 Y8.319 E60.76764
G1 X65.104 Y8.179 E60.7838
G1 X65.169 Y8.135 E60.7894
G1 X65.418 Y8.002 E60.80954
G1 X65.716 Y7.899 E60.83203
G1 X65.999 Y7.849 E60.85254
G1 X66.298 Y7.842 E60.87387
G1 X66.591 Y7.883 E60.89498
G1 X66.896 Y7.979 E60.91779
G1 X67.173 Y8.121 E60.94
G1 X67.388 Y8.274 E60.95883
G1 X67.424 Y8.306 E60.96226
G1 X67.627 Y8.514 E60.983
G1 X67.8 Y8.758 E61.00434
G1 X67.934 Y9.034 E61.02623
G1 X68.02 Y9.321 E61.0476
G1 X68.061 Y9.606 E61.06814
G1 X68.056 Y9.906 E61.08955
G1 X68.005 Y10.195 E61.11049
G1 X67.986 Y10.253 E61.11484
G1 X67.888 Y10.518 E61.135
G1 X67.746 Y10.77 E61.15563
G1 X67.551 Y11.013 E61.17786
G1 X67.38 Y11.173 E61.19457
G1 X67.317 Y11.223 E61.20031
G1 X67.09 Y11.37 E61.2196
G1 X66.801 Y11.498 E61.24215
G1 X66.512 Y11.573 E61.26345
G1 X65.742 Y11.655 E61.3187
G1 X65.478 Y11.682 E61.33763
G1 X65.513 Y11.945 E61.34977
G1 X65.85 Y14.475 E61.53186
G1 X65.884 Y14.731 E61.55029
G1 X66.14 Y14.697 E61.5622
G1 X76.619 Y13.297 E62.31644
G1 X76.876 Y13.263 E62.33494
G1 X76.842 Y13.006 E62.3469
G1 X76.189 Y8.2 E62.69292
G1 X76.17 Y7.884 E62.71551
G1 X76.2 Y7.591 E62.73652
G1 X76.291 Y7.264 E62.76074
G1 X76.395 Y7.033 E62.77881
G1 X76.433 Y6.969 E62.78412
G1 X76.552 Y6.789 E62.79951
G1 X76.6 Y6.731 E62.80489
G1 X76.79 Y6.53 E62.82462
G1 X76.975 Y6.384 E62.84143
G1 X77.043 Y6.338 E62.84729
G1 X77.288 Y6.207 E62.86711
G1 X77.586 Y6.104 E62.8896
G1 X77.87 Y6.054 E62.91018
G1 X78.169 Y6.047 E62.93151
G1 X78.46 Y6.088 E62.95248
G1 X78.747 Y6.176 E62.9739
G1 X78.795 Y6.198 E62.97766
G1 X79.042 Y6.325 E62.99748
G1 X79.295 Y6.511 E63.01988
G1 X79.503 Y6.726 E63.04122
G1 X79.669 Y6.962 E63.06181
G1 X79.804 Y7.241 E63.08392
G1 X79.89 Y7.522 E63.10489
G1 X79.931 Y7.819 E63.12628
G1 X79.926 Y8.111 E63.14711
G1 X79.874 Y8.404 E63.16834
G1 X79.858 Y8.454 E63.17209
G1 X79.76 Y8.719 E63.19224
G1 X79.635 Y8.946 E63.21073
G1 X79.594 Y9.007 E63.21597
G1 X79.424 Y9.217 E63.23525
G1 X79.201 Y9.419 E63.25672
G1 X78.956 Y9.578 E63.27755
G1 X78.678 Y9.702 E63.29927
G1 X78.384 Y9.779 E63.32095
G1 X77.614 Y9.857 E63.37617
G1 X77.348 Y9.883 E63.39524
G1 X77.383 Y10.148 E63.40745
G1 X77.748 Y12.888 E63.60466
G1 X77.782 Y13.144 E63.62308
G1 X78.038 Y13.11 E63.63499
G1 X88.508 Y11.711 E64.38859
G1 X88.765 Y11.677 E64.40708
G1 X88.731 Y11.42 E64.41904
G1 X88.099 Y6.766 E64.75412
G1 X88.078 Y6.436 E64.77771
G1 X88.108 Y6.143 E64.79873
G1 X88.184 Y5.853 E64.82011
G1 X88.2 Y5.815 E64.82306
G1 X88.328 Y5.541 E64.84463
G1 X88.465 Y5.334 E64.86234
G1 X88.502 Y5.288 E64.86655
G1 X88.7 Y5.079 E64.88709
G1 X88.95 Y4.892 E64.90936
G1 X89.201 Y4.758 E64.92966
G1 X89.492 Y4.656 E64.95166
G1 X89.775 Y4.607 E64.97215
G1 X90.073 Y4.6 E64.99342
G1 X90.415 Y4.654 E65.01812
G1 X90.675 Y4.737 E65.03759
G1 X90.951 Y4.879 E65.05974
G1 X91.201 Y5.063 E65.08188
G1 X91.404 Y5.271 E65.10262
G1 X91.578 Y5.516 E65.12406
G1 X91.712 Y5.792 E65.14595
G1 X91.798 Y6.078 E65.16725
G1 X91.839 Y6.367 E65.18808
G1 X91.834 Y6.664 E65.20927
G1 X91.783 Y6.954 E65.23028
G1 X91.765 Y7.009 E65.2344
G1 X91.667 Y7.274 E65.25456
G1 X91.547 Y7.493 E65.27238
G1 X91.514 Y7.541 E65.27653
G1 X91.329 Y7.771 E65.29759
G1 X91.165 Y7.925 E65.31364
G1 X91.101 Y7.977 E65.31952
G1 X90.868 Y8.128 E65.33933
G1 X90.579 Y8.256 E65.36188
G1 X90.29 Y8.331 E65.38318
G1 X89.52 Y8.413 E65.43843
G1 X89.256 Y8.44 E65.45736
G1 X89.291 Y8.703 E65.4695
G1 X89.637 Y11.302 E65.65656
G1 X89.671 Y11.558 E65.67498
G1 X89.927 Y11.524 E65.68689
G1 X111.113 Y8.699 E67.21174
G1 X111.461 Y6.83 E67.34737
G1 X111.559 Y6.438 E67.3762
G1 X111.691 Y6.101 E67.40202
G1 X111.872 Y5.765 E67.42925
G1 X112.081 Y5.476 E67.4547
G1 X112.341 Y5.199 E67.4818
G1 X112.615 Y4.97 E67.50728
G1 X112.933 Y4.77 E67.53408
G1 X113.267 Y4.61 E67.5605
G1 X113.622 Y4.496 E67.5871
G1 X113.969 Y4.428 E67.61233
G1 X114.379 Y4.403 E67.64163
G1 X151.249 Y4.404 E70.27205
G1 X151.654 Y4.429 E70.301
G1 X152.014 Y4.498 E70.32715
G1 X152.362 Y4.61 E70.35323
G1 X152.696 Y4.77 E70.37965
G1 X153.01 Y4.968 E70.40613
G1 X153.288 Y5.201 E70.43201
G1 X153.546 Y5.477 E70.45897
G1 X153.757 Y5.768 E70.48461
G1 X153.936 Y6.094 E70.51114
G1 X153.966 Y6.176 E70.51737
G1 X154.073 Y6.445 E70.53803
G1 X154.166 Y6.813 E70.56511
G1 X154.516 Y8.698 E70.70189
G1 X175.957 Y11.557 E72.24509
G1 X176.339 Y8.701 E72.45066
G1 X176.374 Y8.437 E72.46966
G1 X176.109 Y8.411 E72.48184
G1 X175.34 Y8.332 E72.53699
G1 X175.047 Y8.256 E72.55858
G1 X174.737 Y8.115 E72.58288
G1 X174.529 Y7.978 E72.60065
G1 X174.476 Y7.934 E72.60556
G1 X174.31 Y7.783 E72.62157
G1 X174.266 Y7.734 E72.62627
G1 X174.118 Y7.548 E72.64323
G1 X174.087 Y7.5 E72.64731
G1 X173.948 Y7.245 E72.66802
G1 X173.848 Y6.956 E72.68984
G1 X173.796 Y6.659 E72.71135
G1 X173.79 Y6.368 E72.73212
G1 X173.832 Y6.07 E72.75359
G1 X173.917 Y5.789 E72.77453
G1 X174.044 Y5.526 E72.79537
G1 X174.076 Y5.478 E72.79949
G1 X174.21 Y5.287 E72.81613
G1 X174.256 Y5.236 E72.82103
G1 X174.42 Y5.07 E72.83768
G1 X174.475 Y5.024 E72.84279
G1 X174.7 Y4.864 E72.86249
G1 X174.964 Y4.733 E72.88352
G1 X175.257 Y4.643 E72.90538
G1 X175.551 Y4.601 E72.92657
G1 X175.858 Y4.607 E72.94848
G1 X176.137 Y4.655 E72.96868
G1 X176.424 Y4.755 E72.99036
G1 X176.477 Y4.782 E72.9946
G1 X176.683 Y4.893 E73.0113
G1 X176.721 Y4.92 E73.01462
G1 X176.918 Y5.07 E73.03229
G1 X176.972 Y5.123 E73.03769
G1 X177.158 Y5.327 E73.05738
G1 X177.291 Y5.523 E73.07428
G1 X177.322 Y5.579 E73.07885
G1 X177.442 Y5.847 E73.09979
G1 X177.52 Y6.145 E73.12177
G1 X177.55 Y6.438 E73.14278
G1 X177.531 Y6.766 E73.16622
G1 X176.898 Y11.42 E73.50131
G1 X176.864 Y11.677 E73.51981
G1 X177.121 Y11.711 E73.53177
G1 X187.304 Y13.071 E74.2647
G1 X187.56 Y13.105 E74.28313
G1 X187.594 Y12.849 E74.29504
G1 X187.977 Y9.971 E74.50217
G1 X186.965 Y9.706 E74.5768
G1 X186.692 Y9.59 E74.59797
G1 X186.63 Y9.552 E74.60315
G1 X186.438 Y9.427 E74.6195
G1 X186.38 Y9.379 E74.62487
G1 X186.217 Y9.231 E74.64058
G1 X186.178 Y9.186 E74.64483
G1 X185.996 Y8.951 E74.66603
G1 X185.883 Y8.749 E74.68254
G1 X185.858 Y8.694 E74.68685
G1 X185.76 Y8.419 E74.70768
G1 X185.705 Y8.111 E74.73
G1 X185.698 Y7.814 E74.7512
G1 X185.736 Y7.528 E74.77178
G1 X185.823 Y7.241 E74.79318
G1 X185.843 Y7.198 E74.79656
G1 X185.954 Y6.972 E74.81452
G1 X185.985 Y6.925 E74.81854
G1 X186.146 Y6.702 E74.83816
G1 X186.325 Y6.519 E74.85643
G1 X186.381 Y6.473 E74.8616
G1 X186.559 Y6.341 E74.87741
G1 X186.615 Y6.308 E74.88204
G1 X186.871 Y6.18 E74.90246
G1 X187.169 Y6.089 E74.92469
G1 X187.458 Y6.048 E74.94552
G1 X187.763 Y6.054 E74.96728
G1 X188.041 Y6.102 E74.98741
