;FLAVOR:Marlin
;TIME:2824
;Filament used: 2.95837m
;Layer height: 0.28
;MINX:82.537
;MINY:78.437
;MINZ:0.2
;MAXX:136.198
;MAXY:141.561
;MAXZ:24.28
;Generated with Cura_SteamEngine 4.6.1
M82 ;absolute extrusion mode
M201 X500.00 Y500.00 Z100.00 E5000.00 ;Setup machine max acceleration
M203 X500.00 Y500.00 Z10.00 E50.00 ;Setup machine max feedrate
M204 P500.00 R1000.00 T500.00 ;Setup Print/Retract/Travel acceleration
M205 X8.00 Y8.00 Z0.40 E5.00 ;Setup Jerk
M220 S100 ;Reset Feedrate
M221 S100 ;Reset Flowrate

G90
M140 S50; start preheating the bed
M104 S220 T0; start preheating hotend
G28 ;Home
G1 Z2.0 F3000 ;Move Z Axis up
M190 S50; heat to bed setting in Cura and WAIT
M109 S220 T0; heat hotend to setting in Cura and WAIT


G92 E0 ;Reset Extruder
G1 Z2.0 F3000 ;Move Z Axis up
G1 X2.1 Y20 Z0.28 F5000.0 ;Move to start position
G1 X2.1 Y200.0 Z0.28 F1500.0 E15 ;Draw the first line
G1 X2.4 Y200.0 Z0.28 F5000.0 ;Move to side a little
G1 X2.4 Y20 Z0.28 F1500.0 E30 ;Draw the second line
G92 E0 ;Reset Extruder
G1 Z2.0 F3000 ;Move Z Axis up
G92 E0
G92 E0
G1 F3000 E-6.5
;LAYER_COUNT:87
;LAYER:0
M107
M204 S500
G0 F7500 X91.183 Y82.098 Z0.2
;TYPE:SKIRT
G1 F2700 E0
G1 F2400 X91.569 Y81.683 E0.02026
G1 X91.795 Y81.502 E0.03062
G1 X92.277 Y81.219 E0.0506
G1 X92.548 Y81.109 E0.06106
G1 X93.1 Y80.975 E0.08137
G1 X93.395 Y80.948 E0.09196
G1 X93.805 Y80.954 E0.10662
G1 X93.953 Y80.972 E0.11195
G1 X94.336 Y81.059 E0.126
G1 X94.694 Y81.221 E0.14004
G1 X95.011 Y81.453 E0.15409
G1 X95.276 Y81.743 E0.16814
G1 X95.476 Y82.082 E0.18221
G1 X95.588 Y82.391 E0.19396
G1 X98.059 Y91.592 E0.5346
G1 X98.122 Y91.98 E0.54865
G1 X98.119 Y92.25 E0.5583
G1 X97.849 Y95.584 E0.6779
G1 X97.667 Y98.078 E0.76731
G1 X97.482 Y100.959 E0.87053
G1 X97.346 Y103.45 E0.95973
G1 X97.236 Y105.939 E1.04881
G1 X97.155 Y108.431 E1.13796
G1 X97.126 Y109.646 E1.18141
G1 X97.096 Y112.134 E1.27038
G1 X97.094 Y113.349 E1.31382
G1 X97.103 Y114.549 E1.35672
G1 X97.123 Y115.786 E1.40096
G1 X97.154 Y116.979 E1.44363
G1 X97.199 Y118.189 E1.48692
G1 X97.259 Y119.42 E1.53099
G1 X97.331 Y120.597 E1.57315
G1 X97.422 Y121.798 E1.61621
G1 X97.494 Y122.612 E1.64543
G1 X97.637 Y123.983 E1.69472
G1 X97.788 Y125.17 E1.7375
G1 X97.87 Y125.743 E1.7582
G1 X98.058 Y126.904 E1.80025
G1 X98.242 Y127.882 E1.83583
G1 X98.365 Y128.474 E1.85745
G1 X98.516 Y129.121 E1.8812
G1 X98.613 Y129.508 E1.89547
G1 X98.805 Y130.24 E1.92253
G1 X99.181 Y131.513 E1.96999
G1 X99.417 Y132.22 E1.99664
G1 X99.677 Y132.917 E2.02323
G1 X99.819 Y133.261 E2.03654
G1 X100.087 Y133.851 E2.05971
G1 X100.2 Y134.076 E2.06871
G1 X100.336 Y134.33 E2.07901
G1 X100.468 Y134.553 E2.08828
G1 X100.608 Y134.772 E2.09757
G1 X100.827 Y135.071 E2.11082
G1 X100.964 Y135.231 E2.11836
G1 X101.112 Y135.383 E2.12594
G1 X101.238 Y135.49 E2.13185
G1 X101.364 Y135.577 E2.13733
G1 X101.493 Y135.649 E2.14261
G1 X101.642 Y135.703 E2.14827
G1 X101.801 Y135.726 E2.15402
G1 X106.233 Y135.727 E2.31248
G1 X106.403 Y135.718 E2.31857
G1 X106.537 Y135.688 E2.32348
G1 X106.652 Y135.645 E2.32787
G1 X106.787 Y135.573 E2.33334
G1 X106.938 Y135.47 E2.33988
G1 X107.105 Y135.328 E2.34771
G1 X107.265 Y135.165 E2.35588
G1 X107.334 Y135.083 E2.35971
G1 X107.528 Y134.839 E2.37086
G1 X107.668 Y134.641 E2.37953
G1 X107.814 Y134.414 E2.38918
G1 X107.951 Y134.182 E2.39881
G1 X108.077 Y133.953 E2.40816
G1 X108.236 Y133.638 E2.42077
G1 X108.422 Y133.235 E2.43664
G1 X108.648 Y132.702 E2.45734
G1 X108.851 Y132.17 E2.4777
G1 X109.008 Y131.706 E2.49521
G1 X109.12 Y131.352 E2.50849
G1 X109.355 Y130.532 E2.53899
G1 X109.52 Y129.859 E2.56376
G1 X109.598 Y129.507 E2.57666
G1 X109.708 Y128.911 E2.59833
G1 X109.774 Y128.503 E2.6131
G1 X109.855 Y127.864 E2.63613
G1 X109.892 Y127.519 E2.64854
G1 X109.963 Y126.771 E2.6754
G1 X110.025 Y126.018 E2.70242
G1 X110.101 Y124.942 E2.74099
G1 X110.17 Y123.856 E2.77989
G1 X110.231 Y122.768 E2.81886
G1 X110.286 Y121.676 E2.85795
G1 X110.355 Y120.197 E2.91089
G1 X110.418 Y118.728 E2.96346
G1 X110.528 Y115.752 E3.06994
G1 X110.634 Y112.456 E3.18785
G1 X110.727 Y109.156 E3.30588
G1 X110.809 Y105.859 E3.4238
G1 X110.883 Y102.551 E3.54211
G1 X110.963 Y98.583 E3.68401
G1 X111.122 Y89.316 E4.0154
G1 X111.25 Y80.344 E4.33622
G1 X111.296 Y79.954 E4.35026
G1 X111.419 Y79.581 E4.36431
G1 X111.615 Y79.241 E4.37834
G1 X111.876 Y78.947 E4.3924
G1 X112.191 Y78.712 E4.40645
G1 X112.547 Y78.545 E4.42051
G1 X112.929 Y78.454 E4.43455
G1 X113.185 Y78.437 E4.44372
G1 X134.157 Y78.437 E5.19357
G1 X134.548 Y78.477 E5.20762
G1 X134.923 Y78.595 E5.22168
G1 X135.266 Y78.786 E5.23571
G1 X135.563 Y79.043 E5.24976
G1 X135.803 Y79.355 E5.26383
G1 X135.974 Y79.708 E5.27785
G1 X136.071 Y80.089 E5.29191
G1 X136.092 Y80.372 E5.30206
G1 X136.092 Y83.372 E5.40932
G1 X136.052 Y83.763 E5.42337
G1 X135.934 Y84.138 E5.43743
G1 X135.743 Y84.481 E5.45147
G1 X135.486 Y84.778 E5.46551
G1 X135.174 Y85.018 E5.47958
G1 X134.821 Y85.189 E5.49361
G1 X134.44 Y85.286 E5.50767
G1 X134.157 Y85.307 E5.51781
G1 X124.653 Y85.307 E5.85762
G1 X124.434 Y85.314 E5.86546
G1 X124.285 Y85.33 E5.87082
G1 X124.153 Y85.355 E5.87562
G1 X123.977 Y85.4 E5.88212
G1 X123.84 Y85.448 E5.88731
G1 X123.697 Y85.51 E5.89288
G1 X123.567 Y85.579 E5.89814
G1 X123.427 Y85.667 E5.90405
G1 X123.3 Y85.759 E5.90966
G1 X123.185 Y85.857 E5.91506
G1 X123.078 Y85.964 E5.92047
G1 X122.979 Y86.078 E5.92587
G1 X122.887 Y86.203 E5.93142
G1 X122.807 Y86.329 E5.93676
G1 X122.733 Y86.47 E5.94245
G1 X122.674 Y86.603 E5.94765
G1 X122.619 Y86.758 E5.95353
G1 X122.572 Y86.931 E5.95994
G1 X122.548 Y87.059 E5.9646
G1 X122.492 Y87.416 E5.97752
G1 X115.968 Y129.691 E7.50694
G1 X115.774 Y130.539 E7.53804
G1 X115.461 Y131.794 E7.58429
G1 X115.247 Y132.588 E7.61369
G1 X114.914 Y133.712 E7.65561
G1 X114.683 Y134.428 E7.68251
G1 X114.446 Y135.106 E7.70819
G1 X114.208 Y135.741 E7.73243
G1 X113.951 Y136.364 E7.75653
G1 X113.695 Y136.937 E7.77897
G1 X113.556 Y137.229 E7.79053
G1 X113.417 Y137.506 E7.80161
G1 X113.149 Y138.004 E7.82183
G1 X112.992 Y138.274 E7.833
G1 X112.714 Y138.72 E7.85179
G1 X112.534 Y138.982 E7.86316
G1 X112.237 Y139.379 E7.88088
G1 X112.046 Y139.613 E7.89168
G1 X111.719 Y139.97 E7.90899
G1 X111.617 Y140.073 E7.91418
G1 X111.35 Y140.322 E7.92723
G1 X111.22 Y140.433 E7.93334
G1 X110.948 Y140.645 E7.94567
G1 X110.795 Y140.752 E7.95235
G1 X110.521 Y140.926 E7.96395
G1 X110.337 Y141.03 E7.97151
G1 X110.058 Y141.167 E7.98262
G1 X109.864 Y141.249 E7.99015
G1 X109.577 Y141.353 E8.00107
G1 X109.333 Y141.424 E8.01016
G1 X109.046 Y141.487 E8.02066
G1 X108.827 Y141.522 E8.02859
G1 X108.532 Y141.552 E8.03919
G1 X108.277 Y141.561 E8.04832
G1 X107.98 Y141.552 E8.05894
G1 X107.758 Y141.533 E8.06691
G1 X107.458 Y141.489 E8.07775
G1 X107.236 Y141.442 E8.08586
G1 X106.928 Y141.359 E8.09727
G1 X106.738 Y141.297 E8.10441
G1 X106.428 Y141.178 E8.11628
G1 X106.269 Y141.109 E8.12248
G1 X105.957 Y140.956 E8.13491
G1 X105.81 Y140.876 E8.14089
G1 X105.376 Y140.609 E8.15911
G1 X105.226 Y140.504 E8.16566
G1 X104.983 Y140.544 E8.17446
G1 X103.682 Y140.872 E8.22243
G1 X103.245 Y140.951 E8.23831
G1 X102.951 Y140.987 E8.2489
G1 X102.743 Y141.001 E8.25636
G1 X102.461 Y141.005 E8.26644
G1 X102.18 Y140.988 E8.27651
G1 X101.908 Y140.952 E8.28632
G1 X101.565 Y140.875 E8.29888
G1 X101.309 Y140.792 E8.30851
G1 X100.941 Y140.628 E8.32291
G1 X100.703 Y140.491 E8.33273
G1 X100.481 Y140.342 E8.34229
G1 X100.293 Y140.196 E8.3508
G1 X100.072 Y140.012 E8.36108
G1 X98.139 Y138.213 E8.4555
G1 X97.363 Y137.452 E8.49436
G1 X96.577 Y136.655 E8.53438
G1 X96.014 Y136.07 E8.56341
G1 X95.467 Y135.485 E8.59205
G1 X94.936 Y134.901 E8.62027
G1 X94.419 Y134.32 E8.64808
G1 X93.92 Y133.738 E8.67549
G1 X93.436 Y133.161 E8.70241
G1 X92.964 Y132.579 E8.72921
G1 X92.515 Y132.008 E8.75518
G1 X92.074 Y131.427 E8.78126
G1 X91.654 Y130.855 E8.80663
G1 X91.248 Y130.281 E8.83177
G1 X90.765 Y129.565 E8.86265
G1 X83.086 Y119.239 E9.32275
G1 X82.963 Y119.051 E9.33078
G1 X82.862 Y118.876 E9.33801
G1 X82.673 Y118.423 E9.35556
G1 X82.611 Y118.198 E9.3639
G1 X82.542 Y117.732 E9.38075
G1 X82.537 Y117.532 E9.3879
G1 X82.577 Y117.088 E9.40384
G1 X82.618 Y116.892 E9.411
G1 X82.761 Y116.465 E9.4271
G1 X82.847 Y116.282 E9.43433
G1 X83.084 Y115.9 E9.4504
G1 X83.209 Y115.743 E9.45758
G1 X83.559 Y115.402 E9.47505
G1 X83.745 Y115.262 E9.48337
G1 X84.263 Y114.984 E9.50439
G1 X84.548 Y114.883 E9.5152
G1 X84.929 Y114.79 E9.52923
G1 X85.194 Y114.772 E9.53872
G1 X85.496 Y114.772 E9.54952
G1 X85.991 Y114.836 E9.56737
G1 X89.551 Y115.781 E9.69906
G1 X91.959 Y116.569 E9.78965
G1 X91.762 Y94.587 E10.57564
G1 X91.678 Y94.517 E10.57955
G1 X91.305 Y94.102 E10.5995
G1 X91.148 Y93.866 E10.60964
G1 X90.913 Y93.375 E10.6291
G1 X90.828 Y93.105 E10.63922
G1 X90.739 Y92.564 E10.65882
G1 X90.733 Y92.277 E10.66909
G1 X90.803 Y91.72 E10.68916
G1 X90.848 Y91.558 E10.69517
G1 X90.805 Y91.425 E10.70017
G1 X90.713 Y90.885 E10.71975
G1 X90.705 Y90.597 E10.73005
G1 X90.774 Y90.028 E10.75055
G1 X90.82 Y89.862 E10.75671
G1 X90.776 Y89.725 E10.76185
G1 X90.684 Y89.187 E10.78137
G1 X90.676 Y88.9 E10.79163
G1 X90.743 Y88.337 E10.8119
G1 X90.79 Y88.165 E10.81828
G1 X90.748 Y88.036 E10.82313
G1 X90.654 Y87.49 E10.84294
G1 X90.646 Y87.202 E10.85324
G1 X90.715 Y86.633 E10.87373
G1 X90.76 Y86.468 E10.87985
G1 X90.718 Y86.338 E10.88473
G1 X90.624 Y85.792 E10.90454
G1 X90.616 Y85.504 E10.91484
G1 X90.685 Y84.935 E10.93534
G1 X90.731 Y84.769 E10.9415
G1 X90.671 Y84.571 E10.94889
G1 X90.589 Y84.014 E10.96902
G1 X90.589 Y83.718 E10.97961
G1 X90.678 Y83.137 E11.00062
G1 X90.767 Y82.854 E11.01123
G1 X90.82 Y82.745 E11.01556
G0 F2160 X91.017 Y82.34
G0 X91.183 Y82.098
G0 F7500 X91.538 Y82.342
G1 F2400 X91.838 Y82.018 E11.03135
G1 X92.064 Y81.837 E11.0417
G1 X92.439 Y81.617 E11.05725
G1 X92.71 Y81.507 E11.06771
G1 X93.139 Y81.403 E11.08349
G1 X93.434 Y81.376 E11.09408
G1 X93.753 Y81.381 E11.10549
G1 X93.901 Y81.399 E11.11082
G1 X94.237 Y81.48 E11.12318
G1 X94.547 Y81.636 E11.13559
G1 X94.812 Y81.859 E11.14797
G1 X95.02 Y82.136 E11.16035
G1 X95.172 Y82.503 E11.17456
G1 X97.643 Y91.704 E11.51519
G1 X97.69 Y92.215 E11.53354
G1 X97.42 Y95.549 E11.65314
G1 X97.238 Y98.046 E11.74265
G1 X97.053 Y100.931 E11.84602
G1 X96.917 Y103.426 E11.93536
G1 X96.807 Y105.92 E12.02462
G1 X96.725 Y108.403 E12.11344
G1 X96.697 Y109.657 E12.15829
G1 X96.666 Y112.129 E12.24668
G1 X96.664 Y113.348 E12.29027
G1 X96.673 Y114.556 E12.33346
G1 X96.693 Y115.793 E12.37769
G1 X96.725 Y116.995 E12.42069
G1 X96.769 Y118.21 E12.46416
G1 X96.828 Y119.421 E12.50751
G1 X96.903 Y120.629 E12.55078
G1 X96.996 Y121.855 E12.59474
G1 X97.067 Y122.656 E12.6235
G1 X97.214 Y124.061 E12.674
G1 X97.363 Y125.231 E12.71618
G1 X97.446 Y125.811 E12.73712
G1 X97.641 Y127.015 E12.78073
G1 X97.821 Y127.97 E12.81548
G1 X97.944 Y128.562 E12.8371
G1 X98.099 Y129.225 E12.86144
G1 X98.197 Y129.617 E12.87589
G1 X98.395 Y130.374 E12.90387
G1 X98.766 Y131.627 E12.95059
G1 X99.011 Y132.362 E12.97829
G1 X99.272 Y133.063 E13.00504
G1 X99.416 Y133.412 E13.01854
G1 X99.71 Y134.059 E13.04395
G1 X99.821 Y134.279 E13.05276
G1 X99.967 Y134.551 E13.06379
G1 X100.107 Y134.787 E13.07361
G1 X100.244 Y135.002 E13.08272
G1 X100.405 Y135.228 E13.09264
G1 X100.497 Y135.348 E13.09805
G1 X100.638 Y135.511 E13.10575
G1 X100.819 Y135.696 E13.11501
G1 X100.98 Y135.834 E13.12259
G1 X101.136 Y135.943 E13.12939
G1 X101.305 Y136.036 E13.13629
G1 X101.415 Y136.083 E13.14057
G1 X101.543 Y136.122 E13.14535
G1 X101.651 Y136.144 E13.14929
G1 X101.784 Y136.156 E13.15407
G1 X106.233 Y136.157 E13.31314
G1 X106.483 Y136.142 E13.3221
G1 X106.659 Y136.102 E13.32855
G1 X106.826 Y136.039 E13.33493
G1 X107.014 Y135.939 E13.34254
G1 X107.19 Y135.819 E13.35016
G1 X107.403 Y135.638 E13.36015
G1 X107.573 Y135.466 E13.3688
G1 X107.668 Y135.354 E13.37405
G1 X107.88 Y135.088 E13.38621
G1 X108.024 Y134.884 E13.39514
G1 X108.166 Y134.662 E13.40456
G1 X108.32 Y134.402 E13.41537
G1 X108.47 Y134.129 E13.42651
G1 X108.616 Y133.84 E13.43808
G1 X108.799 Y133.444 E13.45368
G1 X109.061 Y132.826 E13.47768
G1 X109.258 Y132.308 E13.4975
G1 X109.421 Y131.828 E13.51562
G1 X109.528 Y131.487 E13.5284
G1 X109.769 Y130.649 E13.55958
G1 X109.943 Y129.939 E13.58571
G1 X110.02 Y129.587 E13.5986
G1 X110.127 Y129.011 E13.61954
G1 X110.204 Y128.537 E13.63671
G1 X110.282 Y127.919 E13.65898
G1 X110.32 Y127.564 E13.67175
G1 X110.389 Y126.829 E13.69815
G1 X110.453 Y126.053 E13.72599
G1 X110.53 Y124.972 E13.76473
G1 X110.599 Y123.883 E13.80375
G1 X110.66 Y122.792 E13.84282
G1 X110.716 Y121.698 E13.88198
G1 X110.785 Y120.223 E13.93478
G1 X110.847 Y118.736 E13.98799
G1 X110.958 Y115.768 E14.09419
G1 X111.064 Y112.47 E14.21217
G1 X111.157 Y109.173 E14.3301
G1 X111.238 Y105.866 E14.44837
G1 X111.313 Y102.561 E14.56657
G1 X111.393 Y98.592 E14.70851
G1 X111.552 Y89.323 E15.03997
G1 X111.68 Y80.351 E15.36079
G1 X111.725 Y80.007 E15.3732
G1 X111.847 Y79.683 E15.38558
G1 X112.04 Y79.395 E15.39797
G1 X112.294 Y79.159 E15.41037
G1 X112.595 Y78.988 E15.42275
G1 X112.927 Y78.889 E15.43513
G1 X113.185 Y78.867 E15.44439
G1 X134.157 Y78.867 E16.19424
G1 X134.501 Y78.907 E16.20662
G1 X134.827 Y79.024 E16.21901
G1 X135.117 Y79.213 E16.23138
G1 X135.357 Y79.464 E16.2438
G1 X135.533 Y79.762 E16.25617
G1 X135.636 Y80.093 E16.26857
G1 X135.662 Y80.372 E16.27859
G1 X135.662 Y83.372 E16.38585
G1 X135.622 Y83.716 E16.39823
G1 X135.505 Y84.042 E16.41062
G1 X135.316 Y84.332 E16.42299
G1 X135.065 Y84.572 E16.43541
G1 X134.767 Y84.748 E16.44778
G1 X134.436 Y84.851 E16.46018
G1 X134.157 Y84.877 E16.4702
G1 X124.64 Y84.877 E16.81047
G1 X124.401 Y84.884 E16.81902
G1 X124.224 Y84.903 E16.82539
G1 X124.063 Y84.934 E16.83125
G1 X123.86 Y84.987 E16.83875
G1 X123.673 Y85.051 E16.84582
G1 X123.517 Y85.119 E16.8519
G1 X123.35 Y85.207 E16.85865
G1 X123.183 Y85.312 E16.86571
G1 X123.038 Y85.418 E16.87213
G1 X122.9 Y85.536 E16.87862
G1 X122.76 Y85.675 E16.88567
G1 X122.639 Y85.814 E16.89226
G1 X122.533 Y85.958 E16.89866
G1 X122.439 Y86.107 E16.90496
G1 X122.346 Y86.281 E16.91201
G1 X122.267 Y86.462 E16.91907
G1 X122.211 Y86.62 E16.92506
G1 X122.155 Y86.826 E16.9327
G1 X122.116 Y87.034 E16.94026
G1 X122.067 Y87.349 E16.95166
G1 X115.549 Y129.595 E18.48002
G1 X115.355 Y130.443 E18.51113
G1 X115.044 Y131.689 E18.55705
G1 X114.832 Y132.476 E18.58619
G1 X114.502 Y133.59 E18.62773
G1 X114.274 Y134.296 E18.65426
G1 X114.04 Y134.964 E18.67956
G1 X113.805 Y135.59 E18.70347
G1 X113.554 Y136.2 E18.72705
G1 X113.303 Y136.76 E18.749
G1 X113.168 Y137.044 E18.76024
G1 X113.033 Y137.313 E18.771
G1 X112.77 Y137.8 E18.79079
G1 X112.621 Y138.057 E18.80141
G1 X112.35 Y138.492 E18.81974
G1 X112.149 Y138.782 E18.83235
G1 X111.894 Y139.121 E18.84752
G1 X111.716 Y139.337 E18.85753
G1 X111.403 Y139.679 E18.8741
G1 X111.323 Y139.759 E18.87815
G1 X111.056 Y140.008 E18.8912
G1 X110.955 Y140.094 E18.89594
G1 X110.683 Y140.306 E18.90828
G1 X110.565 Y140.389 E18.91343
G1 X110.291 Y140.563 E18.92504
G1 X110.147 Y140.644 E18.93095
G1 X109.868 Y140.781 E18.94206
G1 X109.718 Y140.845 E18.94789
G1 X109.431 Y140.949 E18.9588
G1 X109.241 Y141.004 E18.96588
G1 X108.954 Y141.067 E18.97638
G1 X108.783 Y141.094 E18.98257
G1 X108.488 Y141.124 E18.99317
G1 X108.29 Y141.131 E19.00026
G1 X107.993 Y141.122 E19.01088
G1 X107.821 Y141.107 E19.01706
G1 X107.521 Y141.063 E19.0279
G1 X107.347 Y141.027 E19.03425
G1 X107.039 Y140.944 E19.04566
G1 X106.892 Y140.896 E19.05118
G1 X106.582 Y140.777 E19.06306
G1 X106.458 Y140.723 E19.06789
G1 X106.146 Y140.57 E19.08032
G1 X106.032 Y140.508 E19.08496
G1 X105.623 Y140.257 E19.10211
G1 X105.384 Y140.09 E19.11254
G1 X105.243 Y140.068 E19.11764
G1 X105.073 Y140.089 E19.12377
G1 X104.909 Y140.12 E19.12973
G1 X103.69 Y140.43 E19.17471
G1 X103.193 Y140.524 E19.19279
G1 X102.899 Y140.56 E19.20338
G1 X102.737 Y140.571 E19.20919
G1 X102.455 Y140.575 E19.21927
G1 X102.237 Y140.562 E19.22708
G1 X101.965 Y140.526 E19.23689
G1 X101.698 Y140.466 E19.24667
G1 X101.442 Y140.383 E19.2563
G1 X101.155 Y140.255 E19.26753
G1 X100.917 Y140.118 E19.27735
G1 X100.745 Y140.003 E19.28475
G1 X100.557 Y139.857 E19.29326
G1 X100.349 Y139.683 E19.30296
G1 X98.432 Y137.899 E19.39659
G1 X97.664 Y137.145 E19.43507
G1 X96.883 Y136.354 E19.47481
