;FLAVOR:Marlin
;TIME:2737
;Filament used: 2.89995m
;Layer height: 0.28
;MINX:84.797
;MINY:78.437
;MINZ:0.2
;MAXX:133.938
;MAXY:141.561
;MAXZ:24.28
;Generated with Cura_SteamEngine 4.6.1
M82 ;absolute extrusion mode
M201 X500.00 Y500.00 Z100.00 E5000.00 ;Setup machine max acceleration
M203 X500.00 Y500.00 Z10.00 E50.00 ;Setup machine max feedrate
M204 P500.00 R1000.00 T500.00 ;Setup Print/Retract/Travel acceleration
M205 X8.00 Y8.00 Z0.40 E5.00 ;Setup Jerk
M220 S100 ;Reset Feedrate
M221 S100 ;Reset Flowrate

G90
M140 S50; start preheating the bed
M104 S220 T0; start preheating hotend
G28 ;Home
G1 Z2.0 F3000 ;Move Z Axis up
M190 S50; heat to bed setting in Cura and WAIT
M109 S220 T0; heat hotend to setting in Cura and WAIT


G92 E0 ;Reset Extruder
G1 Z2.0 F3000 ;Move Z Axis up
G1 X2.1 Y20 Z0.28 F5000.0 ;Move to start position
G1 X2.1 Y200.0 Z0.28 F1500.0 E15 ;Draw the first line
G1 X2.4 Y200.0 Z0.28 F5000.0 ;Move to side a little
G1 X2.4 Y20 Z0.28 F1500.0 E30 ;Draw the second line
G92 E0 ;Reset Extruder
G1 Z2.0 F3000 ;Move Z Axis up
G92 E0
G92 E0
G1 F3000 E-6.5
;LAYER_COUNT:87
;LAYER:0
M107
M204 S500
G0 F7500 X93.443 Y82.098 Z0.2
;TYPE:SKIRT
G1 F2700 E0
G1 F2400 X93.829 Y81.683 E0.02026
G1 X94.055 Y81.502 E0.03062
G1 X94.537 Y81.219 E0.0506
G1 X94.808 Y81.109 E0.06106
G1 X95.36 Y80.975 E0.08137
G1 X95.655 Y80.948 E0.09196
G1 X96.065 Y80.954 E0.10662
G1 X96.213 Y80.972 E0.11195
G1 X96.596 Y81.059 E0.126
G1 X96.954 Y81.221 E0.14004
G1 X97.271 Y81.453 E0.15409
G1 X97.536 Y81.743 E0.16814
G1 X97.736 Y82.082 E0.18221
G1 X97.848 Y82.391 E0.19396
G1 X100.319 Y91.592 E0.5346
G1 X100.382 Y91.98 E0.54865
G1 X100.379 Y92.25 E0.5583
G1 X100.109 Y95.584 E0.6779
G1 X99.927 Y98.078 E0.76731
G1 X99.742 Y100.959 E0.87053
G1 X99.606 Y103.45 E0.95973
G1 X99.496 Y105.939 E1.04881
G1 X99.415 Y108.431 E1.13796
G1 X99.386 Y109.646 E1.18141
G1 X99.356 Y112.134 E1.27038
G1 X99.354 Y113.349 E1.31382
G1 X99.363 Y114.549 E1.35672
G1 X99.383 Y115.786 E1.40096
G1 X99.414 Y116.979 E1.44363
G1 X99.459 Y118.189 E1.48692
G1 X99.519 Y119.42 E1.53099
G1 X99.591 Y120.597 E1.57315
G1 X99.682 Y121.798 E1.61621
G1 X99.754 Y122.612 E1.64543
G1 X99.897 Y123.983 E1.69472
G1 X100.048 Y125.17 E1.7375
G1 X100.13 Y125.743 E1.7582
G1 X100.318 Y126.904 E1.80025
G1 X100.502 Y127.882 E1.83583
G1 X100.618 Y128.441 E1.85624
G1 X100.877 Y129.522 E1.89599
G1 X101.065 Y130.24 E1.92252
G1 X101.441 Y131.513 E1.96998
G1 X101.677 Y132.22 E1.99663
G1 X101.937 Y132.917 E2.02323
G1 X102.079 Y133.261 E2.03654
G1 X102.347 Y133.851 E2.05971
G1 X102.46 Y134.076 E2.06871
G1 X102.596 Y134.33 E2.07901
G1 X102.728 Y134.553 E2.08828
G1 X102.868 Y134.772 E2.09757
G1 X103.087 Y135.071 E2.11082
G1 X103.224 Y135.231 E2.11835
G1 X103.372 Y135.383 E2.12594
G1 X103.498 Y135.49 E2.13185
G1 X103.624 Y135.577 E2.13732
G1 X103.753 Y135.649 E2.14261
G1 X103.902 Y135.703 E2.14827
G1 X104.047 Y135.725 E2.15352
G1 X104.277 Y135.688 E2.16185
G1 X104.392 Y135.645 E2.16624
G1 X104.527 Y135.573 E2.17171
G1 X104.678 Y135.47 E2.17824
G1 X104.845 Y135.328 E2.18608
G1 X105.005 Y135.165 E2.19425
G1 X105.074 Y135.083 E2.19808
G1 X105.268 Y134.839 E2.20922
G1 X105.408 Y134.641 E2.21789
G1 X105.554 Y134.414 E2.22754
G1 X105.691 Y134.182 E2.23718
G1 X105.817 Y133.953 E2.24652
G1 X105.976 Y133.638 E2.25914
G1 X106.162 Y133.235 E2.27501
G1 X106.388 Y132.702 E2.29571
G1 X106.591 Y132.17 E2.31607
G1 X106.748 Y131.706 E2.33358
G1 X106.86 Y131.352 E2.34686
G1 X107.095 Y130.532 E2.37736
G1 X107.26 Y129.859 E2.40213
G1 X107.338 Y129.507 E2.41502
G1 X107.448 Y128.911 E2.43669
G1 X107.514 Y128.503 E2.45147
G1 X107.595 Y127.864 E2.4745
G1 X107.632 Y127.519 E2.4869
G1 X107.703 Y126.771 E2.51377
G1 X107.765 Y126.018 E2.54078
G1 X107.841 Y124.942 E2.57935
G1 X107.91 Y123.856 E2.61826
G1 X107.971 Y122.768 E2.65722
G1 X108.026 Y121.676 E2.69632
G1 X108.095 Y120.197 E2.74925
G1 X108.158 Y118.728 E2.80183
G1 X108.268 Y115.752 E2.9083
G1 X108.374 Y112.456 E3.02621
G1 X108.467 Y109.156 E3.14425
G1 X108.549 Y105.859 E3.26217
G1 X108.623 Y102.551 E3.38048
G1 X108.703 Y98.583 E3.52238
G1 X108.862 Y89.316 E3.85377
G1 X108.99 Y80.344 E4.17459
G1 X109.036 Y79.954 E4.18863
G1 X109.159 Y79.581 E4.20267
G1 X109.355 Y79.241 E4.2167
G1 X109.616 Y78.947 E4.23076
G1 X109.931 Y78.712 E4.24481
G1 X110.287 Y78.545 E4.25887
G1 X110.669 Y78.454 E4.27291
G1 X110.925 Y78.437 E4.28209
G1 X131.897 Y78.437 E5.03193
G1 X132.288 Y78.477 E5.04599
G1 X132.663 Y78.595 E5.06004
G1 X133.006 Y78.786 E5.07408
G1 X133.303 Y79.043 E5.08812
G1 X133.543 Y79.355 E5.1022
G1 X133.714 Y79.708 E5.11622
G1 X133.811 Y80.089 E5.13028
G1 X133.832 Y80.372 E5.14042
G1 X133.832 Y83.372 E5.24769
G1 X133.792 Y83.763 E5.26174
G1 X133.674 Y84.138 E5.2758
G1 X133.483 Y84.481 E5.28983
G1 X133.226 Y84.778 E5.30388
G1 X132.914 Y85.018 E5.31795
G1 X132.561 Y85.189 E5.33197
G1 X132.18 Y85.286 E5.34603
G1 X131.897 Y85.307 E5.35618
G1 X122.393 Y85.307 E5.69599
G1 X122.174 Y85.314 E5.70382
G1 X122.025 Y85.33 E5.70918
G1 X121.893 Y85.355 E5.71399
G1 X121.717 Y85.4 E5.72048
G1 X121.58 Y85.448 E5.72567
G1 X121.437 Y85.51 E5.73124
G1 X121.307 Y85.579 E5.73651
G1 X121.167 Y85.667 E5.74242
G1 X121.04 Y85.759 E5.74803
G1 X120.925 Y85.857 E5.75343
G1 X120.818 Y85.964 E5.75884
G1 X120.719 Y86.078 E5.76424
G1 X120.627 Y86.203 E5.76979
G1 X120.547 Y86.329 E5.77512
G1 X120.473 Y86.47 E5.78082
G1 X120.414 Y86.603 E5.78602
G1 X120.359 Y86.758 E5.7919
G1 X120.312 Y86.931 E5.79831
G1 X120.283 Y87.085 E5.80391
G1 X113.708 Y129.691 E7.34531
G1 X113.514 Y130.539 E7.37641
G1 X113.201 Y131.794 E7.42266
G1 X112.987 Y132.588 E7.45206
G1 X112.654 Y133.712 E7.49397
G1 X112.423 Y134.428 E7.52087
G1 X112.186 Y135.106 E7.54655
G1 X111.948 Y135.741 E7.5708
G1 X111.691 Y136.364 E7.5949
G1 X111.435 Y136.937 E7.61734
G1 X111.296 Y137.229 E7.6289
G1 X111.157 Y137.506 E7.63998
G1 X110.889 Y138.004 E7.6602
G1 X110.732 Y138.274 E7.67137
G1 X110.454 Y138.72 E7.69016
G1 X110.274 Y138.982 E7.70152
G1 X109.977 Y139.379 E7.71925
G1 X109.786 Y139.613 E7.73005
G1 X109.459 Y139.97 E7.74736
G1 X109.357 Y140.073 E7.75254
G1 X109.09 Y140.322 E7.7656
G1 X108.96 Y140.433 E7.77171
G1 X108.688 Y140.645 E7.78404
G1 X108.535 Y140.752 E7.79071
G1 X108.261 Y140.926 E7.80232
G1 X108.077 Y141.03 E7.80988
G1 X107.798 Y141.167 E7.82099
G1 X107.604 Y141.249 E7.82852
G1 X107.317 Y141.353 E7.83944
G1 X107.073 Y141.424 E7.84852
G1 X106.786 Y141.487 E7.85903
G1 X106.567 Y141.522 E7.86696
G1 X106.272 Y141.552 E7.87756
G1 X106.017 Y141.561 E7.88668
G1 X105.72 Y141.552 E7.89731
G1 X105.498 Y141.533 E7.90527
G1 X105.198 Y141.489 E7.91611
G1 X104.976 Y141.442 E7.92423
G1 X104.668 Y141.359 E7.93563
G1 X104.478 Y141.297 E7.94278
G1 X104.168 Y141.178 E7.95465
G1 X104.009 Y141.109 E7.96085
G1 X103.697 Y140.956 E7.97327
G1 X103.55 Y140.876 E7.97926
G1 X103.108 Y140.604 E7.99781
G1 X102.785 Y140.375 E8.01197
G1 X102.549 Y140.193 E8.02263
G1 X102.335 Y140.016 E8.03256
G1 X101.858 Y139.586 E8.05552
G1 X101.15 Y138.928 E8.09008
G1 X100.831 Y138.62 E8.10593
G1 X100.075 Y137.898 E8.14331
G1 X99.282 Y137.11 E8.18328
G1 X98.833 Y136.651 E8.20624
G1 X98.274 Y136.07 E8.23506
G1 X97.727 Y135.485 E8.2637
G1 X97.196 Y134.901 E8.29192
G1 X96.679 Y134.32 E8.31973
G1 X96.18 Y133.738 E8.34714
G1 X95.696 Y133.161 E8.37407
G1 X95.224 Y132.579 E8.40086
G1 X94.775 Y132.008 E8.42683
G1 X94.334 Y131.427 E8.45291
G1 X93.914 Y130.855 E8.47828
G1 X93.508 Y130.281 E8.50342
G1 X93.025 Y129.565 E8.5343
G1 X85.346 Y119.239 E8.9944
G1 X85.223 Y119.051 E9.00244
G1 X85.122 Y118.876 E9.00966
G1 X84.933 Y118.423 E9.02721
G1 X84.871 Y118.198 E9.03556
G1 X84.802 Y117.732 E9.0524
G1 X84.797 Y117.532 E9.05955
G1 X84.837 Y117.088 E9.07549
G1 X84.878 Y116.892 E9.08265
G1 X85.021 Y116.465 E9.09875
G1 X85.107 Y116.282 E9.10598
G1 X85.344 Y115.9 E9.12205
G1 X85.469 Y115.743 E9.12923
G1 X85.819 Y115.402 E9.1467
G1 X86.005 Y115.262 E9.15503
G1 X86.342 Y115.059 E9.16909
G1 X86.525 Y114.983 E9.17618
G1 X86.811 Y114.882 E9.18702
G1 X87.193 Y114.79 E9.20107
G1 X87.455 Y114.772 E9.21046
G1 X87.756 Y114.772 E9.22122
G1 X88.251 Y114.836 E9.23907
G1 X91.811 Y115.781 E9.37076
G1 X94.219 Y116.569 E9.46135
G1 X94.022 Y94.587 E10.24734
G1 X93.938 Y94.517 E10.25125
G1 X93.565 Y94.102 E10.2712
G1 X93.408 Y93.866 E10.28134
G1 X93.173 Y93.375 E10.3008
G1 X93.088 Y93.105 E10.31092
G1 X92.999 Y92.564 E10.33053
G1 X92.993 Y92.277 E10.34079
G1 X93.063 Y91.72 E10.36086
G1 X93.108 Y91.558 E10.36687
G1 X93.065 Y91.425 E10.37187
G1 X92.973 Y90.885 E10.39146
G1 X92.965 Y90.597 E10.40176
G1 X93.034 Y90.028 E10.42225
G1 X93.08 Y89.862 E10.42841
G1 X93.036 Y89.725 E10.43355
G1 X92.944 Y89.187 E10.45307
G1 X92.936 Y88.9 E10.46334
G1 X93.003 Y88.337 E10.48361
G1 X93.05 Y88.165 E10.48998
G1 X93.008 Y88.036 E10.49483
G1 X92.914 Y87.49 E10.51464
G1 X92.906 Y87.202 E10.52494
G1 X92.975 Y86.633 E10.54544
G1 X93.02 Y86.468 E10.55155
G1 X92.978 Y86.338 E10.55644
G1 X92.884 Y85.792 E10.57625
G1 X92.876 Y85.504 E10.58655
G1 X92.945 Y84.935 E10.60704
G1 X92.991 Y84.769 E10.6132
G1 X92.931 Y84.571 E10.6206
G1 X92.849 Y84.014 E10.64073
G1 X92.849 Y83.718 E10.65131
G1 X92.938 Y83.137 E10.67233
G1 X93.027 Y82.854 E10.68293
G1 X93.08 Y82.745 E10.68727
G0 F2160 X93.277 Y82.34
G0 X93.443 Y82.098
G0 F7500 X93.798 Y82.342
G1 F2400 X94.098 Y82.018 E10.70305
G1 X94.324 Y81.837 E10.71341
G1 X94.699 Y81.617 E10.72895
G1 X94.97 Y81.507 E10.73941
G1 X95.399 Y81.403 E10.75519
G1 X95.694 Y81.376 E10.76578
G1 X96.013 Y81.381 E10.77719
G1 X96.161 Y81.399 E10.78252
G1 X96.497 Y81.48 E10.79488
G1 X96.807 Y81.636 E10.80729
G1 X97.072 Y81.859 E10.81967
G1 X97.28 Y82.136 E10.83206
G1 X97.432 Y82.503 E10.84626
G1 X99.903 Y91.704 E11.1869
G1 X99.95 Y92.215 E11.20524
G1 X99.68 Y95.549 E11.32484
G1 X99.498 Y98.046 E11.41436
G1 X99.313 Y100.931 E11.51772
G1 X99.177 Y103.426 E11.60706
G1 X99.067 Y105.92 E11.69632
G1 X98.985 Y108.403 E11.78515
G1 X98.957 Y109.657 E11.82999
G1 X98.926 Y112.129 E11.91839
G1 X98.924 Y113.348 E11.96197
G1 X98.933 Y114.556 E12.00516
G1 X98.953 Y115.793 E12.0494
G1 X98.985 Y116.995 E12.09239
G1 X99.029 Y118.21 E12.13586
G1 X99.088 Y119.421 E12.17921
G1 X99.163 Y120.629 E12.22249
G1 X99.256 Y121.855 E12.26645
G1 X99.327 Y122.656 E12.2952
G1 X99.474 Y124.061 E12.34571
G1 X99.623 Y125.231 E12.38788
G1 X99.706 Y125.811 E12.40883
G1 X99.901 Y127.015 E12.45244
G1 X100.081 Y127.97 E12.48718
G1 X100.199 Y128.537 E12.50789
G1 X100.465 Y129.647 E12.5487
G1 X100.655 Y130.374 E12.57557
G1 X101.026 Y131.627 E12.62229
G1 X101.271 Y132.362 E12.64999
G1 X101.532 Y133.063 E12.67674
G1 X101.676 Y133.412 E12.69024
G1 X101.97 Y134.059 E12.71565
G1 X102.081 Y134.279 E12.72446
G1 X102.227 Y134.551 E12.7355
G1 X102.367 Y134.787 E12.74531
G1 X102.504 Y135.002 E12.75442
G1 X102.665 Y135.228 E12.76434
G1 X102.757 Y135.348 E12.76975
G1 X102.898 Y135.511 E12.77746
G1 X103.079 Y135.696 E12.78671
G1 X103.24 Y135.834 E12.79429
G1 X103.396 Y135.943 E12.8011
G1 X103.565 Y136.036 E12.80799
G1 X103.675 Y136.083 E12.81227
G1 X103.803 Y136.122 E12.81705
G1 X103.911 Y136.144 E12.82099
G1 X104.033 Y136.155 E12.82537
G1 X104.223 Y136.142 E12.83218
G1 X104.399 Y136.102 E12.83864
G1 X104.566 Y136.039 E12.84502
G1 X104.754 Y135.939 E12.85263
G1 X104.93 Y135.819 E12.86025
G1 X105.143 Y135.638 E12.87024
G1 X105.313 Y135.466 E12.87889
G1 X105.408 Y135.354 E12.88414
G1 X105.62 Y135.088 E12.8963
G1 X105.764 Y134.884 E12.90523
G1 X105.906 Y134.662 E12.91465
G1 X106.06 Y134.402 E12.92546
G1 X106.21 Y134.129 E12.93659
G1 X106.356 Y133.84 E12.94817
G1 X106.539 Y133.444 E12.96377
G1 X106.801 Y132.826 E12.98777
G1 X106.998 Y132.308 E13.00758
G1 X107.161 Y131.828 E13.02571
G1 X107.268 Y131.487 E13.03849
G1 X107.509 Y130.649 E13.06966
G1 X107.683 Y129.939 E13.0958
G1 X107.76 Y129.587 E13.10868
G1 X107.867 Y129.011 E13.12963
G1 X107.944 Y128.537 E13.1468
G1 X108.022 Y127.919 E13.16907
G1 X108.06 Y127.564 E13.18184
G1 X108.129 Y126.829 E13.20823
G1 X108.193 Y126.053 E13.23607
G1 X108.27 Y124.972 E13.27482
G1 X108.339 Y123.883 E13.31384
G1 X108.4 Y122.792 E13.35291
G1 X108.456 Y121.698 E13.39207
G1 X108.525 Y120.223 E13.44487
G1 X108.587 Y118.736 E13.49808
G1 X108.698 Y115.768 E13.60428
G1 X108.804 Y112.47 E13.72226
G1 X108.897 Y109.173 E13.84019
G1 X108.978 Y105.866 E13.95846
G1 X109.053 Y102.561 E14.07666
G1 X109.133 Y98.592 E14.2186
G1 X109.292 Y89.323 E14.55006
G1 X109.42 Y80.351 E14.87088
G1 X109.465 Y80.007 E14.88329
G1 X109.587 Y79.683 E14.89567
G1 X109.78 Y79.395 E14.90806
G1 X110.034 Y79.159 E14.92046
G1 X110.335 Y78.988 E14.93284
G1 X110.667 Y78.889 E14.94522
G1 X110.925 Y78.867 E14.95448
G1 X131.897 Y78.867 E15.70433
G1 X132.241 Y78.907 E15.71671
G1 X132.567 Y79.024 E15.72909
G1 X132.857 Y79.213 E15.74147
G1 X133.097 Y79.464 E15.75389
G1 X133.273 Y79.762 E15.76626
G1 X133.376 Y80.093 E15.77866
G1 X133.402 Y80.372 E15.78867
G1 X133.402 Y83.372 E15.89594
G1 X133.362 Y83.716 E15.90832
G1 X133.245 Y84.042 E15.9207
G1 X133.056 Y84.332 E15.93308
G1 X132.805 Y84.572 E15.9455
G1 X132.507 Y84.748 E15.95787
G1 X132.176 Y84.851 E15.97027
G1 X131.897 Y84.877 E15.98029
G1 X122.38 Y84.877 E16.32056
G1 X122.141 Y84.884 E16.32911
G1 X121.964 Y84.903 E16.33548
G1 X121.803 Y84.934 E16.34134
G1 X121.6 Y84.987 E16.34884
G1 X121.413 Y85.051 E16.35591
G1 X121.257 Y85.119 E16.36199
G1 X121.09 Y85.207 E16.36874
G1 X120.923 Y85.312 E16.37579
G1 X120.778 Y85.418 E16.38222
G1 X120.64 Y85.536 E16.38871
G1 X120.5 Y85.675 E16.39576
G1 X120.379 Y85.814 E16.40235
G1 X120.273 Y85.958 E16.40874
G1 X120.179 Y86.107 E16.41504
G1 X120.086 Y86.281 E16.4221
G1 X120.007 Y86.462 E16.42916
G1 X119.951 Y86.62 E16.43515
G1 X119.895 Y86.826 E16.44279
G1 X119.856 Y87.034 E16.45035
G1 X113.289 Y129.595 E17.99011
G1 X113.095 Y130.443 E18.02122
G1 X112.784 Y131.689 E18.06713
G1 X112.572 Y132.476 E18.09628
G1 X112.242 Y133.59 E18.13782
G1 X112.014 Y134.296 E18.16434
G1 X111.78 Y134.964 E18.18965
G1 X111.545 Y135.59 E18.21356
G1 X111.294 Y136.2 E18.23714
G1 X111.043 Y136.76 E18.25908
G1 X110.908 Y137.044 E18.27033
G1 X110.773 Y137.313 E18.28109
G1 X110.51 Y137.8 E18.30088
G1 X110.361 Y138.057 E18.3115
G1 X110.09 Y138.492 E18.32982
G1 X109.889 Y138.782 E18.34244
G1 X109.634 Y139.121 E18.35761
G1 X109.456 Y139.337 E18.36761
G1 X109.143 Y139.679 E18.38419
G1 X109.063 Y139.759 E18.38824
G1 X108.796 Y140.008 E18.40129
G1 X108.695 Y140.094 E18.40603
G1 X108.423 Y140.306 E18.41836
G1 X108.305 Y140.389 E18.42352
G1 X108.031 Y140.563 E18.43513
G1 X107.887 Y140.644 E18.44103
G1 X107.608 Y140.781 E18.45215
G1 X107.458 Y140.845 E18.45798
G1 X107.171 Y140.949 E18.46889
G1 X106.981 Y141.004 E18.47596
G1 X106.694 Y141.067 E18.48647
G1 X106.523 Y141.094 E18.49266
G1 X106.228 Y141.124 E18.50326
G1 X106.03 Y141.131 E18.51035
G1 X105.733 Y141.122 E18.52097
G1 X105.561 Y141.107 E18.52714
G1 X105.261 Y141.063 E18.53798
G1 X105.087 Y141.027 E18.54434
G1 X104.779 Y140.944 E18.55574
G1 X104.632 Y140.896 E18.56127
G1 X104.322 Y140.777 E18.57314
G1 X104.198 Y140.723 E18.57798
G1 X103.886 Y140.57 E18.59041
G1 X103.772 Y140.508 E18.59504
G1 X103.357 Y140.253 E18.61246
G1 X103.034 Y140.024 E18.62662
G1 X102.814 Y139.854 E18.63656
G1 X102.611 Y139.686 E18.64598
G1 X102.146 Y139.267 E18.66836
G1 X101.443 Y138.613 E18.70269
G1 X100.372 Y137.587 E18.75572
G1 X99.586 Y136.805 E18.79536
G1 X99.14 Y136.35 E18.81814
G1 X98.584 Y135.772 E18.84682
G1 X98.041 Y135.192 E18.87523
G1 X97.514 Y134.612 E18.90325
G1 X97.001 Y134.034 E18.93088
G1 X96.506 Y133.458 E18.95803
G1 X96.026 Y132.885 E18.98476
G1 X95.559 Y132.308 E19.0113
G1 X95.112 Y131.742 E19.03709
G1 X94.676 Y131.167 E19.06289
G1 X94.261 Y130.601 E19.08798
G1 X93.859 Y130.033 E19.11286
G1 X93.383 Y129.325 E19.14336
G1 X85.691 Y118.982 E19.60423
G1 X85.596 Y118.836 E19.61046
G1 X85.495 Y118.661 E19.61768
G1 X85.347 Y118.309 E19.63134
G1 X85.285 Y118.084 E19.63968
G1 X85.231 Y117.722 E19.65277
G1 X85.226 Y117.522 E19.65992
G1 X85.258 Y117.176 E19.67234
G1 X85.299 Y116.98 E19.6795
G1 X85.41 Y116.648 E19.69202
G1 X85.496 Y116.465 E19.69925
G1 X85.681 Y116.168 E19.71176
G1 X85.806 Y116.011 E19.71894
G1 X86.078 Y115.746 E19.73251
G1 X86.264 Y115.606 E19.74084
G1 X86.668 Y115.389 E19.75723
