;FLAVOR:Marlin
;TIME:12036
;Filament used: 12.6097m
;Layer height: 0.2
;MINX:52.598
;MINY:59.813
;MINZ:0.25
;MAXX:169.928
;MAXY:185.782
;MAXZ:6.45
;Generated with Cura_SteamEngine 4.5.0
M82 ;absolute extrusion mode
M201 X500.00 Y500.00 Z100.00 E5000.00 ;Setup machine max acceleration
M203 X500.00 Y500.00 Z10.00 E50.00 ;Setup machine max feedrate
M204 P500.00 R1000.00 T500.00 ;Setup Print/Retract/Travel acceleration
M205 X8.00 Y8.00 Z0.40 E5.00 ;Setup Jerk
M220 S100 ;Reset Feedrate
M221 S100 ;Reset Flowrate

M140 S50; start preheating the bed
M104 S220 T0; start preheating hotend
G91 ;Relative positioning
G1 -Z0.01 ; move off the stop
G28 ;Home
G90 ;Absolute positionning
G1 Z2.0 F3000 ;Move Z Axis up
M190 S50; heat to bed setting in Cura and WAIT
M109 S220 T0; heat hotend to setting in Cura and WAIT

G92 E0 ;Reset Extruder
G1 Z2.0 F3000 ;Move Z Axis up
G1 X218 Y20 Z0.28 F5000.0 ;Move to start position
G1 X218 Y200.0 Z0.28 F1500.0 E15 ;Draw the first line
G1 X218 Y200.0 Z0.28 F5000.0 ;Move to side a little
G1 X218 Y15 Z0.28 F1500.0 E30 ;Draw the second line
G92 E0 ;Reset Extruder
G1 Z2.0 F3000 ;Move Z Axis up
G92 E0
G92 E0
G1 F3000 E-6.5
;LAYER_COUNT:32
;LAYER:0
M107
M204 S500
;MESH:PocketImperialScrewSizer.stl
G0 F9000 X153.106 Y66.662 Z0.25
;TYPE:WALL-INNER
G1 F2700 E0
G1 F3000 X152.808 Y66.874 E0.0152
G1 X152.549 Y67.131 E0.03037
G1 X152.339 Y67.432 E0.04563
G1 X152.186 Y67.76 E0.06068
G1 X152.089 Y68.115 E0.07598
G1 X152.06 Y68.478 E0.09112
G1 X152.089 Y68.842 E0.1063
G1 X152.186 Y69.197 E0.1216
G1 X152.339 Y69.526 E0.13669
G1 X152.548 Y69.825 E0.15185
G1 X152.808 Y70.085 E0.16714
G1 X153.106 Y70.293 E0.18225
G1 X153.437 Y70.448 E0.19745
G1 X153.793 Y70.544 E0.21277
G1 X154.155 Y70.573 E0.22787
G1 X154.518 Y70.544 E0.24301
G1 X154.873 Y70.448 E0.2583
G1 X155.203 Y70.293 E0.27346
G1 X155.502 Y70.085 E0.2886
G1 X155.762 Y69.825 E0.30389
G1 X155.971 Y69.526 E0.31906
G1 X156.124 Y69.197 E0.33414
G1 X156.221 Y68.842 E0.34944
G1 X156.25 Y68.478 E0.36462
G1 X156.221 Y68.115 E0.37976
G1 X156.124 Y67.76 E0.39506
G1 X155.971 Y67.432 E0.41011
G1 X155.762 Y67.131 E0.42535
G1 X155.502 Y66.872 E0.4406
G1 X155.202 Y66.662 E0.45583
G1 X154.87 Y66.509 E0.47103
G1 X154.837 Y66.501 E0.47244
G1 X154.521 Y66.415 E0.48605
G1 X154.155 Y66.381 E0.50134
G1 X153.79 Y66.415 E0.51658
G1 X153.703 Y66.438 E0.52032
G0 F2700 X153.44 Y66.508
G0 X153.106 Y66.662
G0 F9000 X153.307 Y67.01
G1 F3000 X153.066 Y67.181 E0.5326
G1 X152.856 Y67.389 E0.54489
G1 X152.687 Y67.632 E0.5572
G1 X152.563 Y67.898 E0.5694
G1 X152.485 Y68.184 E0.58172
G1 X152.461 Y68.478 E0.59399
G1 X152.485 Y68.773 E0.60629
G1 X152.563 Y69.059 E0.61862
G1 X152.687 Y69.325 E0.63082
G1 X152.856 Y69.567 E0.64309
G1 X153.066 Y69.777 E0.65544
G1 X153.307 Y69.945 E0.66765
G1 X153.575 Y70.071 E0.67996
G1 X153.862 Y70.148 E0.69232
G1 X154.155 Y70.172 E0.70454
G1 X154.449 Y70.148 E0.7168
G1 X154.735 Y70.071 E0.72912
G1 X155.002 Y69.945 E0.74139
G1 X155.244 Y69.777 E0.75364
G1 X155.454 Y69.567 E0.76599
G1 X155.623 Y69.325 E0.77826
G1 X155.747 Y69.059 E0.79046
G1 X155.825 Y68.773 E0.80279
G1 X155.849 Y68.478 E0.81509
G1 X155.825 Y68.184 E0.82735
G1 X155.747 Y67.898 E0.83968
G1 X155.623 Y67.632 E0.85188
G1 X155.454 Y67.389 E0.86419
G1 X155.244 Y67.18 E0.8765
G1 X155.002 Y67.01 E0.8888
G1 X154.733 Y66.886 E0.90112
G1 X154.45 Y66.81 E0.9133
G1 X154.155 Y66.783 E0.92561
G1 X153.91 Y66.806 E0.93584
G0 F2700 X153.86 Y66.81
G0 X153.576 Y66.886
G0 X153.307 Y67.01
G0 F9000 X153.508 Y67.358
;TYPE:WALL-OUTER
G1 F3000 X153.324 Y67.488 E0.94521
G1 X153.164 Y67.647 E0.95459
G1 X153.035 Y67.832 E0.96397
G1 X152.94 Y68.036 E0.97332
G1 X152.881 Y68.254 E0.98271
G1 X152.862 Y68.478 E0.99206
G1 X152.881 Y68.703 E1.00144
G1 X152.94 Y68.921 E1.01083
G1 X153.035 Y69.124 E1.02015
G1 X153.164 Y69.309 E1.02953
G1 X153.324 Y69.469 E1.03894
G1 X153.508 Y69.598 E1.04828
G1 X153.712 Y69.694 E1.05765
G1 X153.931 Y69.752 E1.06707
G1 X154.155 Y69.771 E1.07642
G1 X154.38 Y69.752 E1.08581
G1 X154.597 Y69.694 E1.09514
G1 X154.801 Y69.598 E1.10452
G1 X154.986 Y69.469 E1.11389
G1 X155.146 Y69.309 E1.1233
G1 X155.275 Y69.124 E1.13268
G1 X155.37 Y68.921 E1.142
G1 X155.429 Y68.703 E1.15139
G1 X155.448 Y68.478 E1.16077
G1 X155.429 Y68.254 E1.17012
G1 X155.37 Y68.036 E1.17951
G1 X155.275 Y67.832 E1.18887
G1 X155.146 Y67.647 E1.19824
G1 X154.986 Y67.488 E1.20762
G1 X154.801 Y67.358 E1.21702
G1 X154.596 Y67.263 E1.22641
G1 X154.38 Y67.205 E1.23571
G1 X154.155 Y67.185 E1.2451
G1 X154.063 Y67.194 E1.24895
G0 F2700 X153.93 Y67.205
G0 X153.713 Y67.263
G0 X153.508 Y67.358
G0 F9000 X153.345 Y67.473
G0 X153.092 Y67.113
G1 F3000 E-5.25105
G0 F9000 X153.829 Y68.204
G0 X139.85 Y68.961
G0 X140.828 Y70.338
;TYPE:WALL-INNER
G1 F2700 E1.24895
G1 F3000 X141.128 Y70.037 E1.26662
G1 X141.369 Y69.692 E1.28411
G1 X141.548 Y69.309 E1.30169
G1 X141.657 Y68.9 E1.31929
G1 X141.696 Y68.478 E1.33691
G1 X141.657 Y68.056 E1.35452
G1 X141.548 Y67.648 E1.37208
G1 X141.37 Y67.265 E1.38964
G1 X141.128 Y66.919 E1.4072
G1 X140.828 Y66.619 E1.42483
G1 X140.481 Y66.376 E1.44245
G1 X140.1 Y66.199 E1.45991
G1 X139.689 Y66.087 E1.47762
G1 X139.268 Y66.053 E1.49518
G1 X138.846 Y66.087 E1.51279
G1 X138.437 Y66.199 E1.53042
G1 X138.055 Y66.376 E1.54792
G1 X137.708 Y66.621 E1.56558
G1 X137.411 Y66.918 E1.58304
G1 X137.166 Y67.265 E1.6007
G1 X136.989 Y67.647 E1.61821
G1 X136.877 Y68.056 E1.63584
G1 X136.843 Y68.478 E1.65344
G1 X136.877 Y68.9 E1.67104
G1 X136.989 Y69.309 E1.68867
G1 X137.166 Y69.692 E1.70621
G1 X137.411 Y70.038 E1.72384
G1 X137.708 Y70.336 E1.74133
G1 X138.055 Y70.58 E1.75896
G1 X138.438 Y70.758 E1.77652
G1 X138.846 Y70.867 E1.79408
G1 X139.268 Y70.906 E1.8117
G1 X139.69 Y70.867 E1.82932
G1 X140.099 Y70.758 E1.84692
G1 X140.285 Y70.671 E1.85546
G0 F2700 X140.481 Y70.58
G0 X140.828 Y70.338
G0 F9000 X140.57 Y70.03
G1 F3000 X140.82 Y69.779 E1.87018
G1 X141.021 Y69.491 E1.88479
G1 X141.171 Y69.171 E1.89948
G1 X141.262 Y68.83 E1.91415
G1 X141.294 Y68.478 E1.92885
G1 X141.262 Y68.126 E1.94354
G1 X141.171 Y67.785 E1.95821
G1 X141.022 Y67.466 E1.97285
G1 X140.82 Y67.177 E1.98751
G1 X140.57 Y66.927 E2.00221
G1 X140.28 Y66.724 E2.01693
G1 X139.962 Y66.576 E2.03151
G1 X139.62 Y66.483 E2.04625
G1 X139.268 Y66.454 E2.06093
G1 X138.916 Y66.483 E2.07561
G1 X138.575 Y66.576 E2.09031
G1 X138.256 Y66.724 E2.10493
G1 X137.967 Y66.928 E2.11964
G1 X137.718 Y67.177 E2.13428
G1 X137.514 Y67.466 E2.14898
G1 X137.366 Y67.785 E2.1636
G1 X137.273 Y68.126 E2.1783
G1 X137.244 Y68.478 E2.19298
G1 X137.273 Y68.83 E2.20767
G1 X137.366 Y69.171 E2.22236
G1 X137.514 Y69.491 E2.23702
G1 X137.718 Y69.779 E2.25169
G1 X137.967 Y70.029 E2.26636
G1 X138.256 Y70.232 E2.28105
G1 X138.575 Y70.381 E2.29568
G1 X138.916 Y70.472 E2.31036
G1 X139.268 Y70.504 E2.32505
G1 X139.62 Y70.472 E2.33975
G1 X139.962 Y70.381 E2.35446
G1 X140.02 Y70.353 E2.35714
G0 F2700 X140.28 Y70.232
G0 X140.57 Y70.03
G0 F9000 X140.312 Y69.722
;TYPE:WALL-OUTER
G1 F3000 X140.512 Y69.521 E2.36893
G1 X140.674 Y69.29 E2.38066
G1 X140.794 Y69.034 E2.39241
G1 X140.867 Y68.76 E2.4042
G1 X140.892 Y68.478 E2.41597
G1 X140.867 Y68.196 E2.42774
G1 X140.794 Y67.923 E2.43949
G1 X140.674 Y67.667 E2.45124
G1 X140.512 Y67.435 E2.46301
G1 X140.312 Y67.235 E2.47477
G1 X140.079 Y67.072 E2.48659
G1 X139.824 Y66.953 E2.49829
G1 X139.55 Y66.879 E2.51009
G1 X139.268 Y66.855 E2.52185
G1 X138.986 Y66.879 E2.53362
G1 X138.713 Y66.953 E2.54538
G1 X138.457 Y67.072 E2.55712
G1 X138.225 Y67.235 E2.56891
G1 X138.025 Y67.435 E2.58067
G1 X137.862 Y67.667 E2.59245
G1 X137.743 Y67.923 E2.60419
G1 X137.669 Y68.196 E2.61595
G1 X137.645 Y68.478 E2.62772
G1 X137.669 Y68.76 E2.63948
G1 X137.743 Y69.034 E2.65128
G1 X137.862 Y69.29 E2.66302
G1 X138.025 Y69.521 E2.67477
G1 X138.225 Y69.722 E2.68656
G1 X138.457 Y69.884 E2.69833
G1 X138.713 Y70.004 E2.71008
G1 X138.986 Y70.077 E2.72183
G1 X139.268 Y70.102 E2.7336
G1 X139.55 Y70.077 E2.74537
G1 X139.751 Y70.023 E2.75402
G0 F2700 X139.824 Y70.004
G0 X140.079 Y69.884
G0 X140.312 Y69.722
G0 F9000 X140.453 Y69.58
G0 X140.765 Y69.89
G1 F3000 E-3.74598
G0 F9000 X139.754 Y69.058
G0 X123.598 Y69.23
G0 X122.391 Y70.386
;TYPE:WALL-INNER
G1 F2700 E2.75402
G1 F3000 X122.745 Y70.694 E2.77353
G1 X123.138 Y70.938 E2.79276
G1 X123.573 Y71.114 E2.81227
G1 X124.032 Y71.212 E2.83179
G1 X124.501 Y71.232 E2.8513
G1 X124.963 Y71.171 E2.87068
G1 X125.408 Y71.036 E2.89001
G1 X125.826 Y70.826 E2.90946
G1 X126.205 Y70.546 E2.92905
G1 X126.525 Y70.209 E2.94837
G1 X126.787 Y69.823 E2.96777
G1 X126.979 Y69.397 E2.98719
G1 X127.099 Y68.944 E3.00668
G1 X127.137 Y68.478 E3.02611
G1 X127.099 Y68.012 E3.04555
G1 X126.979 Y67.559 E3.06504
G1 X126.787 Y67.133 E3.08446
G1 X126.525 Y66.747 E3.10386
G1 X126.203 Y66.41 E3.12324
G1 X125.827 Y66.131 E3.1427
G1 X125.409 Y65.92 E3.16217
G1 X124.963 Y65.785 E3.18154
G1 X124.498 Y65.724 E3.20104
G1 X124.032 Y65.745 E3.22043
G1 X123.575 Y65.842 E3.23986
G1 X123.139 Y66.018 E3.25941
G1 X122.743 Y66.262 E3.27874
G1 X122.391 Y66.571 E3.29822
G1 X122.099 Y66.935 E3.31762
G1 X121.87 Y67.342 E3.33703
G1 X121.716 Y67.784 E3.35649
G1 X121.635 Y68.243 E3.37587
G1 X121.635 Y68.714 E3.39545
G1 X121.716 Y69.174 E3.41487
G1 X121.87 Y69.614 E3.43425
G1 X122.014 Y69.871 E3.4465
G0 F2700 X122.098 Y70.021
G0 X122.391 Y70.386
G0 F9000 X122.681 Y70.108
G1 F3000 X122.983 Y70.371 E3.46315
G1 X123.32 Y70.58 E3.47964
G1 X123.691 Y70.73 E3.49627
G1 X124.083 Y70.814 E3.51294
G1 X124.483 Y70.831 E3.52959
G1 X124.878 Y70.779 E3.54615
G1 X125.259 Y70.663 E3.56271
G1 X125.616 Y70.484 E3.57931
G1 X125.939 Y70.245 E3.59602
G1 X126.213 Y69.957 E3.61254
G1 X126.437 Y69.627 E3.62913
G1 X126.601 Y69.263 E3.64572
G1 X126.703 Y68.876 E3.66236
G1 X126.736 Y68.478 E3.67897
G1 X126.703 Y68.08 E3.69557
G1 X126.601 Y67.693 E3.71221
G1 X126.437 Y67.329 E3.72881
G1 X126.213 Y66.999 E3.74539
G1 X125.938 Y66.711 E3.76195
G1 X125.616 Y66.473 E3.77859
G1 X125.26 Y66.293 E3.79518
G1 X124.878 Y66.177 E3.81178
G1 X124.481 Y66.125 E3.82842
G1 X124.083 Y66.143 E3.84499
G1 X123.692 Y66.226 E3.8616
G1 X123.32 Y66.376 E3.87828
G1 X122.982 Y66.585 E3.8948
G1 X122.681 Y66.849 E3.91145
G1 X122.431 Y67.16 E3.92804
G1 X122.236 Y67.507 E3.94459
G1 X122.104 Y67.885 E3.96123
G1 X122.035 Y68.278 E3.97782
G1 X122.035 Y68.679 E3.99449
G1 X122.104 Y69.073 E4.01112
G1 X122.236 Y69.449 E4.02769
G1 X122.313 Y69.586 E4.03422
G0 F2700 X122.431 Y69.796
G0 X122.681 Y70.108
G0 F9000 X122.971 Y69.83
;TYPE:WALL-OUTER
G1 F3000 X123.221 Y70.048 E4.04801
G1 X123.502 Y70.222 E4.06176
G1 X123.809 Y70.346 E4.07552
G1 X124.134 Y70.416 E4.08934
G1 X124.465 Y70.43 E4.10312
G1 X124.793 Y70.387 E4.11687
G1 X125.11 Y70.29 E4.13065
G1 X125.406 Y70.142 E4.14441
G1 X125.673 Y69.944 E4.15823
G1 X125.901 Y69.705 E4.17196
G1 X126.087 Y69.431 E4.18573
G1 X126.223 Y69.129 E4.1995
G1 X126.307 Y68.808 E4.2133
G1 X126.335 Y68.478 E4.22707
G1 X126.307 Y68.148 E4.24083
G1 X126.223 Y67.827 E4.25463
G1 X126.087 Y67.525 E4.2684
G1 X125.901 Y67.251 E4.28217
G1 X125.673 Y67.012 E4.2959
G1 X125.406 Y66.815 E4.3097
G1 X125.11 Y66.666 E4.32347
G1 X124.793 Y66.569 E4.33726
G1 X124.464 Y66.526 E4.35105
G1 X124.134 Y66.541 E4.36478
G1 X123.809 Y66.61 E4.3786
G1 X123.502 Y66.734 E4.39236
G1 X123.221 Y66.908 E4.4061
G1 X122.971 Y67.127 E4.41992
G1 X122.764 Y67.385 E4.43367
G1 X122.602 Y67.673 E4.44741
G1 X122.492 Y67.986 E4.46121
G1 X122.435 Y68.313 E4.47501
G1 X122.435 Y68.644 E4.48877
G1 X122.492 Y68.971 E4.50257
G1 X122.602 Y69.283 E4.51632
G1 X122.613 Y69.302 E4.51723
G0 F2700 X122.764 Y69.572
G0 X122.971 Y69.83
G0 F9000 X123.122 Y69.961
G0 X122.833 Y70.293
G1 F3000 E-1.98277
G0 F9000 X123.598 Y69.23
G0 X109.739 Y69.813
G0 X109.837 Y71.512
;TYPE:WALL-INNER
G1 F2700 E4.51723
G1 F3000 X110.296 Y71.386 E4.53702
G1 X110.726 Y71.195 E4.55658
G1 X111.126 Y70.938 E4.57635
G1 X111.478 Y70.624 E4.59596
G1 X111.78 Y70.262 E4.61556
G1 X112.023 Y69.857 E4.6352
G1 X112.201 Y69.419 E4.65485
G1 X112.309 Y68.96 E4.67446
G1 X112.349 Y68.481 E4.69444
G1 X112.312 Y68.008 E4.71417
G1 X112.209 Y67.557 E4.7334
G1 X112.033 Y67.118 E4.75306
G1 X111.793 Y66.712 E4.77267
G1 X111.494 Y66.348 E4.79226
G1 X111.143 Y66.032 E4.81189
G1 X110.747 Y65.773 E4.83156
G1 X110.316 Y65.579 E4.85121
G1 X109.86 Y65.451 E4.87091
G1 X109.394 Y65.397 E4.89041
G1 X108.924 Y65.411 E4.90996
G1 X108.455 Y65.5 E4.92981
G1 X108.011 Y65.659 E4.94941
G1 X107.596 Y65.881 E4.96898
G1 X107.219 Y66.168 E4.98868
G1 X106.89 Y66.507 E5.00832
G1 X106.618 Y66.893 E5.02795
G1 X106.405 Y67.315 E5.0476
G1 X106.263 Y67.767 E5.0673
G1 X106.189 Y68.231 E5.08684
G1 X106.187 Y68.7 E5.10633
G1 X106.255 Y69.167 E5.12596
G1 X106.396 Y69.621 E5.14572
G1 X106.605 Y70.046 E5.16541
G1 X106.876 Y70.434 E5.18509
G1 X107.202 Y70.774 E5.20467
G1 X107.575 Y71.061 E5.22424
G1 X107.989 Y71.288 E5.24387
G1 X108.436 Y71.451 E5.26365
G1 X108.899 Y71.54 E5.28325
G1 X109.199 Y71.553 E5.29573
G0 F2700 X109.366 Y71.56
G0 X109.837 Y71.512
G0 F9000 X109.763 Y71.117
G1 F3000 X110.161 Y71.008 E5.31289
G1 X110.536 Y70.842 E5.32994
G1 X110.883 Y70.619 E5.34709
G1 X111.19 Y70.345 E5.3642
G1 X111.453 Y70.03 E5.38126
G1 X111.664 Y69.678 E5.39832
G1 X111.819 Y69.297 E5.41542
G1 X111.913 Y68.897 E5.4325
G1 X111.948 Y68.48 E5.4499
G1 X111.916 Y68.069 E5.46704
G1 X111.826 Y67.677 E5.48376
G1 X111.673 Y67.295 E5.50087
G1 X111.464 Y66.942 E5.51793
G1 X111.204 Y66.625 E5.53497
G1 X110.898 Y66.35 E5.55208
G1 X110.554 Y66.125 E5.56916
G1 X110.179 Y65.956 E5.58627
G1 X109.783 Y65.845 E5.60336
G1 X109.377 Y65.798 E5.62036
G1 X108.967 Y65.81 E5.63741
G1 X108.561 Y65.887 E5.65459
G1 X108.174 Y66.026 E5.67169
G1 X107.813 Y66.219 E5.6887
G1 X107.485 Y66.468 E5.70583
G1 X107.199 Y66.763 E5.72291
G1 X106.962 Y67.099 E5.74
G1 X106.777 Y67.466 E5.75709
G1 X106.653 Y67.859 E5.77422
G1 X106.589 Y68.263 E5.79123
G1 X106.587 Y68.672 E5.80823
G1 X106.646 Y69.078 E5.82529
G1 X106.769 Y69.473 E5.84249
G1 X106.95 Y69.842 E5.85958
G1 X107.186 Y70.179 E5.87668
G1 X107.47 Y70.475 E5.89374
G1 X107.795 Y70.725 E5.91078
G1 X108.155 Y70.923 E5.92786
G1 X108.543 Y71.064 E5.94503
G1 X108.946 Y71.142 E5.96209
G1 X109.125 Y71.15 E5.96954
G0 F2700 X109.354 Y71.159
G0 X109.763 Y71.117
G0 F9000 X109.689 Y70.722
;TYPE:WALL-OUTER
G1 F3000 X110.027 Y70.63 E5.98411
G1 X110.346 Y70.489 E5.99861
G1 X110.64 Y70.3 E6.01314
G1 X110.902 Y70.066 E6.02774
G1 X111.126 Y69.798 E6.04226
G1 X111.305 Y69.499 E6.05675
G1 X111.437 Y69.175 E6.0713
G1 X111.517 Y68.834 E6.08586
G1 X111.547 Y68.479 E6.10067
G1 X111.52 Y68.13 E6.11522
G1 X111.443 Y67.797 E6.12943
G1 X111.313 Y67.472 E6.14399
G1 X111.135 Y67.172 E6.15849
G1 X110.914 Y66.902 E6.173
G1 X110.654 Y66.668 E6.18754
G1 X110.361 Y66.477 E6.20208
G1 X110.042 Y66.333 E6.21663
G1 X109.706 Y66.239 E6.23114
G1 X109.36 Y66.199 E6.24562
G1 X109.01 Y66.209 E6.26018
G1 X108.666 Y66.274 E6.27473
G1 X108.337 Y66.392 E6.28926
G1 X108.03 Y66.557 E6.30375
G1 X107.751 Y66.768 E6.31829
G1 X107.508 Y67.019 E6.33282
G1 X107.306 Y67.305 E6.34738
G1 X107.149 Y67.617 E6.3619
G1 X107.043 Y67.951 E6.37647
G1 X106.989 Y68.295 E6.39094
G1 X106.987 Y68.644 E6.40545
G1 X107.037 Y68.989 E6.41995
G1 X107.142 Y69.324 E6.43454
G1 X107.296 Y69.638 E6.44908
G1 X107.496 Y69.924 E6.46359
G1 X107.738 Y70.176 E6.47812
G1 X108.015 Y70.389 E6.49265
G1 X108.321 Y70.558 E6.50718
G1 X108.65 Y70.677 E6.52172
G1 X108.993 Y70.744 E6.53625
G1 X109.05 Y70.747 E6.53863
G0 F2700 X109.341 Y70.758
G0 X109.689 Y70.722
G0 F9000 X109.882 Y70.67
G0 X109.997 Y71.094
G1 F3000 E0.03863
G0 F9000 X109.532 Y69.869
G0 X95.673 Y68.475
G0 X97.342 Y68.481
;TYPE:WALL-INNER
G1 F2700 E6.53863
G1 F3000 X97.306 Y67.995 E6.55889
G1 X97.207 Y67.526 E6.57882
G1 X97.036 Y67.069 E6.5991
G1 X96.804 Y66.641 E6.61934
G1 X96.514 Y66.252 E6.63952
G1 X96.172 Y65.906 E6.65974
G1 X95.782 Y65.611 E6.68007
G1 X95.355 Y65.377 E6.70032
G1 X94.896 Y65.204 E6.72071
G1 X94.422 Y65.101 E6.74088
G1 X93.941 Y65.065 E6.76093
G1 X93.455 Y65.093 E6.78117
G1 X92.974 Y65.197 E6.80163
G1 X92.516 Y65.367 E6.82194
G1 X92.088 Y65.599 E6.84218
G1 X91.697 Y65.89 E6.86244
G1 X91.353 Y66.232 E6.88261
G1 X91.059 Y66.622 E6.90292
G1 X90.825 Y67.049 E6.92316
G1 X90.652 Y67.505 E6.94344
G1 X90.548 Y67.982 E6.96373
