;DSP;;;;;;;;;;;;;;;;;;;;;;;;;;;;;;;;;;;;;;;;;;;;;;;;;    20     ;;;;;;;;;;;;;;;;;;;;;;;;;;;;;;;;;;;;;;;;;;;;;;;;;;

;FLAVOR:Marlin
;TIME:2123
;Filament used: 1.29765m
;Layer height: 0.16
;MINX:50
;MINY:204
;MINZ:0.2
;MAXX:96
;MAXY:250
;MAXZ:10
;Generated with Cura_SteamEngine 4.5.0
M140 S20
M105
M190 S20
M104 S200
M105
M109 S200
M82 ;absolute extrusion mode
M201 X500.00 Y500.00 Z100.00 E5000.00 ;Setup machine max acceleration
M203 X500.00 Y500.00 Z10.00 E50.00 ;Setup machine max feedrate
M204 P500.00 R1000.00 T500.00 ;Setup Print/Retract/Travel acceleration
M205 X8.00 Y8.00 Z0.40 E5.00 ;Setup Jerk
M220 S100 ;Reset Feedrate
M221 S100 ;Reset Flowrate

G28 ;Home

G92 E0 ;Reset Extruder
G1 Z2.0 F3000 ;Move Z Axis up
G1 X10.1 Y20 Z0.28 F5000.0 ;Move to start position
G1 X10.1 Y200.0 Z0.28 F1500.0 E15 ;Draw the first line
G1 X10.4 Y200.0 Z0.28 F5000.0 ;Move to side a little
G1 X10.4 Y20 Z0.28 F1500.0 E30 ;Draw the second line
G92 E0 ;Reset Extruder
G1 Z2.0 F3000 ;Move Z Axis up

G92 E0
G92 E0
G1 F1500 E-6.5
;LAYER_COUNT:56
;LAYER:0
M107
G0 F6000 X52.265 Y204.103 Z0.2
;TYPE:SKIRT
G1 F1500 E0
G1 F1200 X52.925 Y204.01 E0.02217
G1 X53.33 Y204 E0.03564
G1 X92.336 Y204 E1.33299
G1 X93.034 Y204.01 E1.35621
G1 X93.521 Y204.057 E1.37248
G1 X93.994 Y204.183 E1.38876
G1 X94.441 Y204.384 E1.40506
G1 X94.849 Y204.654 E1.42133
G1 X95.207 Y204.988 E1.43762
G1 X95.506 Y205.375 E1.45388
G1 X95.739 Y205.806 E1.47018
G1 X95.898 Y206.269 E1.48646
G1 X95.99 Y206.926 E1.50853
G1 X96 Y207.33 E1.52197
G1 X96 Y246.301 E2.81815
G1 X95.991 Y247.028 E2.84233
G1 X95.945 Y247.515 E2.8586
G1 X95.82 Y247.989 E2.8749
G1 X95.62 Y248.436 E2.89119
G1 X95.35 Y248.844 E2.90746
G1 X95.018 Y249.203 E2.92373
G1 X94.631 Y249.503 E2.94001
G1 X94.201 Y249.736 E2.95628
G1 X93.738 Y249.897 E2.97258
G1 X93.075 Y249.99 E2.99485
G1 X92.67 Y250 E3.00833
G1 X53.668 Y250 E4.30554
G1 X52.97 Y249.991 E4.32876
G1 X52.483 Y249.945 E4.34503
G1 X52.01 Y249.82 E4.3613
G1 X51.563 Y249.62 E4.37759
G1 X51.155 Y249.349 E4.39388
G1 X50.796 Y249.016 E4.41016
G1 X50.496 Y248.63 E4.42642
G1 X50.263 Y248.199 E4.44272
G1 X50.103 Y247.737 E4.45898
G1 X50.01 Y247.072 E4.48131
G1 X50 Y246.658 E4.49509
G1 X50 Y207.633 E5.79306
G1 X50.009 Y206.968 E5.81518
G1 X50.056 Y206.481 E5.83146
G1 X50.181 Y206.008 E5.84773
G1 X50.381 Y205.561 E5.86402
G1 X50.652 Y205.153 E5.88031
G1 X50.985 Y204.795 E5.89657
G1 X51.372 Y204.495 E5.91286
G1 X51.803 Y204.262 E5.92915
G1 X52.265 Y204.103 E5.9454
G0 F6000 X52.169 Y204.548
G1 F1200 X52.611 Y204.44 E5.96054
G1 X52.936 Y204.41 E5.97139
G1 X53.33 Y204.4 E5.9845
G1 X92.33 Y204.4 E7.28164
G1 X93.028 Y204.41 E7.30486
G1 X93.482 Y204.457 E7.32004
G1 X93.92 Y204.582 E7.33519
G1 X94.329 Y204.781 E7.35032
G1 X94.698 Y205.049 E7.36549
G1 X95.014 Y205.377 E7.38064
G1 X95.268 Y205.755 E7.39579
G1 X95.452 Y206.172 E7.41094
G1 X95.561 Y206.614 E7.42609
G1 X95.59 Y206.937 E7.43687
G1 X95.6 Y207.33 E7.44995
G1 X95.6 Y246.296 E8.74596
G1 X95.591 Y247.023 E8.77014
G1 X95.545 Y247.477 E8.78532
G1 X95.421 Y247.915 E8.80046
G1 X95.223 Y248.325 E8.81561
G1 X94.956 Y248.694 E8.83075
G1 X94.628 Y249.011 E8.84593
G1 X94.25 Y249.266 E8.86109
G1 X93.834 Y249.451 E8.87623
G1 X93.392 Y249.56 E8.89138
G1 X93.064 Y249.59 E8.90233
G1 X92.67 Y249.6 E8.91544
G1 X53.673 Y249.6 E10.21249
G1 X52.975 Y249.591 E10.2357
G1 X52.522 Y249.545 E10.25085
G1 X52.084 Y249.421 E10.26599
G1 X51.674 Y249.222 E10.28115
G1 X51.305 Y248.955 E10.29629
G1 X50.988 Y248.627 E10.31147
G1 X50.734 Y248.249 E10.32661
G1 X50.549 Y247.833 E10.34176
G1 X50.44 Y247.39 E10.35693
G1 X50.41 Y247.061 E10.36792
G1 X50.4 Y246.658 E10.38133
G1 X50.4 Y207.639 E11.6791
G1 X50.409 Y206.974 E11.70122
G1 X50.455 Y206.521 E11.71637
G1 X50.58 Y206.082 E11.73155
G1 X50.779 Y205.672 E11.74671
G1 X51.046 Y205.304 E11.76183
G1 X51.374 Y204.987 E11.777
G1 X51.752 Y204.733 E11.79215
G1 X52.169 Y204.548 E11.80732
G0 F6000 X52.525 Y204.863
G1 F1200 X52.947 Y204.81 E11.82147
G1 X53.33 Y204.8 E11.83421
G1 X92.325 Y204.8 E13.13119
G1 X93.023 Y204.81 E13.15441
G1 X93.439 Y204.856 E13.16833
G1 X93.839 Y204.98 E13.18226
G1 X94.209 Y205.178 E13.19621
G1 X94.534 Y205.442 E13.21014
G1 X94.803 Y205.763 E13.22407
G1 X95.007 Y206.129 E13.23801
G1 X95.137 Y206.527 E13.25193
G1 X95.19 Y206.948 E13.26604
G1 X95.2 Y207.33 E13.27875
G1 X95.2 Y246.291 E14.5746
G1 X95.191 Y247.018 E14.59878
G1 X95.146 Y247.435 E14.61273
G1 X95.023 Y247.835 E14.62665
G1 X94.826 Y248.205 E14.64059
G1 X94.562 Y248.531 E14.65455
G1 X94.242 Y248.801 E14.66847
G1 X93.876 Y249.005 E14.68241
G1 X93.478 Y249.136 E14.69635
G1 X93.053 Y249.19 E14.71059
G1 X92.67 Y249.2 E14.72334
G1 X53.679 Y249.2 E16.02018
G1 X52.981 Y249.191 E16.0434
G1 X52.564 Y249.146 E16.05735
G1 X52.164 Y249.022 E16.07128
G1 X51.794 Y248.825 E16.08522
G1 X51.468 Y248.561 E16.09917
G1 X51.198 Y248.241 E16.1131
G1 X50.994 Y247.875 E16.12704
G1 X50.863 Y247.477 E16.14097
G1 X50.81 Y247.05 E16.15528
G1 X50.8 Y246.658 E16.16833
G1 X50.8 Y207.644 E17.46594
G1 X50.809 Y206.979 E17.48806
G1 X50.855 Y206.563 E17.50198
G1 X50.978 Y206.162 E17.51593
G1 X51.176 Y205.793 E17.52986
G1 X51.44 Y205.467 E17.54381
G1 X51.761 Y205.198 E17.55774
G1 X52.127 Y204.994 E17.57167
G1 X52.525 Y204.863 E17.58561
G1 F1500 E11.08561
;MESH:BedTemp20.stl
G0 F6000 X54.21 Y208.21
G0 X91.818 Y208.182
G0 X92 Y246
;TYPE:WALL-INNER
G1 F1500 E17.58561
G1 F1200 X54 Y246 E18.8495
G1 X54 Y208 E20.11338
G1 X92 Y208 E21.37727
G1 X92 Y246 E22.64115
G0 F6000 X92.4 Y246.4
G1 F1200 X53.6 Y246.4 E23.93164
G1 X53.6 Y207.6 E25.22214
G1 X92.4 Y207.6 E26.51263
G1 X92.4 Y246.4 E27.80312
G0 F6000 X92.8 Y246.8
;TYPE:WALL-OUTER
G1 F1200 X53.2 Y246.8 E29.12023
G1 X53.2 Y207.2 E30.43733
G1 X92.8 Y207.2 E31.75443
G1 X92.8 Y246.8 E33.07153
G0 F6000 X92.53 Y246.53
G0 X91.89 Y245.61
G0 X91.61 Y245.61
;TYPE:SKIN
G1 F1200 X54.39 Y245.61 E34.30947
G1 X54.39 Y208.39 E35.54741
G1 X91.61 Y208.39 E36.78536
G1 X91.61 Y245.61 E38.0233
G1 F1500 E31.5233
G0 F6000 X91.89 Y245.61
G0 X91.89 Y209.112
G0 X91.45 Y209.112
G1 F1500 E38.0233
G1 F1200 X90.887 Y208.549 E38.04978
G0 F6000 X90.321 Y208.549
G1 F1200 X91.45 Y209.678 E38.10288
G0 F6000 X91.45 Y210.244
G1 F1200 X89.755 Y208.549 E38.18261
G0 F6000 X89.19 Y208.549
G1 F1200 X91.45 Y210.809 E38.28892
G0 F6000 X91.45 Y211.375
G1 F1200 X88.624 Y208.549 E38.42184
G0 F6000 X88.058 Y208.549
G1 F1200 X91.45 Y211.941 E38.58139
G0 F6000 X91.45 Y212.506
G1 F1200 X87.493 Y208.549 E38.76752
G0 F6000 X86.927 Y208.549
G1 F1200 X91.45 Y213.072 E38.98026
G0 F6000 X91.45 Y213.638
G1 F1200 X86.361 Y208.549 E39.21964
G0 F6000 X85.796 Y208.549
G1 F1200 X91.45 Y214.203 E39.48558
G0 F6000 X91.45 Y214.769
G1 F1200 X85.23 Y208.549 E39.77815
G0 F6000 X84.664 Y208.549
G1 F1200 X91.45 Y215.335 E40.09734
G0 F6000 X91.45 Y215.9
G1 F1200 X84.099 Y208.549 E40.44311
G0 F6000 X83.533 Y208.549
G1 F1200 X91.45 Y216.466 E40.8155
G0 F6000 X91.45 Y217.032
G1 F1200 X82.967 Y208.549 E41.21452
G0 F6000 X82.401 Y208.549
G1 F1200 X91.45 Y217.597 E41.64013
G0 F6000 X91.45 Y218.163
G1 F1200 X81.836 Y208.549 E42.09235
G0 F6000 X81.27 Y208.549
G1 F1200 X91.45 Y218.729 E42.57118
G0 F6000 X91.45 Y219.295
G1 F1200 X80.704 Y208.549 E43.07664
G0 F6000 X80.139 Y208.549
G1 F1200 X91.45 Y219.86 E43.60868
G0 F6000 X91.45 Y220.426
G1 F1200 X79.573 Y208.549 E44.16733
G0 F6000 X79.007 Y208.549
G1 F1200 X91.45 Y220.992 E44.75261
G0 F6000 X91.45 Y221.557
G1 F1200 X78.442 Y208.549 E45.36447
G0 F6000 X77.876 Y208.549
G1 F1200 X91.45 Y222.123 E46.00295
G0 F6000 X91.45 Y222.689
G1 F1200 X77.31 Y208.549 E46.66805
G0 F6000 X76.745 Y208.549
G1 F1200 X91.45 Y223.254 E47.35973
G0 F6000 X91.45 Y223.82
G1 F1200 X76.179 Y208.549 E48.07803
G0 F6000 X75.613 Y208.549
G1 F1200 X91.45 Y224.386 E48.82295
G0 F6000 X91.45 Y224.951
G1 F1200 X75.048 Y208.549 E49.59445
G0 F6000 X74.482 Y208.549
G1 F1200 X91.45 Y225.517 E50.39258
G0 F6000 X91.45 Y226.083
G1 F1200 X73.916 Y208.549 E51.21732
G0 F6000 X73.351 Y208.549
G1 F1200 X91.45 Y226.648 E52.06864
G0 F6000 X91.45 Y227.214
G1 F1200 X72.785 Y208.549 E52.94659
G0 F6000 X72.219 Y208.549
G1 F1200 X91.45 Y227.78 E53.85116
G0 F6000 X91.45 Y228.345
G1 F1200 X71.653 Y208.549 E54.78232
G0 F6000 X71.088 Y208.549
G1 F1200 X91.45 Y228.911 E55.74009
G0 F6000 X91.45 Y229.477
G1 F1200 X70.522 Y208.549 E56.72448
G0 F6000 X69.956 Y208.549
G1 F1200 X91.45 Y230.043 E57.73549
G0 F6000 X91.45 Y230.608
G1 F1200 X69.391 Y208.549 E58.77308
G0 F6000 X68.825 Y208.549
G1 F1200 X91.45 Y231.174 E59.83729
G0 F6000 X91.45 Y231.74
G1 F1200 X68.259 Y208.549 E60.92812
G0 F6000 X67.694 Y208.549
G1 F1200 X91.45 Y232.305 E62.04553
G0 F6000 X91.45 Y232.871
G1 F1200 X67.128 Y208.549 E63.18956
G0 F6000 X66.562 Y208.549
G1 F1200 X91.45 Y233.437 E64.36022
G0 F6000 X91.45 Y234.002
G1 F1200 X65.997 Y208.549 E65.55745
G0 F6000 X65.431 Y208.549
G1 F1200 X91.45 Y234.568 E66.7813
G0 F6000 X91.45 Y235.134
G1 F1200 X64.865 Y208.549 E68.03178
G0 F6000 X64.3 Y208.549
G1 F1200 X91.45 Y235.699 E69.30883
G0 F6000 X91.45 Y236.265
G1 F1200 X63.734 Y208.549 E70.61251
G0 F6000 X63.168 Y208.549
G1 F1200 X91.45 Y236.831 E71.94281
G0 F6000 X91.45 Y237.396
G1 F1200 X62.602 Y208.549 E73.29971
G0 F6000 X62.037 Y208.549
G1 F1200 X91.45 Y237.962 E74.6832
G0 F6000 X91.45 Y238.528
G1 F1200 X61.471 Y208.549 E76.09332
G0 F6000 X60.905 Y208.549
G1 F1200 X91.45 Y239.094 E77.53007
G0 F6000 X91.45 Y239.659
G1 F1200 X60.34 Y208.549 E78.99338
G0 F6000 X59.774 Y208.549
G1 F1200 X91.45 Y240.225 E80.48333
G0 F6000 X91.45 Y240.791
G1 F1200 X59.208 Y208.549 E81.99989
G0 F6000 X58.643 Y208.549
G1 F1200 X91.45 Y241.356 E83.54303
G0 F6000 X91.45 Y241.922
G1 F1200 X58.077 Y208.549 E85.1128
G0 F6000 X57.511 Y208.549
G1 F1200 X91.45 Y242.488 E86.70918
G0 F6000 X91.45 Y243.053
G1 F1200 X56.946 Y208.549 E88.33214
G0 F6000 X56.38 Y208.549
G1 F1200 X91.45 Y243.619 E89.98173
G0 F6000 X91.45 Y244.185
G1 F1200 X55.814 Y208.549 E91.65794
G0 F6000 X55.249 Y208.549
G1 F1200 X91.45 Y244.75 E93.36072
G0 F6000 X91.45 Y245.316
G1 F1200 X54.683 Y208.549 E95.09013
G0 F6000 X54.549 Y208.981
G1 F1200 X91.017 Y245.449 E96.80547
G0 F6000 X90.451 Y245.449
G1 F1200 X54.549 Y209.547 E98.49419
G0 F6000 X54.549 Y210.113
G1 F1200 X89.885 Y245.449 E100.15629
G0 F6000 X89.32 Y245.449
G1 F1200 X54.549 Y210.678 E101.79181
G0 F6000 X54.549 Y211.244
G1 F1200 X88.754 Y245.449 E103.40071
G0 F6000 X88.188 Y245.449
G1 F1200 X54.549 Y211.81 E104.98298
G0 F6000 X54.549 Y212.375
G1 F1200 X87.623 Y245.449 E106.53868
G0 F6000 X87.057 Y245.449
G1 F1200 X54.549 Y212.941 E108.06776
G0 F6000 X54.549 Y213.507
G1 F1200 X86.491 Y245.449 E109.57021
G0 F6000 X85.926 Y245.449
G1 F1200 X54.549 Y214.073 E111.04607
G0 F6000 X54.549 Y214.638
G1 F1200 X85.36 Y245.449 E112.49532
G0 F6000 X84.794 Y245.449
G1 F1200 X54.549 Y215.204 E113.91796
G0 F6000 X54.549 Y215.77
G1 F1200 X84.229 Y245.449 E115.31399
G0 F6000 X83.663 Y245.449
G1 F1200 X54.549 Y216.335 E116.68342
G0 F6000 X54.549 Y216.901
G1 F1200 X83.097 Y245.449 E118.02623
G0 F6000 X82.532 Y245.449
G1 F1200 X54.549 Y217.467 E119.34244
G0 F6000 X54.549 Y218.032
G1 F1200 X81.966 Y245.449 E120.63205
G0 F6000 X81.4 Y245.449
G1 F1200 X54.549 Y218.598 E121.89504
G0 F6000 X54.549 Y219.164
G1 F1200 X80.835 Y245.449 E123.13143
G0 F6000 X80.269 Y245.449
G1 F1200 X54.549 Y219.729 E124.34122
G0 F6000 X54.549 Y220.295
G1 F1200 X79.703 Y245.449 E125.52439
G0 F6000 X79.137 Y245.449
G1 F1200 X54.549 Y220.861 E126.68093
G0 F6000 X54.549 Y221.426
G1 F1200 X78.572 Y245.449 E127.8109
G0 F6000 X78.006 Y245.449
G1 F1200 X54.549 Y221.992 E128.91425
G0 F6000 X54.549 Y222.558
G1 F1200 X77.44 Y245.449 E129.99097
G0 F6000 X76.875 Y245.449
G1 F1200 X54.549 Y223.124 E131.04109
G0 F6000 X54.549 Y223.689
G1 F1200 X76.309 Y245.449 E132.06462
G0 F6000 X75.743 Y245.449
G1 F1200 X54.549 Y224.255 E133.06152
G0 F6000 X54.549 Y224.821
G1 F1200 X75.178 Y245.449 E134.03182
G0 F6000 X74.612 Y245.449
G1 F1200 X54.549 Y225.386 E134.97552
G0 F6000 X54.549 Y225.952
G1 F1200 X74.046 Y245.449 E135.8926
G0 F6000 X73.481 Y245.449
G1 F1200 X54.549 Y226.518 E136.78308
G0 F6000 X54.549 Y227.083
G1 F1200 X72.915 Y245.449 E137.64696
G0 F6000 X72.349 Y245.449
G1 F1200 X54.549 Y227.649 E138.48422
G0 F6000 X54.549 Y228.215
G1 F1200 X71.784 Y245.449 E139.29488
G0 F6000 X71.218 Y245.449
G1 F1200 X54.549 Y228.78 E140.07893
G0 F6000 X54.549 Y229.346
G1 F1200 X70.652 Y245.449 E140.83637
G0 F6000 X70.087 Y245.449
G1 F1200 X54.549 Y229.912 E141.56721
G0 F6000 X54.549 Y230.477
G1 F1200 X69.521 Y245.449 E142.27144
G0 F6000 X68.955 Y245.449
G1 F1200 X54.549 Y231.043 E142.94906
G0 F6000 X54.549 Y231.609
G1 F1200 X68.389 Y245.449 E143.60005
G0 F6000 X67.824 Y245.449
G1 F1200 X54.549 Y232.174 E144.22446
G0 F6000 X54.549 Y232.74
G1 F1200 X67.258 Y245.449 E144.82226
G0 F6000 X66.692 Y245.449
G1 F1200 X54.549 Y233.306 E145.39343
G0 F6000 X54.549 Y233.872
G1 F1200 X66.127 Y245.449 E145.938
G0 F6000 X65.561 Y245.449
G1 F1200 X54.549 Y234.437 E146.45597
G0 F6000 X54.549 Y235.003
G1 F1200 X64.995 Y245.449 E146.94731
G0 F6000 X64.43 Y245.449
G1 F1200 X54.549 Y235.569 E147.41206
G0 F6000 X54.549 Y236.134
G1 F1200 X63.864 Y245.449 E147.85021
G0 F6000 X63.298 Y245.449
G1 F1200 X54.549 Y236.7 E148.26174
G0 F6000 X54.549 Y237.266
G1 F1200 X62.733 Y245.449 E148.64666
G0 F6000 X62.167 Y245.449
G1 F1200 X54.549 Y237.831 E149.00499
G0 F6000 X54.549 Y238.397
G1 F1200 X61.601 Y245.449 E149.3367
G0 F6000 X61.036 Y245.449
G1 F1200 X54.549 Y238.963 E149.6418
G0 F6000 X54.549 Y239.528
G1 F1200 X60.47 Y245.449 E149.92031
G0 F6000 X59.904 Y245.449
G1 F1200 X54.549 Y240.094 E150.17219
G0 F6000 X54.549 Y240.66
G1 F1200 X59.338 Y245.449 E150.39745
G0 F6000 X58.773 Y245.449
G1 F1200 X54.549 Y241.225 E150.59613
G0 F6000 X54.549 Y241.791
G1 F1200 X58.207 Y245.449 E150.76819
G0 F6000 X57.641 Y245.449
G1 F1200 X54.549 Y242.357 E150.91363
G0 F6000 X54.549 Y242.922
G1 F1200 X57.076 Y245.449 E151.0325
G0 F6000 X56.51 Y245.449
G1 F1200 X54.549 Y243.488 E151.12473
G0 F6000 X54.549 Y244.054
G1 F1200 X55.944 Y245.449 E151.19035
G0 F6000 X55.379 Y245.449
G1 F1200 X54.549 Y244.62 E151.22937
G0 F6000 X54.549 Y245.185
G1 F1200 X54.813 Y245.449 E151.24179
G0 F6000 X54.813 Y246.19
G1 F1500 E144.74179
;MESH:NONMESH
G0 F300 X54.813 Y246.19 Z0.4
G0 F6000 X92 Y246
;TIME_ELAPSED:245.524910
;LAYER:1
M140 S20
;TYPE:WALL-INNER
;MESH:BedTemp20.stl
G1 F1500 E151.24179
G1 F1350 X54 Y246 E152.50567
G1 X54 Y208 E153.76956
G1 X92 Y208 E155.03344
G1 X92 Y246 E156.29733
G0 F7500 X92.4 Y246.4
G1 F1350 X53.6 Y246.4 E157.58782
G1 X53.6 Y207.6 E158.87831
G1 X92.4 Y207.6 E160.16881
G1 X92.4 Y246.4 E161.4593
G0 F7500 X92.8 Y246.8
;TYPE:WALL-OUTER
G1 F1350 X53.2 Y246.8 E162.7764
G1 X53.2 Y207.2 E164.0935
G1 X92.8 Y207.2 E165.4106
G1 X92.8 Y246.8 E166.72771
G0 F7500 X92.53 Y246.53
G0 X91.89 Y245.61
G0 X91.61 Y245.61
;TYPE:SKIN
G1 F1350 X54.39 Y245.61 E167.96565
G1 X54.39 Y208.39 E169.20359
G1 X91.61 Y208.39 E170.44153
G1 X91.61 Y245.61 E171.67947
G0 F7500 X91.133 Y245.449
G1 F1350 X91.45 Y245.132 E171.69438
G0 F7500 X91.45 Y244.567
G1 F1350 X90.567 Y245.449 E171.73589
G0 F7500 X90.001 Y245.449
G1 F1350 X91.45 Y244.001 E171.80403
G0 F7500 X91.45 Y243.435
G1 F1350 X89.436 Y245.449 E171.89876
G0 F7500 X88.87 Y245.449
G1 F1350 X91.45 Y242.869 E172.02012
G0 F7500 X91.45 Y242.304
G1 F1350 X88.304 Y245.449 E172.16807
G0 F7500 X87.739 Y245.449
G1 F1350 X91.45 Y241.738 E172.34262
G0 F7500 X91.45 Y241.172
G1 F1350 X87.173 Y245.449 E172.5438
G0 F7500 X86.607 Y245.449
G1 F1350 X91.45 Y240.607 E172.77158
G0 F7500 X91.45 Y240.041
G1 F1350 X86.042 Y245.449 E173.02595
G0 F7500 X85.476 Y245.449
G1 F1350 X91.45 Y239.475 E173.30695
G0 F7500 X91.45 Y238.91
G1 F1350 X84.91 Y245.449 E173.61455
G0 F7500 X84.345 Y245.449
G1 F1350 X91.45 Y238.344 E173.94875
G0 F7500 X91.45 Y237.778
G1 F1350 X83.779 Y245.449 E174.30957
G0 F7500 X83.213 Y245.449
G1 F1350 X91.45 Y237.213 E174.69699
G0 F7500 X91.45 Y236.647
G1 F1350 X82.648 Y245.449 E175.11101
G0 F7500 X82.082 Y245.449
G1 F1350 X91.45 Y236.081 E175.55165
G0 F7500 X91.45 Y235.516
G1 F1350 X81.516 Y245.449 E176.01889
G0 F7500 X80.95 Y245.449
G1 F1350 X91.45 Y234.95 E176.51275
G0 F7500 X91.45 Y234.384
G1 F1350 X80.385 Y245.449 E177.03322
