;FLAVOR:Marlin
;TIME:3964
;Filament used: 3.13931m
;Layer height: 0.2
;MINX:14.354
;MINY:21.959
;MINZ:0.2
;MAXX:107.932
;MAXY:35.701
;MAXZ:47.4
;Generated with Cura_SteamEngine 4.2.1
M140 S60
M105
M190 S60
M104 S215
M105
M109 S215
M82 ;absolute extrusion mode
M201 X500.00 Y500.00 Z100.00 E5000.00 ;Setup machine max acceleration
M203 X500.00 Y500.00 Z10.00 E50.00 ;Setup machine max feedrate
M204 P500.00 R1000.00 T500.00 ;Setup Print/Retract/Travel acceleration
M205 X8.00 Y8.00 Z0.40 E5.00 ;Setup Jerk
M220 S100 ;Reset Feedrate
M221 S100 ;Reset Flowrate

G28 ;Home

G92 E0 ;Reset Extruder
G1 Z2.0 F3000 ;Move Z Axis up
G1 X10.1 Y20 Z0.28 F5000.0 ;Move to start position
G1 X10.1 Y200.0 Z0.28 F1500.0 E15 ;Draw the first line
G1 X10.4 Y200.0 Z0.28 F5000.0 ;Move to side a little

G92 E0 ;Reset Extruder
G1 Z2.0 F3000 ;Move Z Axis up
M141 S28
G92 E0
G92 E0
G1 F2700 E-0.4
;LAYER_COUNT:235
;LAYER:0
M107
;MESH:MD3D-MRT-0.4-2.0.stl
G0 F6000 X21.391 Y22.359 Z0.2
;TYPE:WALL-INNER
G1 F2700 E0
G1 F3000 X100.895 Y22.359 E2.64431
G1 X107.366 Y28.83 E2.94869
G1 X100.895 Y35.301 E3.25307
G1 X21.391 Y35.301 E5.89738
G1 X14.92 Y28.83 E6.20176
G1 X21.391 Y22.359 E6.50613
G0 F6000 X21.225 Y21.959
;TYPE:WALL-OUTER
G1 F3000 X101.061 Y21.959 E9.16149
G1 X107.932 Y28.83 E9.48468
G1 X101.061 Y35.701 E9.80787
G1 X21.225 Y35.701 E12.46323
G1 X14.354 Y28.83 E12.78642
G1 X21.225 Y21.959 E13.10961
G0 F6000 X21.393 Y22.365
G0 X21.551 Y22.749
;TYPE:SKIN
G1 F3000 X100.735 Y22.749 E15.74328
G1 X106.816 Y28.83 E16.02931
G1 X100.735 Y34.911 E16.31534
G1 X21.551 Y34.911 E18.94901
G1 X15.47 Y28.83 E19.23504
G1 X21.551 Y22.749 E19.52107
G1 F2700 E19.12107
G1 F600 Z0.6
G0 F6000 X21.739 Y34.75 Z0.6
G1 F600 Z0.2
G1 F2700 E19.52107
G1 F3000 X15.756 Y28.767 E19.8025
G0 F6000 X16.039 Y28.484
G1 F3000 X22.304 Y34.75 E20.09721
G0 F6000 X22.87 Y34.75
G1 F3000 X16.322 Y28.201 E20.40523
G0 F6000 X16.604 Y27.918
G1 F3000 X23.436 Y34.75 E20.72658
G0 F6000 X24.002 Y34.75
G1 F3000 X16.887 Y27.635 E21.06125
G0 F6000 X17.17 Y27.353
G1 F3000 X24.567 Y34.75 E21.40918
G0 F6000 X25.133 Y34.75
G1 F3000 X17.453 Y27.07 E21.77043
G0 F6000 X17.736 Y26.787
G1 F3000 X25.699 Y34.75 E22.14498
G0 F6000 X26.264 Y34.75
G1 F3000 X18.019 Y26.504 E22.53283
G0 F6000 X18.302 Y26.221
G1 F3000 X26.83 Y34.75 E22.93398
G0 F6000 X27.396 Y34.75
G1 F3000 X18.584 Y25.938 E23.34847
G0 F6000 X18.867 Y25.655
G1 F3000 X27.961 Y34.75 E23.77625
G0 F6000 X28.527 Y34.75
G1 F3000 X19.15 Y25.373 E24.21731
G0 F6000 X19.433 Y25.09
G1 F3000 X29.093 Y34.75 E24.67169
G0 F6000 X29.658 Y34.75
G1 F3000 X19.716 Y24.807 E25.13935
G0 F6000 X19.999 Y24.524
G1 F3000 X30.224 Y34.75 E25.62033
G0 F6000 X30.79 Y34.75
G1 F3000 X20.281 Y24.241 E26.11464
G0 F6000 X20.564 Y23.958
G1 F3000 X31.355 Y34.75 E26.62224
G0 F6000 X31.921 Y34.75
G1 F3000 X20.847 Y23.676 E27.14313
G0 F6000 X21.13 Y23.393
G1 F3000 X32.487 Y34.75 E27.67733
G0 F6000 X33.052 Y34.75
G1 F3000 X21.413 Y23.11 E28.22481
G0 F6000 X21.777 Y22.908
G1 F3000 X33.618 Y34.75 E28.7818
G0 F6000 X34.184 Y34.75
G1 F3000 X22.343 Y22.908 E29.33879
G0 F6000 X22.908 Y22.908
G1 F3000 X34.75 Y34.75 E29.8958
G0 F6000 X35.315 Y34.75
G1 F3000 X23.474 Y22.908 E30.45279
G0 F6000 X24.04 Y22.908
G1 F3000 X35.881 Y34.75 E31.00977
G0 F6000 X36.447 Y34.75
G1 F3000 X24.605 Y22.908 E31.56679
G0 F6000 X25.171 Y22.908
G1 F3000 X37.012 Y34.75 E32.12377
G0 F6000 X37.578 Y34.75
G1 F3000 X25.737 Y22.908 E32.68076
G0 F6000 X26.302 Y22.908
G1 F3000 X38.144 Y34.75 E33.23777
G0 F6000 X38.709 Y34.75
G1 F3000 X26.868 Y22.908 E33.79476
G0 F6000 X27.434 Y22.908
G1 F3000 X39.275 Y34.75 E34.35175
G0 F6000 X39.841 Y34.75
G1 F3000 X28 Y22.908 E34.90874
G0 F6000 X28.565 Y22.908
G1 F3000 X40.406 Y34.75 E35.46572
G0 F6000 X40.972 Y34.75
G1 F3000 X29.131 Y22.908 E36.02271
G0 F6000 X29.697 Y22.908
G1 F3000 X41.538 Y34.75 E36.5797
G0 F6000 X42.103 Y34.75
G1 F3000 X30.262 Y22.908 E37.13669
G0 F6000 X30.828 Y22.908
G1 F3000 X42.669 Y34.75 E37.69368
G0 F6000 X43.235 Y34.75
G1 F3000 X31.394 Y22.908 E38.25066
G0 F6000 X31.959 Y22.908
G1 F3000 X43.801 Y34.75 E38.80768
G0 F6000 X44.366 Y34.75
G1 F3000 X32.525 Y22.908 E39.36466
G0 F6000 X33.091 Y22.908
G1 F3000 X44.932 Y34.75 E39.92165
G0 F6000 X45.498 Y34.75
G1 F3000 X33.656 Y22.908 E40.47866
G0 F6000 X34.222 Y22.908
G1 F3000 X46.063 Y34.75 E41.03565
G0 F6000 X46.629 Y34.75
G1 F3000 X34.788 Y22.908 E41.59264
G0 F6000 X35.353 Y22.908
G1 F3000 X47.195 Y34.75 E42.14965
G0 F6000 X47.76 Y34.75
G1 F3000 X35.919 Y22.908 E42.70664
G0 F6000 X36.485 Y22.908
G1 F3000 X48.326 Y34.75 E43.26363
G0 F6000 X48.892 Y34.75
G1 F3000 X37.05 Y22.908 E43.82064
G0 F6000 X37.616 Y22.908
G1 F3000 X49.457 Y34.75 E44.37762
G0 F6000 X50.023 Y34.75
G1 F3000 X38.182 Y22.908 E44.93461
G0 F6000 X38.748 Y22.908
G1 F3000 X50.589 Y34.75 E45.4916
G0 F6000 X51.154 Y34.75
G1 F3000 X39.313 Y22.908 E46.04859
G0 F6000 X39.879 Y22.908
G1 F3000 X51.72 Y34.75 E46.60558
G0 F6000 X52.286 Y34.75
G1 F3000 X40.445 Y22.908 E47.16256
G0 F6000 X41.01 Y22.908
G1 F3000 X52.851 Y34.75 E47.71955
G0 F6000 X53.417 Y34.75
G1 F3000 X41.576 Y22.908 E48.27654
G0 F6000 X42.142 Y22.908
G1 F3000 X53.983 Y34.75 E48.83353
G0 F6000 X54.549 Y34.75
G1 F3000 X42.707 Y22.908 E49.39054
G0 F6000 X43.273 Y22.908
G1 F3000 X55.114 Y34.75 E49.94753
G0 F6000 X55.68 Y34.75
G1 F3000 X43.839 Y22.908 E50.50451
G0 F6000 X44.404 Y22.908
G1 F3000 X56.246 Y34.75 E51.06153
G0 F6000 X56.811 Y34.75
G1 F3000 X44.97 Y22.908 E51.61851
G0 F6000 X45.536 Y22.908
G1 F3000 X57.377 Y34.75 E52.1755
G0 F6000 X57.943 Y34.75
G1 F3000 X46.101 Y22.908 E52.73251
G0 F6000 X46.667 Y22.908
G1 F3000 X58.508 Y34.75 E53.2895
G0 F6000 X59.074 Y34.75
G1 F3000 X47.233 Y22.908 E53.84649
G0 F6000 X47.799 Y22.908
G1 F3000 X59.64 Y34.75 E54.40348
G0 F6000 X60.205 Y34.75
G1 F3000 X48.364 Y22.908 E54.96046
G0 F6000 X48.93 Y22.908
G1 F3000 X60.771 Y34.75 E55.51745
G0 F6000 X61.337 Y34.75
G1 F3000 X49.496 Y22.908 E56.07444
G0 F6000 X50.061 Y22.908
G1 F3000 X61.903 Y34.75 E56.63145
G0 F6000 X62.469 Y34.75
G1 F3000 X50.627 Y22.908 E57.18846
G0 F6000 X51.193 Y22.908
G1 F3000 X63.035 Y34.75 E57.74547
G0 F6000 X63.6 Y34.75
G1 F3000 X51.758 Y22.908 E58.30249
G0 F6000 X52.324 Y22.908
G1 F3000 X64.166 Y34.75 E58.8595
G0 F6000 X64.732 Y34.75
G1 F3000 X52.89 Y22.908 E59.41651
G0 F6000 X53.455 Y22.908
G1 F3000 X65.297 Y34.75 E59.97352
G0 F6000 X65.863 Y34.75
G1 F3000 X54.021 Y22.908 E60.53053
G0 F6000 X54.587 Y22.908
G1 F3000 X66.429 Y34.75 E61.08754
G0 F6000 X66.994 Y34.75
G1 F3000 X55.152 Y22.908 E61.64455
G0 F6000 X55.718 Y22.908
G1 F3000 X67.56 Y34.75 E62.20157
G0 F6000 X68.126 Y34.75
G1 F3000 X56.284 Y22.908 E62.75858
G0 F6000 X56.849 Y22.908
G1 F3000 X68.691 Y34.75 E63.31559
G0 F6000 X69.257 Y34.75
G1 F3000 X57.415 Y22.908 E63.8726
G0 F6000 X57.981 Y22.908
G1 F3000 X69.823 Y34.75 E64.42961
G0 F6000 X70.388 Y34.75
G1 F3000 X58.547 Y22.908 E64.9866
G0 F6000 X59.112 Y22.908
G1 F3000 X70.954 Y34.75 E65.54361
G0 F6000 X71.52 Y34.75
G1 F3000 X59.678 Y22.908 E66.10062
G0 F6000 X60.244 Y22.908
G1 F3000 X72.086 Y34.75 E66.65763
G0 F6000 X72.651 Y34.75
G1 F3000 X60.809 Y22.908 E67.21464
G0 F6000 X61.375 Y22.908
G1 F3000 X73.217 Y34.75 E67.77166
G0 F6000 X73.783 Y34.75
G1 F3000 X61.941 Y22.908 E68.32867
G0 F6000 X62.506 Y22.908
G1 F3000 X74.348 Y34.75 E68.88568
G0 F6000 X74.914 Y34.75
G1 F3000 X63.072 Y22.908 E69.44269
G0 F6000 X63.638 Y22.908
G1 F3000 X75.48 Y34.75 E69.9997
G0 F6000 X76.045 Y34.75
G1 F3000 X64.203 Y22.908 E70.55671
G0 F6000 X64.769 Y22.908
G1 F3000 X76.611 Y34.75 E71.11372
G0 F6000 X77.177 Y34.75
G1 F3000 X65.335 Y22.908 E71.67074
G0 F6000 X65.9 Y22.908
G1 F3000 X77.742 Y34.75 E72.22775
G0 F6000 X78.308 Y34.75
G1 F3000 X66.466 Y22.908 E72.78476
G0 F6000 X67.032 Y22.908
G1 F3000 X78.874 Y34.75 E73.34177
G0 F6000 X79.439 Y34.75
G1 F3000 X67.597 Y22.908 E73.89878
G0 F6000 X68.163 Y22.908
G1 F3000 X80.005 Y34.75 E74.45579
G0 F6000 X80.571 Y34.75
G1 F3000 X68.729 Y22.908 E75.0128
G0 F6000 X69.295 Y22.908
G1 F3000 X81.136 Y34.75 E75.56979
G0 F6000 X81.702 Y34.75
G1 F3000 X69.86 Y22.908 E76.1268
G0 F6000 X70.426 Y22.908
G1 F3000 X82.268 Y34.75 E76.68381
G0 F6000 X82.834 Y34.75
G1 F3000 X70.992 Y22.908 E77.24083
G0 F6000 X71.557 Y22.908
G1 F3000 X83.399 Y34.75 E77.79784
G0 F6000 X83.965 Y34.75
G1 F3000 X72.123 Y22.908 E78.35485
G0 F6000 X72.689 Y22.908
G1 F3000 X84.531 Y34.75 E78.91186
G0 F6000 X85.096 Y34.75
G1 F3000 X73.254 Y22.908 E79.46887
G0 F6000 X73.82 Y22.908
G1 F3000 X85.662 Y34.75 E80.02588
G0 F6000 X86.228 Y34.75
G1 F3000 X74.386 Y22.908 E80.58289
G0 F6000 X74.951 Y22.908
G1 F3000 X86.793 Y34.75 E81.1399
G0 F6000 X87.359 Y34.75
G1 F3000 X75.517 Y22.908 E81.69692
G0 F6000 X76.083 Y22.908
G1 F3000 X87.925 Y34.75 E82.25393
G0 F6000 X88.49 Y34.75
G1 F3000 X76.648 Y22.908 E82.81094
G0 F6000 X77.214 Y22.908
G1 F3000 X89.056 Y34.75 E83.36795
G0 F6000 X89.622 Y34.75
G1 F3000 X77.78 Y22.908 E83.92496
G0 F6000 X78.346 Y22.908
G1 F3000 X90.187 Y34.75 E84.48195
G0 F6000 X90.753 Y34.75
G1 F3000 X78.911 Y22.908 E85.03896
G0 F6000 X79.477 Y22.908
G1 F3000 X91.319 Y34.75 E85.59597
G0 F6000 X91.884 Y34.75
G1 F3000 X80.043 Y22.908 E86.15296
G0 F6000 X80.608 Y22.908
G1 F3000 X92.45 Y34.75 E86.70997
G0 F6000 X93.016 Y34.75
G1 F3000 X81.174 Y22.908 E87.26698
G0 F6000 X81.74 Y22.908
G1 F3000 X93.582 Y34.75 E87.82399
G0 F6000 X94.147 Y34.75
G1 F3000 X82.305 Y22.908 E88.38101
G0 F6000 X82.871 Y22.908
G1 F3000 X94.713 Y34.75 E88.93802
G0 F6000 X95.279 Y34.75
G1 F3000 X83.437 Y22.908 E89.49503
G0 F6000 X84.002 Y22.908
G1 F3000 X95.844 Y34.75 E90.05204
G0 F6000 X96.41 Y34.75
G1 F3000 X84.568 Y22.908 E90.60905
G0 F6000 X85.134 Y22.908
G1 F3000 X96.976 Y34.75 E91.16606
G0 F6000 X97.541 Y34.75
G1 F3000 X85.699 Y22.908 E91.72307
G0 F6000 X86.265 Y22.908
G1 F3000 X98.107 Y34.75 E92.28009
G0 F6000 X98.673 Y34.75
G1 F3000 X86.831 Y22.908 E92.8371
G0 F6000 X87.396 Y22.908
G1 F3000 X99.238 Y34.75 E93.39411
G0 F6000 X99.804 Y34.75
G1 F3000 X87.962 Y22.908 E93.95112
G0 F6000 X88.528 Y22.908
G1 F3000 X100.37 Y34.75 E94.50813
G0 F6000 X100.803 Y34.617
G1 F3000 X89.094 Y22.908 E95.05889
G0 F6000 X89.659 Y22.908
G1 F3000 X101.085 Y34.334 E95.59633
G0 F6000 X101.368 Y34.052
G1 F3000 X90.225 Y22.908 E96.12049
G0 F6000 X90.791 Y22.908
G1 F3000 X101.651 Y33.769 E96.63133
G0 F6000 X101.934 Y33.486
G1 F3000 X91.356 Y22.908 E97.12889
G0 F6000 X91.922 Y22.908
G1 F3000 X102.217 Y33.203 E97.61313
G0 F6000 X102.5 Y32.92
G1 F3000 X92.488 Y22.908 E98.08407
G0 F6000 X93.053 Y22.908
G1 F3000 X102.782 Y32.637 E98.54169
G0 F6000 X103.065 Y32.355
G1 F3000 X93.619 Y22.908 E98.98602
G0 F6000 X94.185 Y22.908
G1 F3000 X103.348 Y32.072 E99.41705
G0 F6000 X103.631 Y31.789
G1 F3000 X94.75 Y22.908 E99.83478
G0 F6000 X95.316 Y22.908
G1 F3000 X103.914 Y31.506 E100.2392
G0 F6000 X104.197 Y31.223
G1 F3000 X95.882 Y22.908 E100.63032
G0 F6000 X96.447 Y22.908
G1 F3000 X104.479 Y30.94 E101.00812
G0 F6000 X104.762 Y30.658
G1 F3000 X97.013 Y22.908 E101.37263
G0 F6000 X97.579 Y22.908
G1 F3000 X105.045 Y30.375 E101.72383
G0 F6000 X105.328 Y30.092
G1 F3000 X98.145 Y22.908 E102.06172
G0 F6000 X98.71 Y22.908
G1 F3000 X105.611 Y29.809 E102.38632
G0 F6000 X105.894 Y29.526
G1 F3000 X99.276 Y22.908 E102.69761
G0 F6000 X99.842 Y22.908
G1 F3000 X106.177 Y29.243 E102.99559
G0 F6000 X106.459 Y28.96
G1 F3000 X100.407 Y22.908 E103.28026
G1 F2700 E102.88026
G1 F600 Z0.6
;MESH:NONMESH
G0 F6000 X21.391 Y22.359 Z0.6
;TIME_ELAPSED:87.671394
;LAYER:1
M117 "ModifiedDesigns3D"
M140 S60
M106 S85
;MESH:MD3D-MRT-0.4-2.0.stl
G0 X21.391 Y22.359 Z0.8
;TYPE:WALL-INNER
G1 F600 Z0.4
G1 F2700 E103.28026
G1 F3000 X100.895 Y22.359 E105.92457
G1 X107.366 Y28.83 E106.22895
G1 X100.895 Y35.301 E106.53333
G1 X21.391 Y35.301 E109.17764
G1 X14.92 Y28.83 E109.48202
G1 X21.391 Y22.359 E109.78639
G0 F6000 X21.225 Y21.959
;TYPE:WALL-OUTER
G1 F3000 X101.061 Y21.959 E112.44175
G1 X107.932 Y28.83 E112.76494
G1 X101.061 Y35.701 E113.08813
G1 X21.225 Y35.701 E115.74349
G1 X14.354 Y28.83 E116.06668
G1 X21.225 Y21.959 E116.38987
G0 F6000 X21.393 Y22.365
G0 X21.551 Y22.749
;TYPE:SKIN
G1 F3000 X100.735 Y22.749 E119.02354
G1 X106.816 Y28.83 E119.30957
G1 X100.735 Y34.911 E119.5956
G1 X21.551 Y34.911 E122.22927
G1 X15.47 Y28.83 E122.5153
G1 X21.551 Y22.749 E122.80133
G0 F6000 X21.781 Y22.908
G1 F3000 X15.777 Y28.911 E123.08372
G0 F6000 X16.06 Y29.194
G1 F3000 X22.346 Y22.908 E123.3794
G0 F6000 X22.912 Y22.908
G1 F3000 X16.343 Y29.477 E123.68838
G0 F6000 X16.626 Y29.76
G1 F3000 X23.478 Y22.908 E124.01068
G0 F6000 X24.043 Y22.908
G1 F3000 X16.909 Y30.042 E124.34624
G0 F6000 X17.191 Y30.325
G1 F3000 X24.609 Y22.908 E124.69514
G0 F6000 X25.175 Y22.908
G1 F3000 X17.474 Y30.608 E125.05734
G0 F6000 X17.757 Y30.891
G1 F3000 X25.74 Y22.908 E125.43284
G0 F6000 X26.306 Y22.908
G1 F3000 X18.04 Y31.174 E125.82165
G0 F6000 X18.323 Y31.457
G1 F3000 X26.872 Y22.908 E126.22377
G0 F6000 X27.437 Y22.908
G1 F3000 X18.606 Y31.739 E126.63915
G0 F6000 X18.888 Y32.022
G1 F3000 X28.003 Y22.908 E127.06787
G0 F6000 X28.569 Y22.908
G1 F3000 X19.171 Y32.305 E127.5099
G0 F6000 X19.454 Y32.588
G1 F3000 X29.134 Y22.908 E127.96521
G0 F6000 X29.7 Y22.908
G1 F3000 X19.737 Y32.871 E128.43384
G0 F6000 X20.02 Y33.154
G1 F3000 X30.266 Y22.908 E128.91578
G0 F6000 X30.831 Y22.908
G1 F3000 X20.303 Y33.436 E129.41099
G0 F6000 X20.585 Y33.719
G1 F3000 X31.397 Y22.908 E129.91953
G0 F6000 X31.963 Y22.908
G1 F3000 X20.868 Y34.002 E130.44138
G0 F6000 X21.151 Y34.285
G1 F3000 X32.529 Y22.908 E130.97654
G0 F6000 X33.094 Y22.908
G1 F3000 X21.434 Y34.568 E131.52499
G0 F6000 X21.817 Y34.75
G1 F3000 X33.66 Y22.908 E132.08203
G0 F6000 X34.226 Y22.908
G1 F3000 X22.383 Y34.75 E132.63906
G0 F6000 X22.949 Y34.75
G1 F3000 X34.791 Y22.908 E133.19607
G0 F6000 X35.357 Y22.908
G1 F3000 X23.514 Y34.75 E133.75311
G0 F6000 X24.08 Y34.75
G1 F3000 X35.923 Y22.908 E134.31014
G0 F6000 X36.488 Y22.908
G1 F3000 X24.646 Y34.75 E134.86715
G0 F6000 X25.211 Y34.75
G1 F3000 X37.054 Y22.908 E135.42419
G0 F6000 X37.62 Y22.908
G1 F3000 X25.777 Y34.75 E135.98122
G0 F6000 X26.343 Y34.75
G1 F3000 X38.185 Y22.908 E136.53824
G0 F6000 X38.751 Y22.908
G1 F3000 X26.908 Y34.75 E137.09527
G0 F6000 X27.474 Y34.75
G1 F3000 X39.317 Y22.908 E137.65231
G0 F6000 X39.882 Y22.908
G1 F3000 X28.04 Y34.75 E138.20932
G0 F6000 X28.606 Y34.75
G1 F3000 X40.448 Y22.908 E138.76633
G0 F6000 X41.014 Y22.908
G1 F3000 X29.171 Y34.75 E139.32336
G0 F6000 X29.737 Y34.75
G1 F3000 X41.58 Y22.908 E139.8804
G0 F6000 X42.145 Y22.908
G1 F3000 X30.303 Y34.75 E140.43741
G0 F6000 X30.868 Y34.75
G1 F3000 X42.711 Y22.908 E140.99444
G0 F6000 X43.277 Y22.908
G1 F3000 X31.434 Y34.75 E141.55148
G0 F6000 X32 Y34.75
G1 F3000 X43.842 Y22.908 E142.10849
G0 F6000 X44.408 Y22.908
G1 F3000 X32.565 Y34.75 E142.66553
G0 F6000 X33.131 Y34.75
G1 F3000 X44.974 Y22.908 E143.22256
G0 F6000 X45.539 Y22.908
G1 F3000 X33.697 Y34.75 E143.77957
G0 F6000 X34.262 Y34.75
G1 F3000 X46.105 Y22.908 E144.33661
G0 F6000 X46.671 Y22.908
G1 F3000 X34.828 Y34.75 E144.89364
G0 F6000 X35.394 Y34.75
G1 F3000 X47.236 Y22.908 E145.45065
G0 F6000 X47.802 Y22.908
G1 F3000 X35.959 Y34.75 E146.00769
G0 F6000 X36.525 Y34.75
G1 F3000 X48.368 Y22.908 E146.56472
G0 F6000 X48.933 Y22.908
G1 F3000 X37.091 Y34.75 E147.12173
G0 F6000 X37.656 Y34.75
G1 F3000 X49.499 Y22.908 E147.67877
G0 F6000 X50.065 Y22.908
G1 F3000 X38.222 Y34.75 E148.2358
G0 F6000 X38.788 Y34.75
G1 F3000 X50.63 Y22.908 E148.79282
G0 F6000 X51.196 Y22.908
G1 F3000 X39.354 Y34.75 E149.34983
G0 F6000 X39.919 Y34.75
G1 F3000 X51.762 Y22.908 E149.90686
G0 F6000 X52.328 Y22.908
G1 F3000 X40.485 Y34.75 E150.4639
G0 F6000 X41.051 Y34.75
G1 F3000 X52.893 Y22.908 E151.02091
G0 F6000 X53.459 Y22.908
G1 F3000 X41.616 Y34.75 E151.57794
G0 F6000 X42.182 Y34.75
G1 F3000 X54.025 Y22.908 E152.13498
G0 F6000 X54.59 Y22.908
G1 F3000 X42.748 Y34.75 E152.69199
G0 F6000 X43.313 Y34.75
G1 F3000 X55.156 Y22.908 E153.24902
G0 F6000 X55.722 Y22.908
G1 F3000 X43.879 Y34.75 E153.80606
G0 F6000 X44.445 Y34.75
G1 F3000 X56.287 Y22.908 E154.36307
G0 F6000 X56.853 Y22.908
G1 F3000 X45.01 Y34.75 E154.92011
G0 F6000 X45.576 Y34.75
G1 F3000 X57.419 Y22.908 E155.47714
G0 F6000 X57.984 Y22.908
G1 F3000 X46.142 Y34.75 E156.03415
