;FLAVOR:Repetier
;TIME:2514
;MINX:7.427
;MINY:9.751
;MINZ:0.2
;MAXX:101.005
;MAXY:23.493
;MAXZ:47.4
;Generated with Cura_SteamEngine 4.2.1
M190 S60
M104 S215
M109 S215
M82 ;absolute extrusion mode
M82 ;absolute extrusion mode
G21 ;metric values
G90 ;absolute positioning
M82 ;set extruder to absolute mode
M107 ;start with the fan off
G28 X0 Y0 ;move X/Y to min endstops
G28 Z0 ;move Z to min endstops
G1 Z0.2 ;raise hot end to prime
G92 E0 ; reset extruder to 0
G1 F1500 X100 E15 ; traverse x, prime extruder
G92 E0 ; reset extruder to 0
M117 "Alakazam"
M141 S28
G92 E0
G92 E0
G1 F2700 E-0.4
;LAYER_COUNT:235
;LAYER:0
M107
;MESH:MD3D-MRT-0.4-2.0.stl
G0 F6000 X14.464 Y10.151 Z0.2
;TYPE:WALL-INNER
G1 F2700 E0
G1 F3000 X93.968 Y10.151 E2.64431
G1 X100.439 Y16.622 E2.94869
G1 X93.968 Y23.093 E3.25307
G1 X14.464 Y23.093 E5.89738
G1 X7.993 Y16.622 E6.20176
G1 X14.464 Y10.151 E6.50613
G0 F6000 X14.298 Y9.751
;TYPE:WALL-OUTER
G1 F3000 X94.134 Y9.751 E9.16149
G1 X101.005 Y16.622 E9.48468
G1 X94.134 Y23.493 E9.80787
G1 X14.298 Y23.493 E12.46323
G1 X7.427 Y16.622 E12.78642
G1 X14.298 Y9.751 E13.10961
G0 F6000 X14.498 Y9.751
G0 X14.498 Y10.191
G0 X14.624 Y10.541
;TYPE:SKIN
G1 F3000 X93.808 Y10.541 E15.74328
G1 X99.889 Y16.622 E16.02931
G1 X93.808 Y22.703 E16.31534
G1 X14.624 Y22.703 E18.94901
G1 X8.543 Y16.622 E19.23504
G1 X14.624 Y10.541 E19.52107
G1 F2700 E19.12107
G1 F900 Z0.6
G0 F6000 X15.168 Y22.522 Z0.6
G1 F900 Z0.2
G1 F2700 E19.52107
G1 F3000 X9.031 Y16.385 E19.80974
G0 F6000 X9.314 Y16.102
G1 F3000 X15.734 Y22.522 E20.11172
G0 F6000 X16.3 Y22.522
G1 F3000 X9.597 Y15.82 E20.42698
G0 F6000 X9.88 Y15.537
G1 F3000 X16.865 Y22.522 E20.75554
G0 F6000 X17.431 Y22.522
G1 F3000 X10.163 Y15.254 E21.0974
G0 F6000 X10.446 Y14.971
G1 F3000 X17.997 Y22.522 E21.45258
G0 F6000 X18.562 Y22.522
G1 F3000 X10.728 Y14.688 E21.82106
G0 F6000 X11.011 Y14.405
G1 F3000 X19.128 Y22.522 E22.20286
G0 F6000 X19.694 Y22.522
G1 F3000 X11.294 Y14.123 E22.59795
G0 F6000 X11.577 Y13.84
G1 F3000 X20.26 Y22.522 E23.00635
G0 F6000 X20.825 Y22.522
G1 F3000 X11.86 Y13.557 E23.42803
G0 F6000 X12.143 Y13.274
G1 F3000 X21.391 Y22.522 E23.86303
G0 F6000 X21.957 Y22.522
G1 F3000 X12.425 Y12.991 E24.31136
G0 F6000 X12.708 Y12.708
G1 F3000 X22.522 Y22.522 E24.77298
G0 F6000 X23.088 Y22.522
G1 F3000 X12.991 Y12.425 E25.24792
G0 F6000 X13.274 Y12.143
G1 F3000 X23.654 Y22.522 E25.73614
G0 F6000 X24.219 Y22.522
G1 F3000 X13.557 Y11.86 E26.23764
G0 F6000 X13.84 Y11.577
G1 F3000 X24.785 Y22.522 E26.75246
G0 F6000 X25.351 Y22.522
G1 F3000 X14.123 Y11.294 E27.28059
G0 F6000 X14.405 Y11.011
G1 F3000 X25.916 Y22.522 E27.82203
G0 F6000 X26.482 Y22.522
G1 F3000 X14.688 Y10.728 E28.37679
G0 F6000 X15.245 Y10.72
G1 F3000 X27.048 Y22.522 E28.93194
G0 F6000 X27.613 Y22.522
G1 F3000 X15.811 Y10.72 E29.48707
G0 F6000 X16.377 Y10.72
G1 F3000 X28.179 Y22.522 E30.0422
G0 F6000 X28.745 Y22.522
G1 F3000 X16.942 Y10.72 E30.59736
G0 F6000 X17.508 Y10.72
G1 F3000 X29.31 Y22.522 E31.15249
G0 F6000 X29.876 Y22.522
G1 F3000 X18.074 Y10.72 E31.70761
G0 F6000 X18.64 Y10.72
G1 F3000 X30.442 Y22.522 E32.26274
G0 F6000 X31.008 Y22.522
G1 F3000 X19.205 Y10.72 E32.8179
G0 F6000 X19.771 Y10.72
G1 F3000 X31.573 Y22.522 E33.37303
G0 F6000 X32.139 Y22.522
G1 F3000 X20.337 Y10.72 E33.92816
G0 F6000 X20.902 Y10.72
G1 F3000 X32.705 Y22.522 E34.48331
G0 F6000 X33.27 Y22.522
G1 F3000 X21.468 Y10.72 E35.03844
G0 F6000 X22.034 Y10.72
G1 F3000 X33.836 Y22.522 E35.59357
G0 F6000 X34.402 Y22.522
G1 F3000 X22.599 Y10.72 E36.14872
G0 F6000 X23.165 Y10.72
G1 F3000 X34.967 Y22.522 E36.70385
G0 F6000 X35.533 Y22.522
G1 F3000 X23.731 Y10.72 E37.25898
G0 F6000 X24.296 Y10.72
G1 F3000 X36.099 Y22.522 E37.81414
G0 F6000 X36.664 Y22.522
G1 F3000 X24.862 Y10.72 E38.36927
G0 F6000 X25.428 Y10.72
G1 F3000 X37.23 Y22.522 E38.9244
G0 F6000 X37.796 Y22.522
G1 F3000 X25.993 Y10.72 E39.47955
G0 F6000 X26.559 Y10.72
G1 F3000 X38.361 Y22.522 E40.03468
G0 F6000 X38.927 Y22.522
G1 F3000 X27.125 Y10.72 E40.58981
G0 F6000 X27.691 Y10.72
G1 F3000 X39.493 Y22.522 E41.14494
G0 F6000 X40.059 Y22.522
G1 F3000 X28.256 Y10.72 E41.70009
G0 F6000 X28.822 Y10.72
G1 F3000 X40.624 Y22.522 E42.25522
G0 F6000 X41.19 Y22.522
G1 F3000 X29.388 Y10.72 E42.81035
G0 F6000 X29.953 Y10.72
G1 F3000 X41.756 Y22.522 E43.36551
G0 F6000 X42.321 Y22.522
G1 F3000 X30.519 Y10.72 E43.92064
G0 F6000 X31.085 Y10.72
G1 F3000 X42.887 Y22.522 E44.47577
G0 F6000 X43.453 Y22.522
G1 F3000 X31.65 Y10.72 E45.03092
G0 F6000 X32.216 Y10.72
G1 F3000 X44.018 Y22.522 E45.58605
G0 F6000 X44.584 Y22.522
G1 F3000 X32.782 Y10.72 E46.14118
G0 F6000 X33.347 Y10.72
G1 F3000 X45.15 Y22.522 E46.69633
G0 F6000 X45.715 Y22.522
G1 F3000 X33.913 Y10.72 E47.25146
G0 F6000 X34.479 Y10.72
G1 F3000 X46.281 Y22.522 E47.80659
G0 F6000 X46.847 Y22.522
G1 F3000 X35.044 Y10.72 E48.36175
G0 F6000 X35.61 Y10.72
G1 F3000 X47.412 Y22.522 E48.91688
G0 F6000 X47.978 Y22.522
G1 F3000 X36.176 Y10.72 E49.47201
G0 F6000 X36.741 Y10.72
G1 F3000 X48.544 Y22.522 E50.02716
G0 F6000 X49.109 Y22.522
G1 F3000 X37.307 Y10.72 E50.58229
G0 F6000 X37.873 Y10.72
G1 F3000 X49.675 Y22.522 E51.13742
G0 F6000 X50.241 Y22.522
G1 F3000 X38.439 Y10.72 E51.69255
G0 F6000 X39.004 Y10.72
G1 F3000 X50.807 Y22.522 E52.2477
G0 F6000 X51.372 Y22.522
G1 F3000 X39.57 Y10.72 E52.80283
G0 F6000 X40.136 Y10.72
G1 F3000 X51.938 Y22.522 E53.35796
G0 F6000 X52.504 Y22.522
G1 F3000 X40.701 Y10.72 E53.91312
G0 F6000 X41.267 Y10.72
G1 F3000 X53.069 Y22.522 E54.46825
G0 F6000 X53.635 Y22.522
G1 F3000 X41.833 Y10.72 E55.02338
G0 F6000 X42.398 Y10.72
G1 F3000 X54.201 Y22.522 E55.57853
G0 F6000 X54.766 Y22.522
G1 F3000 X42.964 Y10.72 E56.13366
G0 F6000 X43.53 Y10.72
G1 F3000 X55.332 Y22.522 E56.68879
G0 F6000 X55.898 Y22.522
G1 F3000 X44.095 Y10.72 E57.24394
G0 F6000 X44.661 Y10.72
G1 F3000 X56.463 Y22.522 E57.79907
G0 F6000 X57.029 Y22.522
G1 F3000 X45.227 Y10.72 E58.3542
G0 F6000 X45.792 Y10.72
G1 F3000 X57.595 Y22.522 E58.90936
G0 F6000 X58.16 Y22.522
G1 F3000 X46.358 Y10.72 E59.46449
G0 F6000 X46.924 Y10.72
G1 F3000 X58.726 Y22.522 E60.01962
G0 F6000 X59.292 Y22.522
G1 F3000 X47.489 Y10.72 E60.57477
G0 F6000 X48.055 Y10.72
G1 F3000 X59.858 Y22.522 E61.12992
G0 F6000 X60.423 Y22.522
G1 F3000 X48.621 Y10.72 E61.68505
G0 F6000 X49.187 Y10.72
G1 F3000 X60.989 Y22.522 E62.24018
G0 F6000 X61.555 Y22.522
G1 F3000 X49.752 Y10.72 E62.79534
G0 F6000 X50.318 Y10.72
G1 F3000 X62.12 Y22.522 E63.35047
G0 F6000 X62.686 Y22.522
G1 F3000 X50.884 Y10.72 E63.9056
G0 F6000 X51.449 Y10.72
G1 F3000 X63.252 Y22.522 E64.46075
G0 F6000 X63.817 Y22.522
G1 F3000 X52.015 Y10.72 E65.01588
G0 F6000 X52.581 Y10.72
G1 F3000 X64.383 Y22.522 E65.57101
G0 F6000 X64.949 Y22.522
G1 F3000 X53.146 Y10.72 E66.12616
G0 F6000 X53.712 Y10.72
G1 F3000 X65.514 Y22.522 E66.68129
G0 F6000 X66.08 Y22.522
G1 F3000 X54.278 Y10.72 E67.23642
G0 F6000 X54.843 Y10.72
G1 F3000 X66.646 Y22.522 E67.79158
G0 F6000 X67.211 Y22.522
G1 F3000 X55.409 Y10.72 E68.34671
G0 F6000 X55.975 Y10.72
G1 F3000 X67.777 Y22.522 E68.90184
G0 F6000 X68.343 Y22.522
G1 F3000 X56.54 Y10.72 E69.45699
G0 F6000 X57.106 Y10.72
G1 F3000 X68.908 Y22.522 E70.01212
G0 F6000 X69.474 Y22.522
G1 F3000 X57.672 Y10.72 E70.56725
G0 F6000 X58.238 Y10.72
G1 F3000 X70.04 Y22.522 E71.12238
G0 F6000 X70.606 Y22.522
G1 F3000 X58.803 Y10.72 E71.67753
G0 F6000 X59.369 Y10.72
G1 F3000 X71.171 Y22.522 E72.23266
G0 F6000 X71.737 Y22.522
G1 F3000 X59.935 Y10.72 E72.78779
G0 F6000 X60.5 Y10.72
G1 F3000 X72.303 Y22.522 E73.34295
G0 F6000 X72.868 Y22.522
G1 F3000 X61.066 Y10.72 E73.89807
G0 F6000 X61.632 Y10.72
G1 F3000 X73.434 Y22.522 E74.4532
G0 F6000 X74 Y22.522
G1 F3000 X62.197 Y10.72 E75.00836
G0 F6000 X62.763 Y10.72
G1 F3000 X74.565 Y22.522 E75.56349
G0 F6000 X75.131 Y22.522
G1 F3000 X63.329 Y10.72 E76.11862
G0 F6000 X63.894 Y10.72
G1 F3000 X75.697 Y22.522 E76.67377
G0 F6000 X76.262 Y22.522
G1 F3000 X64.46 Y10.72 E77.2289
G0 F6000 X65.026 Y10.72
G1 F3000 X76.828 Y22.522 E77.78403
G0 F6000 X77.394 Y22.522
G1 F3000 X65.591 Y10.72 E78.33918
G0 F6000 X66.157 Y10.72
G1 F3000 X77.959 Y22.522 E78.89431
G0 F6000 X78.525 Y22.522
G1 F3000 X66.723 Y10.72 E79.44944
G0 F6000 X67.288 Y10.72
G1 F3000 X79.091 Y22.522 E80.0046
G0 F6000 X79.656 Y22.522
G1 F3000 X67.854 Y10.72 E80.55973
G0 F6000 X68.42 Y10.72
G1 F3000 X80.222 Y22.522 E81.11486
G0 F6000 X80.788 Y22.522
G1 F3000 X68.986 Y10.72 E81.66999
G0 F6000 X69.551 Y10.72
G1 F3000 X81.354 Y22.522 E82.22514
G0 F6000 X81.919 Y22.522
G1 F3000 X70.117 Y10.72 E82.78027
G0 F6000 X70.683 Y10.72
G1 F3000 X82.485 Y22.522 E83.3354
G0 F6000 X83.051 Y22.522
G1 F3000 X71.248 Y10.72 E83.89055
G0 F6000 X71.814 Y10.72
G1 F3000 X83.616 Y22.522 E84.44568
G0 F6000 X84.182 Y22.522
G1 F3000 X72.38 Y10.72 E85.00081
G0 F6000 X72.945 Y10.72
G1 F3000 X84.748 Y22.522 E85.55597
G0 F6000 X85.313 Y22.522
G1 F3000 X73.511 Y10.72 E86.1111
G0 F6000 X74.077 Y10.72
G1 F3000 X85.879 Y22.522 E86.66623
G0 F6000 X86.445 Y22.522
G1 F3000 X74.642 Y10.72 E87.22138
G0 F6000 X75.208 Y10.72
G1 F3000 X87.01 Y22.522 E87.77651
G0 F6000 X87.576 Y22.522
G1 F3000 X75.774 Y10.72 E88.33164
G0 F6000 X76.339 Y10.72
G1 F3000 X88.142 Y22.522 E88.88679
G0 F6000 X88.707 Y22.522
G1 F3000 X76.905 Y10.72 E89.44192
G0 F6000 X77.471 Y10.72
G1 F3000 X89.273 Y22.522 E89.99705
G0 F6000 X89.839 Y22.522
G1 F3000 X78.037 Y10.72 E90.55218
G0 F6000 X78.602 Y10.72
G1 F3000 X90.405 Y22.522 E91.10734
G0 F6000 X90.97 Y22.522
G1 F3000 X79.168 Y10.72 E91.66247
G0 F6000 X79.734 Y10.72
G1 F3000 X91.536 Y22.522 E92.2176
G0 F6000 X92.102 Y22.522
G1 F3000 X80.299 Y10.72 E92.77275
G0 F6000 X80.865 Y10.72
G1 F3000 X92.667 Y22.522 E93.32788
G0 F6000 X93.233 Y22.522
G1 F3000 X81.431 Y10.72 E93.88301
G0 F6000 X81.996 Y10.72
G1 F3000 X93.766 Y22.49 E94.43663
G0 F6000 X94.049 Y22.207
G1 F3000 X82.562 Y10.72 E94.97695
G0 F6000 X83.128 Y10.72
G1 F3000 X94.332 Y21.924 E95.50395
G0 F6000 X94.615 Y21.641
G1 F3000 X83.693 Y10.72 E96.01766
G0 F6000 X84.259 Y10.72
G1 F3000 X94.897 Y21.358 E96.51804
G0 F6000 X95.18 Y21.076
G1 F3000 X84.825 Y10.72 E97.00513
G0 F6000 X85.39 Y10.72
G1 F3000 X95.463 Y20.793 E97.47894
G0 F6000 X95.746 Y20.51
G1 F3000 X85.956 Y10.72 E97.93943
G0 F6000 X86.522 Y10.72
G1 F3000 X96.029 Y20.227 E98.38661
G0 F6000 X96.312 Y19.944
G1 F3000 X87.087 Y10.72 E98.8205
G0 F6000 X87.653 Y10.72
G1 F3000 X96.595 Y19.661 E99.24108
G0 F6000 X96.877 Y19.378
G1 F3000 X88.219 Y10.72 E99.64833
G0 F6000 X88.785 Y10.72
G1 F3000 X97.16 Y19.096 E100.04228
G0 F6000 X97.443 Y18.813
G1 F3000 X89.35 Y10.72 E100.42295
G0 F6000 X89.916 Y10.72
G1 F3000 X97.726 Y18.53 E100.79031
G0 F6000 X98.009 Y18.247
G1 F3000 X90.482 Y10.72 E101.14436
G0 F6000 X91.047 Y10.72
G1 F3000 X98.292 Y17.964 E101.48512
G0 F6000 X98.574 Y17.681
G1 F3000 X91.613 Y10.72 E101.81254
G0 F6000 X92.179 Y10.72
G1 F3000 X98.857 Y17.399 E102.12668
G0 F6000 X99.14 Y17.116
G1 F3000 X92.744 Y10.72 E102.42753
G0 F6000 X93.31 Y10.72
G1 F3000 X99.423 Y16.833 E102.71506
G1 X99.493 Y16.903
G1 F2700 E102.31506
G1 F900 Z0.6
;MESH:NONMESH
G0 F6000 X14.464 Y10.151 Z0.6
;TIME_ELAPSED:69.291153
;LAYER:1
M117 "ModifiedDesigns3D - MRT"
M140 S60
M106 S255
;MESH:MD3D-MRT-0.4-2.0.stl
G0 X14.464 Y10.151 Z0.8
;TYPE:WALL-INNER
G1 F900 Z0.4
G1 F2700 E102.71506
G1 F3000 X93.968 Y10.151 E105.35938
G1 X100.439 Y16.622 E105.66375
G1 X93.968 Y23.093 E105.96813
G1 X14.464 Y23.093 E108.61244
G1 X7.993 Y16.622 E108.91682
G1 X14.464 Y10.151 E109.2212
G0 F6000 X14.298 Y9.751
;TYPE:WALL-OUTER
G1 F3000 X94.134 Y9.751 E111.87655
G1 X101.005 Y16.622 E112.19974
G1 X94.134 Y23.493 E112.52293
G1 X14.298 Y23.493 E115.17829
G1 X7.427 Y16.622 E115.50148
G1 X14.298 Y9.751 E115.82467
G0 F6000 X14.498 Y9.751
G0 X14.498 Y10.191
G0 X14.624 Y10.541
;TYPE:SKIN
G1 F3000 X93.808 Y10.541 E118.45834
G1 X99.889 Y16.622 E118.74437
G1 X93.808 Y22.703 E119.03041
G1 X14.624 Y22.703 E121.66408
G1 X8.543 Y16.622 E121.95011
G1 X14.624 Y10.541 E122.23614
G0 F6000 X14.735 Y10.72
G1 F3000 X8.815 Y16.64 E122.5146
G0 F6000 X9.098 Y16.923
G1 F3000 X15.301 Y10.72 E122.80637
G0 F6000 X15.866 Y10.72
G1 F3000 X9.381 Y17.206 E123.11143
G0 F6000 X9.664 Y17.488
G1 F3000 X16.432 Y10.72 E123.42977
G0 F6000 X16.998 Y10.72
G1 F3000 X9.946 Y17.771 E123.76145
G0 F6000 X10.229 Y18.054
G1 F3000 X17.563 Y10.72 E124.10642
G0 F6000 X18.129 Y10.72
G1 F3000 X10.512 Y18.337 E124.4647
G0 F6000 X10.795 Y18.62
G1 F3000 X18.695 Y10.72 E124.83629
G0 F6000 X19.26 Y10.72
G1 F3000 X11.078 Y18.903 E125.22117
G0 F6000 X11.361 Y19.185
G1 F3000 X19.826 Y10.72 E125.61934
G0 F6000 X20.392 Y10.72
G1 F3000 X11.643 Y19.468 E126.03084
G0 F6000 X11.926 Y19.751
G1 F3000 X20.957 Y10.72 E126.45563
G0 F6000 X21.523 Y10.72
G1 F3000 X12.209 Y20.034 E126.89374
G0 F6000 X12.492 Y20.317
G1 F3000 X22.089 Y10.72 E127.34515
G0 F6000 X22.654 Y10.72
G1 F3000 X12.775 Y20.6 E127.80985
G0 F6000 X13.058 Y20.882
G1 F3000 X23.22 Y10.72 E128.28784
G0 F6000 X23.786 Y10.72
G1 F3000 X13.34 Y21.165 E128.77916
G0 F6000 X13.623 Y21.448
G1 F3000 X24.352 Y10.72 E129.2838
G0 F6000 X24.917 Y10.72
G1 F3000 X13.906 Y21.731 E129.80172
G0 F6000 X14.189 Y22.014
G1 F3000 X25.483 Y10.72 E130.33296
G0 F6000 X26.049 Y10.72
G1 F3000 X14.472 Y22.297 E130.87751
G0 F6000 X14.811 Y22.523
G1 F3000 X26.614 Y10.72 E131.43268
G0 F6000 X27.18 Y10.72
G1 F3000 X15.377 Y22.523 E131.98786
G0 F6000 X15.943 Y22.523
G1 F3000 X27.746 Y10.72 E132.54304
G0 F6000 X28.311 Y10.72
G1 F3000 X16.508 Y22.523 E133.09821
G0 F6000 X17.074 Y22.523
G1 F3000 X28.877 Y10.72 E133.65339
G0 F6000 X29.443 Y10.72
G1 F3000 X17.64 Y22.523 E134.20857
G0 F6000 X18.205 Y22.523
G1 F3000 X30.008 Y10.72 E134.76374
G0 F6000 X30.574 Y10.72
G1 F3000 X18.771 Y22.523 E135.31892
G0 F6000 X19.337 Y22.523
G1 F3000 X31.14 Y10.72 E135.8741
G0 F6000 X31.705 Y10.72
G1 F3000 X19.902 Y22.523 E136.42928
G0 F6000 X20.468 Y22.523
G1 F3000 X32.271 Y10.72 E136.98445
G0 F6000 X32.837 Y10.72
G1 F3000 X21.034 Y22.523 E137.53963
G0 F6000 X21.599 Y22.523
G1 F3000 X33.403 Y10.72 E138.09483
G0 F6000 X33.968 Y10.72
G1 F3000 X22.165 Y22.523 E138.65001
G0 F6000 X22.731 Y22.523
G1 F3000 X34.534 Y10.72 E139.20518
G0 F6000 X35.1 Y10.72
G1 F3000 X23.297 Y22.523 E139.76036
G0 F6000 X23.862 Y22.523
G1 F3000 X35.665 Y10.72 E140.31554
G0 F6000 X36.231 Y10.72
G1 F3000 X24.428 Y22.523 E140.87071
G0 F6000 X24.994 Y22.523
G1 F3000 X36.797 Y10.72 E141.42589
G0 F6000 X37.362 Y10.72
G1 F3000 X25.559 Y22.523 E141.98107
G0 F6000 X26.125 Y22.523
G1 F3000 X37.928 Y10.72 E142.53624
G0 F6000 X38.494 Y10.72
G1 F3000 X26.691 Y22.523 E143.09142
G0 F6000 X27.256 Y22.523
G1 F3000 X39.059 Y10.72 E143.6466
G0 F6000 X39.625 Y10.72
G1 F3000 X27.822 Y22.523 E144.20178
G0 F6000 X28.388 Y22.523
G1 F3000 X40.191 Y10.72 E144.75695
G0 F6000 X40.756 Y10.72
G1 F3000 X28.953 Y22.523 E145.31213
G0 F6000 X29.519 Y22.523
G1 F3000 X41.322 Y10.72 E145.86731
G0 F6000 X41.888 Y10.72
G1 F3000 X30.085 Y22.523 E146.42248
G0 F6000 X30.65 Y22.523
G1 F3000 X42.453 Y10.72 E146.97766
G0 F6000 X43.019 Y10.72
G1 F3000 X31.216 Y22.523 E147.53284
G0 F6000 X31.782 Y22.523
G1 F3000 X43.585 Y10.72 E148.08801
G0 F6000 X44.151 Y10.72
G1 F3000 X32.348 Y22.523 E148.64319
G0 F6000 X32.913 Y22.523
G1 F3000 X44.716 Y10.72 E149.19837
G0 F6000 X45.282 Y10.72
G1 F3000 X33.479 Y22.523 E149.75354
G0 F6000 X34.045 Y22.523
G1 F3000 X45.848 Y10.72 E150.30872
G0 F6000 X46.413 Y10.72
G1 F3000 X34.61 Y22.523 E150.8639
G0 F6000 X35.176 Y22.523
G1 F3000 X46.979 Y10.72 E151.41908
G0 F6000 X47.545 Y10.72
G1 F3000 X35.742 Y22.523 E151.97425
G0 F6000 X36.307 Y22.523
G1 F3000 X48.11 Y10.72 E152.52943
G0 F6000 X48.676 Y10.72
G1 F3000 X36.873 Y22.523 E153.08461
G0 F6000 X37.439 Y22.523
G1 F3000 X49.242 Y10.72 E153.63978
G0 F6000 X49.807 Y10.72
G1 F3000 X38.004 Y22.523 E154.19496
G0 F6000 X38.57 Y22.523
G1 F3000 X50.373 Y10.72 E154.75014
G0 F6000 X50.939 Y10.72
G1 F3000 X39.136 Y22.523 E155.30531
G0 F6000 X39.701 Y22.523
G1 F3000 X51.504 Y10.72 E155.86049
G0 F6000 X52.07 Y10.72
G1 F3000 X40.267 Y22.523 E156.41567
G0 F6000 X40.833 Y22.523
G1 F3000 X52.636 Y10.72 E156.97085
G0 F6000 X53.202 Y10.72
G1 F3000 X41.398 Y22.523 E157.52605
G0 F6000 X41.964 Y22.523
G1 F3000 X53.767 Y10.72 E158.08122
G0 F6000 X54.333 Y10.72
