;FLAVOR:Repetier
;TIME:2707
;MINX:4.355
;MINY:12.098
;MINZ:0.2
;MAXX:97.934
;MAXY:25.84
;MAXZ:52.4
;Generated with Cura_SteamEngine 4.2.1
M190 S60
M104 S225
M109 S225
M82 ;absolute extrusion mode
M82 ;absolute extrusion mode
G21 ;metric values
G90 ;absolute positioning
M82 ;set extruder to absolute mode
M107 ;start with the fan off
G28 X0 Y0 ;move X/Y to min endstops
G28 Z0 ;move Z to min endstops
G1 Z0.2 ;raise hot end to prime
G92 E0 ; reset extruder to 0
G1 F1500 X100 E15 ; traverse x, prime extruder
G92 E0 ; reset extruder to 0
M117 "Alakazam"
M141 S28
G92 E0
G92 E0
G1 F2700 E-0.1
;LAYER_COUNT:260
;LAYER:0
M107
;MESH:MD3D-MRT-0.1-1.0.stl
G0 F6000 X11.393 Y12.498 Z0.2
;TYPE:WALL-INNER
G1 F2700 E0
G1 F3000 X90.897 Y12.498 E2.64431
G1 X97.368 Y18.969 E2.94869
G1 X90.897 Y25.44 E3.25307
G1 X11.393 Y25.44 E5.89738
G1 X5.061 Y19.109 E6.19519
G1 X4.921 Y18.969 E6.20178
G1 X5.061 Y18.829 E6.20602
G1 X11.393 Y12.498 E6.50384
G0 F6000 X11.227 Y12.098
;TYPE:WALL-OUTER
G1 F3000 X91.063 Y12.098 E9.15919
G1 X97.934 Y18.969 E9.48239
G1 X91.063 Y25.84 E9.80558
G1 X11.227 Y25.84 E12.46093
G1 X4.496 Y19.11 E12.77751
G1 X4.355 Y18.969 E12.78415
G1 X4.496 Y18.828 E12.78843
G1 X11.227 Y12.098 E13.10501
G0 F6000 X11.427 Y12.098
G0 X11.427 Y12.538
G0 X11.553 Y12.888
;TYPE:SKIN
G1 F3000 X90.737 Y12.888 E15.73868
G1 X96.818 Y18.969 E16.02471
G1 X90.737 Y25.05 E16.31075
G1 X11.553 Y25.05 E18.94442
G1 X5.471 Y18.969 E19.23047
G1 X11.553 Y12.888 E19.51653
G1 F2700 E19.41653
G1 F900 Z0.6
G0 F6000 X11.858 Y24.869 Z0.6
G1 F900 Z0.2
G1 F2700 E19.51653
G1 F3000 X5.842 Y18.852 E19.79952
G0 F6000 X6.124 Y18.57
G1 F3000 X12.424 Y24.869 E20.09583
G0 F6000 X12.99 Y24.869
G1 F3000 X6.407 Y18.287 E20.40545
G0 F6000 X6.69 Y18.004
G1 F3000 X13.555 Y24.869 E20.72836
G0 F6000 X14.121 Y24.869
G1 F3000 X6.973 Y17.721 E21.06458
G0 F6000 X7.256 Y17.438
G1 F3000 X14.687 Y24.869 E21.41411
G0 F6000 X15.253 Y24.869
G1 F3000 X7.539 Y17.155 E21.77696
G0 F6000 X7.822 Y16.872
G1 F3000 X15.818 Y24.869 E22.15309
G0 F6000 X16.384 Y24.869
G1 F3000 X8.104 Y16.59 E22.54253
G0 F6000 X8.387 Y16.307
G1 F3000 X16.95 Y24.869 E22.94528
G0 F6000 X17.515 Y24.869
G1 F3000 X8.67 Y16.024 E23.36132
G0 F6000 X8.953 Y15.741
G1 F3000 X18.081 Y24.869 E23.79068
G0 F6000 X18.647 Y24.869
G1 F3000 X9.236 Y15.458 E24.23334
G0 F6000 X9.519 Y15.175
G1 F3000 X19.212 Y24.869 E24.6893
G0 F6000 X19.778 Y24.869
G1 F3000 X9.801 Y14.893 E25.15856
G0 F6000 X10.084 Y14.61
G1 F3000 X20.344 Y24.869 E25.64113
G0 F6000 X20.909 Y24.869
G1 F3000 X10.367 Y14.327 E26.137
G0 F6000 X10.65 Y14.044
G1 F3000 X21.475 Y24.869 E26.64617
G0 F6000 X22.041 Y24.869
G1 F3000 X10.933 Y13.761 E27.16866
G0 F6000 X11.216 Y13.478
G1 F3000 X22.606 Y24.869 E27.70443
G0 F6000 X23.172 Y24.869
G1 F3000 X11.498 Y13.196 E28.25352
G0 F6000 X11.936 Y13.068
G1 F3000 X23.738 Y24.869 E28.80863
G0 F6000 X24.303 Y24.869
G1 F3000 X12.502 Y13.068 E29.36371
G0 F6000 X13.068 Y13.068
G1 F3000 X24.869 Y24.869 E29.91879
G0 F6000 X25.435 Y24.869
G1 F3000 X13.633 Y13.068 E30.4739
G0 F6000 X14.199 Y13.068
G1 F3000 X26.001 Y24.869 E31.029
G0 F6000 X26.566 Y24.869
G1 F3000 X14.765 Y13.068 E31.58409
G0 F6000 X15.33 Y13.068
G1 F3000 X27.132 Y24.869 E32.13919
G0 F6000 X27.698 Y24.869
G1 F3000 X15.896 Y13.068 E32.6943
G0 F6000 X16.462 Y13.068
G1 F3000 X28.263 Y24.869 E33.24938
G0 F6000 X28.829 Y24.869
G1 F3000 X17.027 Y13.068 E33.80449
G0 F6000 X17.593 Y13.068
G1 F3000 X29.395 Y24.869 E34.35959
G0 F6000 X29.96 Y24.869
G1 F3000 X18.159 Y13.068 E34.91468
G0 F6000 X18.724 Y13.068
G1 F3000 X30.526 Y24.869 E35.46978
G0 F6000 X31.092 Y24.869
G1 F3000 X19.29 Y13.068 E36.02489
G0 F6000 X19.856 Y13.068
G1 F3000 X31.657 Y24.869 E36.57997
G0 F6000 X32.223 Y24.869
G1 F3000 X20.421 Y13.068 E37.13508
G0 F6000 X20.987 Y13.068
G1 F3000 X32.789 Y24.869 E37.69019
G0 F6000 X33.354 Y24.869
G1 F3000 X21.553 Y13.068 E38.24527
G0 F6000 X22.119 Y13.068
G1 F3000 X33.92 Y24.869 E38.80035
G0 F6000 X34.486 Y24.869
G1 F3000 X22.684 Y13.068 E39.35546
G0 F6000 X23.25 Y13.068
G1 F3000 X35.051 Y24.869 E39.91054
G0 F6000 X35.617 Y24.869
G1 F3000 X23.816 Y13.068 E40.46562
G0 F6000 X24.381 Y13.068
G1 F3000 X36.183 Y24.869 E41.02073
G0 F6000 X36.749 Y24.869
G1 F3000 X24.947 Y13.068 E41.57584
G0 F6000 X25.513 Y13.068
G1 F3000 X37.314 Y24.869 E42.13092
G0 F6000 X37.88 Y24.869
G1 F3000 X26.078 Y13.068 E42.68603
G0 F6000 X26.644 Y13.068
G1 F3000 X38.446 Y24.869 E43.24113
G0 F6000 X39.011 Y24.869
G1 F3000 X27.21 Y13.068 E43.79622
G0 F6000 X27.775 Y13.068
G1 F3000 X39.577 Y24.869 E44.35132
G0 F6000 X40.143 Y24.869
G1 F3000 X28.341 Y13.068 E44.90643
G0 F6000 X28.907 Y13.068
G1 F3000 X40.708 Y24.869 E45.46151
G0 F6000 X41.274 Y24.869
G1 F3000 X29.472 Y13.068 E46.01662
G0 F6000 X30.038 Y13.068
G1 F3000 X41.84 Y24.869 E46.57172
G0 F6000 X42.405 Y24.869
G1 F3000 X30.604 Y13.068 E47.12681
G0 F6000 X31.169 Y13.068
G1 F3000 X42.971 Y24.869 E47.68191
G0 F6000 X43.537 Y24.869
G1 F3000 X31.735 Y13.068 E48.23702
G0 F6000 X32.301 Y13.068
G1 F3000 X44.102 Y24.869 E48.7921
G0 F6000 X44.668 Y24.869
G1 F3000 X32.867 Y13.068 E49.34718
G0 F6000 X33.432 Y13.068
G1 F3000 X45.234 Y24.869 E49.90229
G0 F6000 X45.8 Y24.869
G1 F3000 X33.998 Y13.068 E50.4574
G0 F6000 X34.564 Y13.068
G1 F3000 X46.365 Y24.869 E51.01248
G0 F6000 X46.931 Y24.869
G1 F3000 X35.129 Y13.068 E51.56759
G0 F6000 X35.695 Y13.068
G1 F3000 X47.497 Y24.869 E52.12269
G0 F6000 X48.062 Y24.869
G1 F3000 X36.261 Y13.068 E52.67778
G0 F6000 X36.826 Y13.068
G1 F3000 X48.628 Y24.869 E53.23288
G0 F6000 X49.194 Y24.869
G1 F3000 X37.392 Y13.068 E53.78799
G0 F6000 X37.958 Y13.068
G1 F3000 X49.759 Y24.869 E54.34307
G0 F6000 X50.325 Y24.869
G1 F3000 X38.523 Y13.068 E54.89818
G0 F6000 X39.089 Y13.068
G1 F3000 X50.891 Y24.869 E55.45328
G0 F6000 X51.456 Y24.869
G1 F3000 X39.655 Y13.068 E56.00837
G0 F6000 X40.22 Y13.068
G1 F3000 X52.022 Y24.869 E56.56347
G0 F6000 X52.588 Y24.869
G1 F3000 X40.786 Y13.068 E57.11858
G0 F6000 X41.352 Y13.068
G1 F3000 X53.153 Y24.869 E57.67366
G0 F6000 X53.719 Y24.869
G1 F3000 X41.917 Y13.068 E58.22877
G0 F6000 X42.483 Y13.068
G1 F3000 X54.285 Y24.869 E58.78388
G0 F6000 X54.85 Y24.869
G1 F3000 X43.049 Y13.068 E59.33896
G0 F6000 X43.615 Y13.068
G1 F3000 X55.416 Y24.869 E59.89404
G0 F6000 X55.982 Y24.869
G1 F3000 X44.18 Y13.068 E60.44915
G0 F6000 X44.746 Y13.068
G1 F3000 X56.548 Y24.869 E61.00425
G0 F6000 X57.113 Y24.869
G1 F3000 X45.312 Y13.068 E61.55934
G0 F6000 X45.877 Y13.068
G1 F3000 X57.679 Y24.869 E62.11444
G0 F6000 X58.245 Y24.869
G1 F3000 X46.443 Y13.068 E62.66955
G0 F6000 X47.009 Y13.068
G1 F3000 X58.81 Y24.869 E63.22463
G0 F6000 X59.376 Y24.869
G1 F3000 X47.574 Y13.068 E63.77974
G0 F6000 X48.14 Y13.068
G1 F3000 X59.942 Y24.869 E64.33485
G0 F6000 X60.507 Y24.869
G1 F3000 X48.706 Y13.068 E64.88993
G0 F6000 X49.271 Y13.068
G1 F3000 X61.073 Y24.869 E65.44503
G0 F6000 X61.639 Y24.869
G1 F3000 X49.837 Y13.068 E66.00014
G0 F6000 X50.403 Y13.068
G1 F3000 X62.204 Y24.869 E66.55522
G0 F6000 X62.77 Y24.869
G1 F3000 X50.968 Y13.068 E67.11033
G0 F6000 X51.534 Y13.068
G1 F3000 X63.336 Y24.869 E67.66544
G0 F6000 X63.901 Y24.869
G1 F3000 X52.1 Y13.068 E68.22052
G0 F6000 X52.666 Y13.068
G1 F3000 X64.467 Y24.869 E68.7756
G0 F6000 X65.033 Y24.869
G1 F3000 X53.231 Y13.068 E69.33071
G0 F6000 X53.797 Y13.068
G1 F3000 X65.599 Y24.869 E69.88582
G0 F6000 X66.164 Y24.869
G1 F3000 X54.363 Y13.068 E70.4409
G0 F6000 X54.928 Y13.068
G1 F3000 X66.73 Y24.869 E70.996
G0 F6000 X67.296 Y24.869
G1 F3000 X55.494 Y13.068 E71.55111
G0 F6000 X56.06 Y13.068
G1 F3000 X67.861 Y24.869 E72.10619
G0 F6000 X68.427 Y24.869
G1 F3000 X56.625 Y13.068 E72.6613
G0 F6000 X57.191 Y13.068
G1 F3000 X68.993 Y24.869 E73.21641
G0 F6000 X69.558 Y24.869
G1 F3000 X57.757 Y13.068 E73.77149
G0 F6000 X58.322 Y13.068
G1 F3000 X70.124 Y24.869 E74.3266
G0 F6000 X70.69 Y24.869
G1 F3000 X58.888 Y13.068 E74.8817
G0 F6000 X59.454 Y13.068
G1 F3000 X71.255 Y24.869 E75.43678
G0 F6000 X71.821 Y24.869
G1 F3000 X60.019 Y13.068 E75.99189
G0 F6000 X60.585 Y13.068
G1 F3000 X72.387 Y24.869 E76.547
G0 F6000 X72.952 Y24.869
G1 F3000 X61.151 Y13.068 E77.10208
G0 F6000 X61.716 Y13.068
G1 F3000 X73.518 Y24.869 E77.65719
G0 F6000 X74.084 Y24.869
G1 F3000 X62.282 Y13.068 E78.21229
G0 F6000 X62.848 Y13.068
G1 F3000 X74.649 Y24.869 E78.76738
G0 F6000 X75.215 Y24.869
G1 F3000 X63.414 Y13.068 E79.32246
G0 F6000 X63.979 Y13.068
G1 F3000 X75.781 Y24.869 E79.87757
G0 F6000 X76.347 Y24.869
G1 F3000 X64.545 Y13.068 E80.43267
G0 F6000 X65.111 Y13.068
G1 F3000 X76.912 Y24.869 E80.98775
G0 F6000 X77.478 Y24.869
G1 F3000 X65.676 Y13.068 E81.54286
G0 F6000 X66.242 Y13.068
G1 F3000 X78.044 Y24.869 E82.09797
G0 F6000 X78.609 Y24.869
G1 F3000 X66.808 Y13.068 E82.65305
G0 F6000 X67.373 Y13.068
G1 F3000 X79.175 Y24.869 E83.20816
G0 F6000 X79.741 Y24.869
G1 F3000 X67.939 Y13.068 E83.76326
G0 F6000 X68.505 Y13.068
G1 F3000 X80.306 Y24.869 E84.31835
G0 F6000 X80.872 Y24.869
G1 F3000 X69.07 Y13.068 E84.87345
G0 F6000 X69.636 Y13.068
G1 F3000 X81.438 Y24.869 E85.42856
G0 F6000 X82.003 Y24.869
G1 F3000 X70.202 Y13.068 E85.98364
G0 F6000 X70.767 Y13.068
G1 F3000 X82.569 Y24.869 E86.53875
G0 F6000 X83.135 Y24.869
G1 F3000 X71.333 Y13.068 E87.09385
G0 F6000 X71.899 Y13.068
G1 F3000 X83.7 Y24.869 E87.64894
G0 F6000 X84.266 Y24.869
G1 F3000 X72.465 Y13.068 E88.20402
G0 F6000 X73.03 Y13.068
G1 F3000 X84.832 Y24.869 E88.75913
G0 F6000 X85.397 Y24.869
G1 F3000 X73.596 Y13.068 E89.31421
G0 F6000 X74.162 Y13.068
G1 F3000 X85.963 Y24.869 E89.86929
G0 F6000 X86.529 Y24.869
G1 F3000 X74.727 Y13.068 E90.4244
G0 F6000 X75.293 Y13.068
G1 F3000 X87.095 Y24.869 E90.9795
G0 F6000 X87.66 Y24.869
G1 F3000 X75.859 Y13.068 E91.53459
G0 F6000 X76.424 Y13.068
G1 F3000 X88.226 Y24.869 E92.08969
G0 F6000 X88.792 Y24.869
G1 F3000 X76.99 Y13.068 E92.6448
G0 F6000 X77.556 Y13.068
G1 F3000 X89.357 Y24.869 E93.19988
G0 F6000 X89.923 Y24.869
G1 F3000 X78.121 Y13.068 E93.75499
G0 F6000 X78.687 Y13.068
G1 F3000 X90.489 Y24.869 E94.3101
G0 F6000 X90.858 Y24.673
G1 F3000 X79.253 Y13.068 E94.85596
G0 F6000 X79.818 Y13.068
G1 F3000 X91.141 Y24.39 E95.38854
G0 F6000 X91.424 Y24.108
G1 F3000 X80.384 Y13.068 E95.90782
G0 F6000 X80.95 Y13.068
G1 F3000 X91.707 Y23.825 E96.4138
G0 F6000 X91.99 Y23.542
G1 F3000 X81.515 Y13.068 E96.90649
G0 F6000 X82.081 Y13.068
G1 F3000 X92.273 Y23.259 E97.38586
G0 F6000 X92.556 Y22.976
G1 F3000 X82.647 Y13.068 E97.85193
G0 F6000 X83.213 Y13.068
G1 F3000 X92.838 Y22.693 E98.30466
G0 F6000 X93.121 Y22.411
G1 F3000 X83.778 Y13.068 E98.74413
G0 F6000 X84.344 Y13.068
G1 F3000 X93.404 Y22.128 E99.17028
G0 F6000 X93.687 Y21.845
G1 F3000 X84.91 Y13.068 E99.58312
G0 F6000 X85.475 Y13.068
G1 F3000 X93.97 Y21.562 E99.98268
G0 F6000 X94.253 Y21.279
G1 F3000 X86.041 Y13.068 E100.36892
G0 F6000 X86.607 Y13.068
G1 F3000 X94.535 Y20.996 E100.74183
G0 F6000 X94.818 Y20.713
G1 F3000 X87.172 Y13.068 E101.10145
G0 F6000 X87.738 Y13.068
G1 F3000 X95.101 Y20.431 E101.44779
G0 F6000 X95.384 Y20.148
G1 F3000 X88.304 Y13.068 E101.78081
G0 F6000 X88.869 Y13.068
G1 F3000 X95.667 Y19.865 E102.10054
G0 F6000 X95.95 Y19.582
G1 F3000 X89.435 Y13.068 E102.40696
G0 F6000 X90.001 Y13.068
G1 F3000 X96.232 Y19.299 E102.70005
G0 F6000 X96.515 Y19.016
G1 F3000 X90.566 Y13.068 E102.97985
G1 X90.496 Y12.998
G1 F2700 E102.87985
G1 F900 Z0.6
;MESH:NONMESH
G0 F6000 X11.393 Y12.498 Z0.6
;TIME_ELAPSED:69.371246
;LAYER:1
M117 "ModifiedDesigns3D - MRT"
M140 S60
M106 S255
;MESH:MD3D-MRT-0.1-1.0.stl
G0 X11.393 Y12.498 Z0.8
;TYPE:WALL-INNER
G1 F900 Z0.4
G1 F2700 E102.97985
G1 F3000 X90.897 Y12.498 E105.62416
G1 X97.368 Y18.969 E105.92854
G1 X90.897 Y25.44 E106.23292
G1 X11.393 Y25.44 E108.87723
G1 X5.061 Y19.109 E109.17504
G1 X4.921 Y18.969 E109.18163
G1 X5.061 Y18.829 E109.18587
G1 X11.393 Y12.498 E109.48369
G0 F6000 X11.227 Y12.098
;TYPE:WALL-OUTER
G1 F3000 X91.063 Y12.098 E112.13904
G1 X97.934 Y18.969 E112.46224
G1 X91.063 Y25.84 E112.78543
G1 X11.227 Y25.84 E115.44078
G1 X4.496 Y19.11 E115.75736
G1 X4.355 Y18.969 E115.764
G1 X4.496 Y18.828 E115.76828
G1 X11.227 Y12.098 E116.08486
G0 F6000 X11.427 Y12.098
G0 X11.427 Y12.538
G0 X11.553 Y12.888
;TYPE:SKIN
G1 F3000 X90.737 Y12.888 E118.71853
G1 X96.818 Y18.969 E119.00456
G1 X90.737 Y25.05 E119.29059
G1 X11.553 Y25.05 E121.92427
G1 X5.471 Y18.969 E122.21032
G1 X11.553 Y12.888 E122.49638
G0 F6000 X11.822 Y13.067
G1 F3000 X5.823 Y19.066 E122.77855
G0 F6000 X6.106 Y19.349
G1 F3000 X12.388 Y13.067 E123.07404
G0 F6000 X12.954 Y13.067
G1 F3000 X6.389 Y19.632 E123.38283
G0 F6000 X6.672 Y19.914
G1 F3000 X13.519 Y13.067 E123.7049
G0 F6000 X14.085 Y13.067
G1 F3000 X6.955 Y20.197 E124.04027
G0 F6000 X7.237 Y20.48
G1 F3000 X14.651 Y13.067 E124.38898
G0 F6000 X15.216 Y13.067
G1 F3000 X7.52 Y20.763 E124.75097
G0 F6000 X7.803 Y21.046
G1 F3000 X15.782 Y13.067 E125.12628
G0 F6000 X16.348 Y13.067
G1 F3000 X8.086 Y21.329 E125.5149
G0 F6000 X8.369 Y21.612
G1 F3000 X16.913 Y13.067 E125.91681
G0 F6000 X17.479 Y13.067
G1 F3000 X8.652 Y21.894 E126.332
G0 F6000 X8.935 Y22.177
G1 F3000 X18.045 Y13.067 E126.76051
G0 F6000 X18.611 Y13.067
G1 F3000 X9.217 Y22.46 E127.20235
G0 F6000 X9.5 Y22.743
G1 F3000 X19.176 Y13.067 E127.65748
G0 F6000 X19.742 Y13.067
G1 F3000 X9.783 Y23.026 E128.12592
G0 F6000 X10.066 Y23.309
G1 F3000 X20.308 Y13.067 E128.60767
G0 F6000 X20.873 Y13.067
G1 F3000 X10.349 Y23.591 E129.10269
G0 F6000 X10.632 Y23.874
G1 F3000 X21.439 Y13.067 E129.61102
G0 F6000 X22.005 Y13.067
G1 F3000 X10.914 Y24.157 E130.13268
G0 F6000 X11.197 Y24.44
G1 F3000 X22.57 Y13.067 E130.66763
G0 F6000 X23.136 Y13.067
G1 F3000 X11.48 Y24.723 E131.21589
G0 F6000 X11.899 Y24.87
G1 F3000 X23.702 Y13.067 E131.77107
G0 F6000 X24.267 Y13.067
G1 F3000 X12.464 Y24.87 E132.32625
G0 F6000 X13.03 Y24.87
G1 F3000 X24.833 Y13.067 E132.88143
G0 F6000 X25.399 Y13.067
G1 F3000 X13.596 Y24.87 E133.4366
G0 F6000 X14.161 Y24.87
G1 F3000 X25.964 Y13.067 E133.99178
G0 F6000 X26.53 Y13.067
G1 F3000 X14.727 Y24.87 E134.54696
G0 F6000 X15.293 Y24.87
G1 F3000 X27.096 Y13.067 E135.10213
G0 F6000 X27.662 Y13.067
G1 F3000 X15.858 Y24.87 E135.65733
G0 F6000 X16.424 Y24.87
G1 F3000 X28.227 Y13.067 E136.21251
G0 F6000 X28.793 Y13.067
G1 F3000 X16.99 Y24.87 E136.76769
G0 F6000 X17.556 Y24.87
G1 F3000 X29.359 Y13.067 E137.32286
G0 F6000 X29.924 Y13.067
G1 F3000 X18.121 Y24.87 E137.87804
G0 F6000 X18.687 Y24.87
G1 F3000 X30.49 Y13.067 E138.43322
G0 F6000 X31.056 Y13.067
G1 F3000 X19.253 Y24.87 E138.98839
G0 F6000 X19.818 Y24.87
G1 F3000 X31.621 Y13.067 E139.54357
G0 F6000 X32.187 Y13.067
G1 F3000 X20.384 Y24.87 E140.09875
G0 F6000 X20.95 Y24.87
G1 F3000 X32.753 Y13.067 E140.65393
G0 F6000 X33.318 Y13.067
G1 F3000 X21.515 Y24.87 E141.2091
G0 F6000 X22.081 Y24.87
G1 F3000 X33.884 Y13.067 E141.76428
G0 F6000 X34.45 Y13.067
G1 F3000 X22.647 Y24.87 E142.31946
G0 F6000 X23.212 Y24.87
G1 F3000 X35.015 Y13.067 E142.87463
G0 F6000 X35.581 Y13.067
G1 F3000 X23.778 Y24.87 E143.42981
G0 F6000 X24.344 Y24.87
G1 F3000 X36.147 Y13.067 E143.98499
G0 F6000 X36.712 Y13.067
G1 F3000 X24.909 Y24.87 E144.54016
G0 F6000 X25.475 Y24.87
G1 F3000 X37.278 Y13.067 E145.09534
G0 F6000 X37.844 Y13.067
G1 F3000 X26.041 Y24.87 E145.65052
G0 F6000 X26.607 Y24.87
G1 F3000 X38.41 Y13.067 E146.2057
G0 F6000 X38.975 Y13.067
G1 F3000 X27.172 Y24.87 E146.76087
G0 F6000 X27.738 Y24.87
G1 F3000 X39.541 Y13.067 E147.31605
G0 F6000 X40.107 Y13.067
G1 F3000 X28.304 Y24.87 E147.87123
G0 F6000 X28.869 Y24.87
G1 F3000 X40.672 Y13.067 E148.4264
G0 F6000 X41.238 Y13.067
G1 F3000 X29.435 Y24.87 E148.98158
G0 F6000 X30.001 Y24.87
G1 F3000 X41.804 Y13.067 E149.53676
G0 F6000 X42.369 Y13.067
G1 F3000 X30.566 Y24.87 E150.09193
G0 F6000 X31.132 Y24.87
G1 F3000 X42.935 Y13.067 E150.64711
G0 F6000 X43.501 Y13.067
G1 F3000 X31.698 Y24.87 E151.20229
G0 F6000 X32.263 Y24.87
G1 F3000 X44.066 Y13.067 E151.75746
G0 F6000 X44.632 Y13.067
G1 F3000 X32.829 Y24.87 E152.31264
G0 F6000 X33.395 Y24.87
G1 F3000 X45.198 Y13.067 E152.86782
G0 F6000 X45.763 Y13.067
G1 F3000 X33.96 Y24.87 E153.423
G0 F6000 X34.526 Y24.87
G1 F3000 X46.329 Y13.067 E153.97817
G0 F6000 X46.895 Y13.067
G1 F3000 X35.092 Y24.87 E154.53335
G0 F6000 X35.657 Y24.87
G1 F3000 X47.461 Y13.067 E155.08855
