;FLAVOR:Marlin
;TIME:5739
;Filament used: 4.30414m
;Layer height: 0.2
;MINX:19.51
;MINY:22.328
;MINZ:0.2
;MAXX:113.088
;MAXY:36.07
;MAXZ:72.4
;Generated with Cura_SteamEngine 4.2.1
M140 S60
M105
M190 S60
M104 S215
M105
M109 S215
M82 ;absolute extrusion mode
M201 X500.00 Y500.00 Z100.00 E5000.00 ;Setup machine max acceleration
M203 X500.00 Y500.00 Z10.00 E50.00 ;Setup machine max feedrate
M204 P500.00 R1000.00 T500.00 ;Setup Print/Retract/Travel acceleration
M205 X8.00 Y8.00 Z0.40 E5.00 ;Setup Jerk
M220 S100 ;Reset Feedrate
M221 S100 ;Reset Flowrate

G28 ;Home

G92 E0 ;Reset Extruder
G1 Z2.0 F3000 ;Move Z Axis up
G1 X10.1 Y20 Z0.28 F5000.0 ;Move to start position
G1 X10.1 Y200.0 Z0.28 F1500.0 E15 ;Draw the first line
G1 X10.4 Y200.0 Z0.28 F5000.0 ;Move to side a little

G92 E0 ;Reset Extruder
G1 Z2.0 F3000 ;Move Z Axis up
M141 S28
G92 E0
G92 E0
G1 F2700 E-0.5
;LAYER_COUNT:360
;LAYER:0
M107
;MESH:MD3D-MRT10MM.stl
G0 F6000 X26.604 Y22.865 Z0.2
;TYPE:WALL-INNER
G1 F2700 E0
G1 F3000 X105.994 Y22.865 E2.64052
G1 X112.328 Y29.199 E2.93845
G1 X105.994 Y35.533 E3.23639
G1 X50.925 Y35.534 E5.06799
G1 X26.604 Y35.533 E5.87691
G1 X20.27 Y29.199 E6.17484
G1 X26.604 Y22.865 E6.47277
G0 F6000 X26.438 Y22.465
;TYPE:WALL-OUTER
G1 F3000 X106.16 Y22.465 E9.12434
G1 X112.894 Y29.199 E9.44108
G1 X106.16 Y35.933 E9.75783
G1 X50.925 Y35.934 E11.59495
G1 X26.438 Y35.933 E12.40939
G1 X19.704 Y29.199 E12.72614
G1 X26.438 Y22.465 E13.04289
G0 F6000 X26.606 Y22.871
G0 X26.764 Y23.255
;TYPE:SKIN
G1 F3000 X105.834 Y23.255 E15.67277
G1 X111.778 Y29.199 E15.95235
G1 X105.834 Y35.143 E16.23194
G1 X50.925 Y35.144 E18.05822
G1 X26.764 Y35.143 E18.86182
G1 X20.82 Y29.199 E19.14141
G1 X26.764 Y23.255 E19.421
G1 F2700 E18.921
G1 F600 Z0.6
G0 F6000 X27.062 Y34.981 Z0.6
G1 F600 Z0.2
G1 F2700 E19.421
G1 F3000 X21.161 Y29.081 E19.69854
G0 F6000 X21.444 Y28.798
G1 F3000 X27.628 Y34.981 E19.98939
G0 F6000 X28.193 Y34.981
G1 F3000 X21.727 Y28.515 E20.29353
G0 F6000 X22.01 Y28.232
G1 F3000 X28.759 Y34.981 E20.61098
G0 F6000 X29.325 Y34.981
G1 F3000 X22.292 Y27.949 E20.94177
G0 F6000 X22.575 Y27.666
G1 F3000 X29.89 Y34.981 E21.28585
G0 F6000 X30.456 Y34.981
G1 F3000 X22.858 Y27.384 E21.64321
G0 F6000 X23.141 Y27.101
G1 F3000 X31.022 Y34.981 E22.01388
G0 F6000 X31.587 Y34.981
G1 F3000 X23.424 Y26.818 E22.39785
G0 F6000 X23.707 Y26.535
G1 F3000 X32.153 Y34.981 E22.79512
G0 F6000 X32.719 Y34.981
G1 F3000 X23.99 Y26.252 E23.20571
G0 F6000 X24.272 Y25.969
G1 F3000 X33.284 Y34.981 E23.6296
G0 F6000 X33.85 Y34.981
G1 F3000 X24.555 Y25.687 E24.06679
G0 F6000 X24.838 Y25.404
G1 F3000 X34.416 Y34.981 E24.51728
G0 F6000 X34.982 Y34.982
G1 F3000 X25.121 Y25.121 E24.98111
G0 F6000 X25.404 Y24.838
G1 F3000 X35.548 Y34.982 E25.45826
G0 F6000 X36.114 Y34.982
G1 F3000 X25.687 Y24.555 E25.94871
G0 F6000 X25.969 Y24.272
G1 F3000 X36.679 Y34.982 E26.45248
G0 F6000 X37.245 Y34.982
G1 F3000 X26.252 Y23.99 E26.96953
G0 F6000 X26.535 Y23.707
G1 F3000 X37.811 Y34.982 E27.49989
G0 F6000 X38.376 Y34.982
G1 F3000 X26.818 Y23.424 E28.04355
G0 F6000 X27.374 Y23.414
G1 F3000 X38.942 Y34.982 E28.58767
G0 F6000 X39.508 Y34.982
G1 F3000 X27.939 Y23.414 E29.13182
G0 F6000 X28.505 Y23.414
G1 F3000 X40.073 Y34.982 E29.67594
G0 F6000 X40.639 Y34.982
G1 F3000 X29.071 Y23.414 E30.22006
G0 F6000 X29.636 Y23.414
G1 F3000 X41.205 Y34.982 E30.76421
G0 F6000 X41.77 Y34.982
G1 F3000 X30.202 Y23.414 E31.30833
G0 F6000 X30.768 Y23.414
G1 F3000 X42.336 Y34.982 E31.85246
G0 F6000 X42.902 Y34.983
G1 F3000 X31.334 Y23.414 E32.3966
G0 F6000 X31.899 Y23.414
G1 F3000 X43.468 Y34.983 E32.94077
G0 F6000 X44.034 Y34.983
G1 F3000 X32.465 Y23.414 E33.48494
G0 F6000 X33.031 Y23.414
G1 F3000 X44.6 Y34.983 E34.02912
G0 F6000 X45.165 Y34.983
G1 F3000 X33.596 Y23.414 E34.57329
G0 F6000 X34.162 Y23.414
G1 F3000 X45.731 Y34.983 E35.11746
G0 F6000 X46.297 Y34.983
G1 F3000 X34.728 Y23.414 E35.66163
G0 F6000 X35.293 Y23.414
G1 F3000 X46.862 Y34.983 E36.2058
G0 F6000 X47.428 Y34.983
G1 F3000 X35.859 Y23.414 E36.74997
G0 F6000 X36.425 Y23.414
G1 F3000 X47.994 Y34.983 E37.29414
G0 F6000 X48.559 Y34.983
G1 F3000 X36.99 Y23.414 E37.83831
G0 F6000 X37.556 Y23.414
G1 F3000 X49.125 Y34.983 E38.38248
G0 F6000 X49.691 Y34.983
G1 F3000 X38.122 Y23.414 E38.92665
G0 F6000 X38.687 Y23.414
G1 F3000 X50.256 Y34.983 E39.47082
G0 F6000 X50.822 Y34.983
G1 F3000 X39.253 Y23.414 E40.01499
G0 F6000 X39.819 Y23.414
G1 F3000 X51.388 Y34.983 E40.55916
G0 F6000 X51.953 Y34.983
G1 F3000 X40.384 Y23.414 E41.10333
G0 F6000 X40.95 Y23.414
G1 F3000 X52.519 Y34.983 E41.6475
G0 F6000 X53.085 Y34.983
G1 F3000 X41.516 Y23.414 E42.19167
G0 F6000 X42.082 Y23.414
G1 F3000 X53.651 Y34.983 E42.73584
G0 F6000 X54.216 Y34.983
G1 F3000 X42.647 Y23.414 E43.28001
G0 F6000 X43.213 Y23.414
G1 F3000 X54.782 Y34.983 E43.82418
G0 F6000 X55.348 Y34.983
G1 F3000 X43.779 Y23.414 E44.36835
G0 F6000 X44.344 Y23.414
G1 F3000 X55.913 Y34.983 E44.91252
G0 F6000 X56.479 Y34.983
G1 F3000 X44.91 Y23.414 E45.45669
G0 F6000 X45.476 Y23.414
G1 F3000 X57.045 Y34.983 E46.00086
G0 F6000 X57.61 Y34.983
G1 F3000 X46.041 Y23.414 E46.54503
G0 F6000 X46.607 Y23.414
G1 F3000 X58.176 Y34.983 E47.0892
G0 F6000 X58.742 Y34.983
G1 F3000 X47.173 Y23.414 E47.63337
G0 F6000 X47.738 Y23.414
G1 F3000 X59.307 Y34.983 E48.17754
G0 F6000 X59.873 Y34.983
G1 F3000 X48.304 Y23.414 E48.72171
G0 F6000 X48.87 Y23.414
G1 F3000 X60.439 Y34.983 E49.26588
G0 F6000 X61.004 Y34.983
G1 F3000 X49.435 Y23.414 E49.81005
G0 F6000 X50.001 Y23.414
G1 F3000 X61.57 Y34.983 E50.35422
G0 F6000 X62.136 Y34.983
G1 F3000 X50.567 Y23.414 E50.89839
G0 F6000 X51.133 Y23.414
G1 F3000 X62.701 Y34.983 E51.44254
G0 F6000 X63.267 Y34.983
G1 F3000 X51.698 Y23.414 E51.98671
G0 F6000 X52.264 Y23.414
G1 F3000 X63.833 Y34.983 E52.53088
G0 F6000 X64.399 Y34.983
G1 F3000 X52.83 Y23.414 E53.07505
G0 F6000 X53.395 Y23.414
G1 F3000 X64.964 Y34.983 E53.61922
G0 F6000 X65.53 Y34.983
G1 F3000 X53.961 Y23.414 E54.16339
G0 F6000 X54.527 Y23.414
G1 F3000 X66.096 Y34.983 E54.70756
G0 F6000 X66.661 Y34.983
G1 F3000 X55.092 Y23.414 E55.25173
G0 F6000 X55.658 Y23.414
G1 F3000 X67.227 Y34.983 E55.7959
G0 F6000 X67.793 Y34.983
G1 F3000 X56.224 Y23.414 E56.34007
G0 F6000 X56.789 Y23.414
G1 F3000 X68.358 Y34.983 E56.88424
G0 F6000 X68.924 Y34.983
G1 F3000 X57.355 Y23.414 E57.42841
G0 F6000 X57.921 Y23.414
G1 F3000 X69.49 Y34.983 E57.97258
G0 F6000 X70.055 Y34.983
G1 F3000 X58.486 Y23.414 E58.51675
G0 F6000 X59.052 Y23.414
G1 F3000 X70.621 Y34.983 E59.06093
G0 F6000 X71.187 Y34.983
G1 F3000 X59.618 Y23.414 E59.6051
G0 F6000 X60.183 Y23.414
G1 F3000 X71.752 Y34.983 E60.14927
G0 F6000 X72.318 Y34.983
G1 F3000 X60.749 Y23.414 E60.69344
G0 F6000 X61.315 Y23.414
G1 F3000 X72.884 Y34.983 E61.23761
G0 F6000 X73.45 Y34.983
G1 F3000 X61.881 Y23.414 E61.78178
G0 F6000 X62.446 Y23.414
G1 F3000 X74.015 Y34.983 E62.32595
G0 F6000 X74.581 Y34.983
G1 F3000 X63.012 Y23.414 E62.87012
G0 F6000 X63.578 Y23.414
G1 F3000 X75.147 Y34.983 E63.41429
G0 F6000 X75.712 Y34.983
G1 F3000 X64.143 Y23.414 E63.95846
G0 F6000 X64.709 Y23.414
G1 F3000 X76.278 Y34.983 E64.50263
G0 F6000 X76.844 Y34.983
G1 F3000 X65.275 Y23.414 E65.0468
G0 F6000 X65.84 Y23.414
G1 F3000 X77.409 Y34.983 E65.59097
G0 F6000 X77.975 Y34.983
G1 F3000 X66.406 Y23.414 E66.13514
G0 F6000 X66.972 Y23.414
G1 F3000 X78.54 Y34.982 E66.67926
G0 F6000 X79.106 Y34.982
G1 F3000 X67.537 Y23.414 E67.22341
G0 F6000 X68.103 Y23.414
G1 F3000 X79.671 Y34.982 E67.76753
G0 F6000 X80.237 Y34.982
G1 F3000 X68.669 Y23.414 E68.31166
G0 F6000 X69.234 Y23.414
G1 F3000 X80.803 Y34.982 E68.8558
G0 F6000 X81.368 Y34.982
G1 F3000 X69.8 Y23.414 E69.39993
G0 F6000 X70.366 Y23.414
G1 F3000 X81.934 Y34.982 E69.94405
G0 F6000 X82.5 Y34.982
G1 F3000 X70.932 Y23.414 E70.48817
G0 F6000 X71.497 Y23.414
G1 F3000 X83.065 Y34.982 E71.0323
G0 F6000 X83.631 Y34.982
G1 F3000 X72.063 Y23.414 E71.57642
G0 F6000 X72.629 Y23.414
G1 F3000 X84.197 Y34.982 E72.12054
G0 F6000 X84.763 Y34.982
G1 F3000 X73.194 Y23.414 E72.66469
G0 F6000 X73.76 Y23.414
G1 F3000 X85.328 Y34.982 E73.20881
G0 F6000 X85.894 Y34.982
G1 F3000 X74.326 Y23.414 E73.75293
G0 F6000 X74.891 Y23.414
G1 F3000 X86.46 Y34.982 E74.29708
G0 F6000 X87.025 Y34.982
G1 F3000 X75.457 Y23.414 E74.8412
G0 F6000 X76.023 Y23.414
G1 F3000 X87.591 Y34.982 E75.38533
G0 F6000 X88.157 Y34.982
G1 F3000 X76.588 Y23.414 E75.92948
G0 F6000 X77.154 Y23.414
G1 F3000 X88.722 Y34.982 E76.4736
G0 F6000 X89.288 Y34.982
G1 F3000 X77.72 Y23.414 E77.01772
G0 F6000 X78.285 Y23.414
G1 F3000 X89.854 Y34.982 E77.56187
G0 F6000 X90.419 Y34.982
G1 F3000 X78.851 Y23.414 E78.10599
G0 F6000 X79.417 Y23.414
G1 F3000 X90.985 Y34.982 E78.65011
G0 F6000 X91.551 Y34.982
G1 F3000 X79.982 Y23.414 E79.19426
G0 F6000 X80.548 Y23.414
G1 F3000 X92.116 Y34.982 E79.73838
G0 F6000 X92.682 Y34.982
G1 F3000 X81.114 Y23.414 E80.28251
G0 F6000 X81.68 Y23.414
G1 F3000 X93.248 Y34.982 E80.82663
G0 F6000 X93.813 Y34.982
G1 F3000 X82.245 Y23.414 E81.37075
G0 F6000 X82.811 Y23.414
G1 F3000 X94.379 Y34.982 E81.91488
G0 F6000 X94.945 Y34.982
G1 F3000 X83.377 Y23.414 E82.459
G0 F6000 X83.942 Y23.414
G1 F3000 X95.511 Y34.982 E83.00315
G0 F6000 X96.076 Y34.982
G1 F3000 X84.508 Y23.414 E83.54727
G0 F6000 X85.074 Y23.414
G1 F3000 X96.642 Y34.982 E84.09139
G0 F6000 X97.208 Y34.982
G1 F3000 X85.639 Y23.414 E84.63554
G0 F6000 X86.205 Y23.414
G1 F3000 X97.773 Y34.982 E85.17966
G0 F6000 X98.339 Y34.982
G1 F3000 X86.771 Y23.414 E85.72379
G0 F6000 X87.336 Y23.414
G1 F3000 X98.905 Y34.982 E86.26793
G0 F6000 X99.47 Y34.982
G1 F3000 X87.902 Y23.414 E86.81206
G0 F6000 X88.468 Y23.414
G1 F3000 X100.036 Y34.982 E87.35618
G0 F6000 X100.602 Y34.982
G1 F3000 X89.033 Y23.414 E87.90033
G0 F6000 X89.599 Y23.414
G1 F3000 X101.167 Y34.982 E88.44445
G0 F6000 X101.733 Y34.982
G1 F3000 X90.165 Y23.414 E88.98857
G0 F6000 X90.73 Y23.414
G1 F3000 X102.299 Y34.982 E89.53272
G0 F6000 X102.864 Y34.982
G1 F3000 X91.296 Y23.414 E90.07684
G0 F6000 X91.862 Y23.414
G1 F3000 X103.43 Y34.982 E90.62097
G0 F6000 X103.996 Y34.982
G1 F3000 X92.428 Y23.414 E91.16509
G0 F6000 X92.993 Y23.414
G1 F3000 X104.562 Y34.982 E91.70924
G0 F6000 X105.127 Y34.982
G1 F3000 X93.559 Y23.414 E92.25336
G0 F6000 X94.125 Y23.414
G1 F3000 X105.693 Y34.982 E92.79748
G0 F6000 X106.013 Y34.737
G1 F3000 X94.69 Y23.414 E93.33008
G0 F6000 X95.256 Y23.414
G1 F3000 X106.296 Y34.454 E93.84937
G0 F6000 X106.579 Y34.171
G1 F3000 X95.822 Y23.414 E94.35535
G0 F6000 X96.387 Y23.414
G1 F3000 X106.862 Y33.888 E94.84804
G0 F6000 X107.145 Y33.605
G1 F3000 X96.953 Y23.414 E95.32741
G0 F6000 X97.519 Y23.414
G1 F3000 X107.427 Y33.323 E95.79348
G0 F6000 X107.71 Y33.04
G1 F3000 X98.084 Y23.414 E96.24626
G0 F6000 X98.65 Y23.414
G1 F3000 X107.993 Y32.757 E96.68572
G0 F6000 X108.276 Y32.474
G1 F3000 X99.216 Y23.414 E97.11188
G0 F6000 X99.781 Y23.414
G1 F3000 X108.559 Y32.191 E97.52474
G0 F6000 X108.842 Y31.908
G1 F3000 X100.347 Y23.414 E97.9243
G0 F6000 X100.913 Y23.414
G1 F3000 X109.124 Y31.626 E98.31054
G0 F6000 X109.407 Y31.343
G1 F3000 X101.479 Y23.414 E98.68347
G0 F6000 X102.044 Y23.414
G1 F3000 X109.69 Y31.06 E99.04312
G0 F6000 X109.973 Y30.777
G1 F3000 X102.61 Y23.414 E99.38945
G0 F6000 X103.176 Y23.414
G1 F3000 X110.256 Y30.494 E99.72247
G0 F6000 X110.539 Y30.211
G1 F3000 X103.741 Y23.414 E100.04221
G0 F6000 X104.307 Y23.414
G1 F3000 X110.822 Y29.929 E100.34865
G0 F6000 X111.104 Y29.646
G1 F3000 X104.873 Y23.414 E100.64176
G0 F6000 X105.438 Y23.414
G1 F3000 X111.387 Y29.363 E100.92159
G1 F2700 E100.42159
G1 F600 Z0.6
;MESH:NONMESH
G0 F6000 X26.552 Y22.741 Z0.6
;TIME_ELAPSED:86.239749
;LAYER:1
M117 "ModifiedDesigns3D - MRT"
M140 S60
M106 S85
;MESH:MD3D-MRT10MM.stl
G0 X26.552 Y22.741 Z0.8
;TYPE:WALL-INNER
G1 F600 Z0.4
G1 F2700 E100.92159
G1 F3000 X106.046 Y22.741 E103.56557
G1 X112.504 Y29.199 E103.86933
G1 X106.046 Y35.657 E104.1731
G1 X26.552 Y35.657 E106.81708
G1 X20.094 Y29.199 E107.12084
G1 X26.552 Y22.741 E107.42461
G0 F6000 X26.386 Y22.341
;TYPE:WALL-OUTER
G1 F3000 X106.212 Y22.341 E110.07963
G1 X113.07 Y29.199 E110.40221
G1 X106.212 Y36.057 E110.72479
G1 X26.386 Y36.057 E113.37981
G1 X19.528 Y29.199 E113.70239
G1 X26.386 Y22.341 E114.02497
G0 F6000 X26.554 Y22.747
G0 X26.712 Y23.131
;TYPE:SKIN
G1 F3000 X105.886 Y23.131 E116.65831
G1 X111.954 Y29.199 E116.94373
G1 X105.886 Y35.267 E117.22915
G1 X26.712 Y35.267 E119.86249
G1 X20.644 Y29.199 E120.14791
G1 X26.712 Y23.131 E120.43333
G0 F6000 X27.055 Y23.29
G1 F3000 X21.008 Y29.337 E120.71776
G0 F6000 X21.29 Y29.62
G1 F3000 X27.621 Y23.29 E121.01553
G0 F6000 X28.186 Y23.29
G1 F3000 X21.573 Y29.903 E121.32658
G0 F6000 X21.856 Y30.186
G1 F3000 X28.752 Y23.29 E121.65095
G0 F6000 X29.318 Y23.29
G1 F3000 X22.139 Y30.469 E121.98863
G0 F6000 X22.422 Y30.752
G1 F3000 X29.883 Y23.29 E122.33959
G0 F6000 X30.449 Y23.29
G1 F3000 X22.705 Y31.034 E122.70385
G0 F6000 X22.988 Y31.317
G1 F3000 X31.015 Y23.29 E123.08141
G0 F6000 X31.58 Y23.29
G1 F3000 X23.27 Y31.6 E123.47229
G0 F6000 X23.553 Y31.883
G1 F3000 X32.146 Y23.29 E123.87648
G0 F6000 X32.712 Y23.29
G1 F3000 X23.836 Y32.166 E124.29398
G0 F6000 X24.119 Y32.449
G1 F3000 X33.277 Y23.29 E124.72476
G0 F6000 X33.843 Y23.29
G1 F3000 X24.402 Y32.731 E125.16884
G0 F6000 X24.685 Y33.014
G1 F3000 X34.409 Y23.29 E125.62623
G0 F6000 X34.974 Y23.29
G1 F3000 X24.967 Y33.297 E126.09693
G0 F6000 X25.25 Y33.58
G1 F3000 X35.54 Y23.29 E126.58094
G0 F6000 X36.106 Y23.29
G1 F3000 X25.533 Y33.863 E127.07826
G0 F6000 X25.816 Y34.146
G1 F3000 X36.671 Y23.29 E127.58887
G0 F6000 X37.237 Y23.29
G1 F3000 X26.099 Y34.429 E128.11279
G0 F6000 X26.382 Y34.711
G1 F3000 X37.803 Y23.29 E128.65
G0 F6000 X38.369 Y23.29
G1 F3000 X26.664 Y34.994 E129.20054
G0 F6000 X27.118 Y35.107
G1 F3000 X38.934 Y23.29 E129.75635
G0 F6000 X39.5 Y23.29
G1 F3000 X27.683 Y35.107 E130.31219
G0 F6000 X28.249 Y35.107
G1 F3000 X40.066 Y23.29 E130.86802
G0 F6000 X40.631 Y23.29
G1 F3000 X28.815 Y35.107 E131.42384
G0 F6000 X29.38 Y35.107
G1 F3000 X41.197 Y23.29 E131.97967
G0 F6000 X41.763 Y23.29
G1 F3000 X29.946 Y35.107 E132.53551
G0 F6000 X30.512 Y35.107
G1 F3000 X42.328 Y23.29 E133.09132
G0 F6000 X42.894 Y23.29
G1 F3000 X31.078 Y35.107 E133.64713
G0 F6000 X31.643 Y35.107
G1 F3000 X43.46 Y23.29 E134.20297
G0 F6000 X44.025 Y23.29
G1 F3000 X32.209 Y35.107 E134.75878
G0 F6000 X32.775 Y35.107
G1 F3000 X44.591 Y23.29 E135.31459
G0 F6000 X45.157 Y23.29
G1 F3000 X33.34 Y35.107 E135.87043
G0 F6000 X33.906 Y35.107
G1 F3000 X45.722 Y23.29 E136.42624
G0 F6000 X46.288 Y23.29
G1 F3000 X34.472 Y35.107 E136.98205
G0 F6000 X35.037 Y35.107
G1 F3000 X46.854 Y23.29 E137.53788
G0 F6000 X47.419 Y23.29
G1 F3000 X35.603 Y35.107 E138.0937
G0 F6000 X36.169 Y35.107
G1 F3000 X47.985 Y23.29 E138.64951
G0 F6000 X48.551 Y23.29
G1 F3000 X36.734 Y35.107 E139.20534
G0 F6000 X37.3 Y35.107
G1 F3000 X49.117 Y23.29 E139.76118
G0 F6000 X49.682 Y23.29
G1 F3000 X37.866 Y35.107 E140.31699
G0 F6000 X38.431 Y35.107
G1 F3000 X50.248 Y23.29 E140.87283
G0 F6000 X50.814 Y23.29
G1 F3000 X38.997 Y35.107 E141.42866
G0 F6000 X39.563 Y35.107
G1 F3000 X51.379 Y23.29 E141.98447
G0 F6000 X51.945 Y23.29
G1 F3000 X40.129 Y35.107 E142.54029
G0 F6000 X40.694 Y35.107
G1 F3000 X52.511 Y23.29 E143.09612
G0 F6000 X53.076 Y23.29
G1 F3000 X41.26 Y35.107 E143.65193
G0 F6000 X41.826 Y35.107
G1 F3000 X53.642 Y23.29 E144.20775
G0 F6000 X54.208 Y23.29
G1 F3000 X42.391 Y35.107 E144.76358
G0 F6000 X42.957 Y35.107
G1 F3000 X54.773 Y23.29 E145.31939
G0 F6000 X55.339 Y23.29
G1 F3000 X43.523 Y35.107 E145.8752
G0 F6000 X44.088 Y35.107
G1 F3000 X55.905 Y23.29 E146.43104
G0 F6000 X56.47 Y23.29
G1 F3000 X44.654 Y35.107 E146.98685
G0 F6000 X45.22 Y35.107
G1 F3000 X57.036 Y23.29 E147.54266
G0 F6000 X57.602 Y23.29
G1 F3000 X45.785 Y35.107 E148.0985
G0 F6000 X46.351 Y35.107
G1 F3000 X58.168 Y23.29 E148.65433
G0 F6000 X58.733 Y23.29
G1 F3000 X46.917 Y35.107 E149.21015
G0 F6000 X47.482 Y35.107
G1 F3000 X59.299 Y23.29 E149.76598
G0 F6000 X59.865 Y23.29
G1 F3000 X48.048 Y35.107 E150.32182
G0 F6000 X48.614 Y35.107
G1 F3000 X60.43 Y23.29 E150.87763
G0 F6000 X60.996 Y23.29
G1 F3000 X49.179 Y35.107 E151.43346
G0 F6000 X49.745 Y35.107
G1 F3000 X61.562 Y23.29 E151.9893
G0 F6000 X62.127 Y23.29
