;FLAVOR:Marlin
;TIME:11656
;Filament used: 10.1593m
;Layer height: 0.2
;MINX:2.491
;MINY:-0.785
;MINZ:0.25
;MAXX:213.673
;MAXY:109.481
;MAXZ:23.85
;Generated with Cura_SteamEngine 4.6.0
M82 ;absolute extrusion mode
M201 X500.00 Y500.00 Z100.00 E5000.00 ;Setup machine max acceleration
M203 X500.00 Y500.00 Z10.00 E50.00 ;Setup machine max feedrate
M204 P500.00 R1000.00 T500.00 ;Setup Print/Retract/Travel acceleration
M205 X8.00 Y8.00 Z0.40 E5.00 ;Setup Jerk
M220 S100 ;Reset Feedrate
M221 S100 ;Reset Flowrate

M140 S50; start preheating the bed
M104 S220 T0; start preheating hotend
G28 ;Home
G1 Z2.0 F3000 ;Move Z Axis up
M190 S50; heat to bed setting in Cura and WAIT
M109 S220 T0; heat hotend to setting in Cura and WAIT


G92 E0 ;Reset Extruder
G1 Z2.0 F3000 ;Move Z Axis up
G1 X218 Y20 Z0.28 F5000.0 ;Move to start position
G1 X218 Y200.0 Z0.28 F1500.0 E15 ;Draw the first line
G1 X218 Y200.0 Z0.28 F5000.0 ;Move to side a little
G1 X218 Y15 Z0.28 F1500.0 E30 ;Draw the second line
G92 E0 ;Reset Extruder
G1 Z2.0 F3000 ;Move Z Axis up
G92 E0
G92 E0
G1 F3000 E-6.5
;LAYER_COUNT:119
;LAYER:0
M107
M204 S500
G0 F9000 X200.816 Y1.626 Z0.25
;TYPE:SKIRT
G1 F2700 E0
G1 F2400 X201.735 Y1.679 E0.11481
G1 X202.646 Y1.812 E0.22964
G1 X203.542 Y2.023 E0.34445
G1 X204.416 Y2.311 E0.45923
G1 X205.263 Y2.674 E0.57417
G1 X206.074 Y3.109 E0.68895
G1 X206.844 Y3.613 E0.80373
G1 X207.568 Y4.182 E0.91858
G1 X208.24 Y4.812 E1.03347
G1 X208.855 Y5.497 E1.14829
G1 X209.408 Y6.233 E1.26311
G1 X209.895 Y7.014 E1.37791
G1 X210.312 Y7.835 E1.49276
G1 X210.657 Y8.689 E1.60764
G1 X210.926 Y9.569 E1.72241
G1 X211.118 Y10.47 E1.83731
G1 X211.231 Y11.383 E1.95206
G1 X211.26 Y11.927 E2.02
G1 X211.273 Y12.545 E2.0971
G1 X211.272 Y31.66 E4.48123
G1 X211.262 Y32.358 E4.5683
G1 X211.209 Y33.277 E4.68311
G1 X211.076 Y34.188 E4.79794
G1 X210.865 Y35.084 E4.91275
G1 X210.577 Y35.958 E5.02753
G1 X210.195 Y36.843 E5.14775
G1 X210.177 Y36.88 E5.15288
G1 X209.902 Y37.407 E5.22702
G1 X208.598 Y39.744 E5.56081
G1 X207.42 Y42.002 E5.87847
G1 X206.337 Y44.231 E6.18756
G1 X205.265 Y46.606 E6.51256
G1 X204.311 Y48.889 E6.82117
G1 X203.413 Y51.217 E7.13238
G1 X202.549 Y53.665 E7.45617
G1 X201.787 Y56.038 E7.76703
G1 X201.076 Y58.483 E8.08461
G1 X200.43 Y60.967 E8.40474
G1 X200.263 Y61.651 E8.49256
G1 X200.006 Y62.535 E8.60738
G1 X199.672 Y63.393 E8.72221
G1 X199.266 Y64.219 E8.83701
G1 X198.789 Y65.007 E8.9519
G1 X198.246 Y65.75 E9.06668
G1 X197.651 Y66.433 E9.17966
G1 X197.498 Y66.594 E9.20736
G1 X196.835 Y67.233 E9.32221
G1 X196.12 Y67.812 E9.43696
G1 X195.357 Y68.328 E9.55185
G1 X194.552 Y68.774 E9.66663
G1 X193.711 Y69.15 E9.78153
G1 X192.841 Y69.451 E9.89635
G1 X191.948 Y69.675 E10.01118
G1 X190.683 Y69.856 E10.17057
G1 X190.525 Y69.869 E10.19034
G1 X189.784 Y69.904 E10.28287
G1 X189.244 Y69.91 E10.35022
G1 X184.558 Y69.91 E10.93468
G1 X182.502 Y69.88 E11.19115
G1 X182.036 Y69.867 E11.24929
G1 X179.508 Y69.87 E11.5646
G1 X178.207 Y69.901 E11.72691
G1 X177.341 Y69.91 E11.83493
G1 X172.648 Y69.91 E12.42027
G1 X171.975 Y69.9 E12.50422
G1 X171.454 Y69.869 E12.56931
G1 X171.226 Y69.861 E12.59777
G1 X171.15 Y69.852 E12.60731
G1 X171.055 Y69.846 E12.61919
G1 X170.778 Y69.806 E12.65409
G1 X170.313 Y69.748 E12.71254
G1 X169.412 Y69.556 E12.82744
G1 X168.498 Y69.27 E12.94689
G1 X168.497 Y69.273 E12.94729
G1 X165.971 Y68.382 E13.28137
G1 X163.565 Y67.609 E13.59656
G1 X161.156 Y66.91 E13.90942
G1 X158.669 Y66.263 E14.22994
G1 X156.272 Y65.711 E14.53673
G1 X153.735 Y65.204 E14.85942
G1 X151.246 Y64.778 E15.17437
G1 X148.765 Y64.425 E15.48693
G1 X146.143 Y64.129 E15.81604
G1 X145.363 Y64.053 E15.91379
G1 X145.347 Y64.051 E15.9158
G1 X145.01 Y64.018 E15.95803
G1 X144.974 Y64.016 E15.96253
G1 X142.709 Y63.806 E16.24624
G1 X140.205 Y63.646 E16.55919
G1 X137.653 Y63.554 E16.8777
G1 X135.743 Y63.533 E17.11594
G1 X134.388 Y63.543 E17.28495
G1 X132.126 Y63.574 E17.5671
G1 X131.633 Y63.574 E17.62859
G1 X129.009 Y63.611 E17.9559
G1 X126.5 Y63.718 E18.26913
G1 X123.98 Y63.896 E18.58422
G1 X121.465 Y64.145 E18.89944
G1 X118.976 Y64.464 E19.21242
G1 X116.424 Y64.865 E19.53462
G1 X113.993 Y65.317 E19.84303
G1 X111.494 Y65.855 E20.16186
G1 X109.021 Y66.462 E20.47946
G1 X106.599 Y67.128 E20.79276
G1 X104.199 Y67.863 E21.10582
G1 X101.785 Y68.677 E21.42356
G1 X99.435 Y69.544 E21.73598
G1 X97.047 Y70.503 E22.05694
G1 X94.77 Y71.494 E22.36668
G1 X92.453 Y72.58 E22.68583
G1 X90.218 Y73.704 E22.99786
G1 X87.993 Y74.906 E23.31328
G1 X85.806 Y76.167 E23.62815
G1 X83.626 Y77.509 E23.94744
G1 X81.527 Y78.883 E24.26035
G1 X79.428 Y80.345 E24.57939
G1 X77.414 Y81.833 E24.89171
G1 X75.413 Y83.401 E25.20878
G1 X73.494 Y84.995 E25.51993
G1 X71.578 Y86.679 E25.83809
G1 X69.717 Y88.41 E26.15509
G1 X67.922 Y90.179 E26.46943
G1 X66.175 Y92 E26.78417
G1 X64.492 Y93.857 E27.09676
G1 X62.846 Y95.778 E27.41228
G1 X61.243 Y97.761 E27.73031
G1 X59.71 Y99.773 E28.0458
G1 X58.44 Y101.5 E28.31318
G1 X58.222 Y101.786 E28.35803
G1 X57.942 Y102.141 E28.41442
G1 X57.341 Y102.839 E28.5293
G1 X56.682 Y103.481 E28.64406
G1 X56.212 Y103.877 E28.72071
G1 X55.689 Y104.289 E28.80375
G1 X55.421 Y104.493 E28.84576
G1 X54.665 Y105.019 E28.96063
G1 X53.609 Y105.605 E29.11126
G1 X53.464 Y105.675 E29.13134
G1 X52.821 Y105.959 E29.21902
G1 X52.407 Y106.126 E29.27469
G1 X51.46 Y106.457 E29.39982
G1 X51.13 Y106.555 E29.44275
G1 X50.237 Y106.779 E29.55758
G1 X49.412 Y106.914 E29.66185
G1 X48.797 Y106.99 E29.73914
G1 X47.914 Y107.062 E29.84964
G1 X47.525 Y107.074 E29.89818
G1 X46.906 Y107.081 E29.97539
G1 X19.046 Y107.08 E33.45024
G1 X18.349 Y107.07 E33.53718
G1 X17.656 Y107.037 E33.62372
G1 X17.631 Y107.035 E33.62685
G1 X17.144 Y106.985 E33.68791
G1 X16.447 Y106.896 E33.77555
G1 X16.185 Y106.857 E33.80858
G1 X15.281 Y106.683 E33.92341
G1 X14.396 Y106.43 E34.03821
G1 X13.885 Y106.245 E34.10599
G1 X13.297 Y106.015 E34.18474
G1 X12.156 Y105.488 E34.3415
G1 X11.915 Y105.359 E34.37559
G1 X11.123 Y104.89 E34.4904
G1 X10.295 Y104.291 E34.61786
G1 X9.72 Y103.831 E34.7097
G1 X9.027 Y103.225 E34.82452
G1 X8.389 Y102.562 E34.93929
G1 X8.008 Y102.106 E35.0134
G1 X7.799 Y101.836 E35.05599
G1 X7.437 Y101.355 E35.13107
G1 X6.915 Y100.596 E35.24597
G1 X6.3 Y99.464 E35.40665
G1 X6.237 Y99.329 E35.42523
G1 X6.013 Y98.811 E35.49562
G1 X5.679 Y97.963 E35.60929
G1 X5.392 Y97.088 E35.72415
G1 X5.133 Y95.913 E35.87422
G1 X5.113 Y95.789 E35.88988
G1 X5.059 Y95.407 E35.938
G1 X4.982 Y94.787 E36.01593
G1 X4.906 Y93.832 E36.13542
G1 X4.898 Y93.507 E36.17597
G1 X4.891 Y92.862 E36.25642
G1 X4.891 Y20.188 E45.32072
G1 X4.892 Y20.036 E45.33968
G1 X4.902 Y19.338 E45.42675
G1 X4.949 Y18.483 E45.53355
G1 X4.972 Y18.242 E45.56374
G1 X5.03 Y17.756 E45.62479
G1 X5.098 Y17.278 E45.68501
G1 X5.379 Y15.934 E45.85626
G1 X5.409 Y15.826 E45.87024
G1 X5.768 Y14.757 E46.01089
G1 X5.942 Y14.318 E46.06979
G1 X6.118 Y13.9 E46.12636
G1 X6.223 Y13.665 E46.15846
G1 X6.635 Y12.841 E46.27337
G1 X7.203 Y11.93 E46.40727
G1 X7.523 Y11.486 E46.47553
G1 X7.763 Y11.172 E46.52482
G1 X8.165 Y10.665 E46.60553
G1 X8.174 Y10.654 E46.6073
G1 X8.787 Y9.967 E46.72214
G1 X9.675 Y9.155 E46.87222
G1 X9.871 Y8.995 E46.90377
G1 X10.24 Y8.707 E46.96216
G1 X10.66 Y8.394 E47.02749
G1 X11.421 Y7.876 E47.14231
G1 X12.254 Y7.412 E47.26123
G1 X12.264 Y7.407 E47.26263
G1 X12.761 Y7.174 E47.33109
G1 X13.022 Y7.06 E47.36661
G1 X13.344 Y6.926 E47.41011
G1 X13.766 Y6.758 E47.46677
G1 X14.636 Y6.455 E47.58167
G1 X15.528 Y6.228 E47.69647
G1 X16.105 Y6.125 E47.76958
G1 X16.952 Y6.001 E47.87634
G1 X17.187 Y5.972 E47.90588
G1 X18.068 Y5.9 E48.01613
G1 X18.457 Y5.888 E48.06467
G1 X19.077 Y5.881 E48.142
G1 X46.936 Y5.882 E51.61673
G1 X47.634 Y5.892 E51.7038
G1 X48.489 Y5.939 E51.8106
G1 X48.73 Y5.962 E51.84079
G1 X49.231 Y6.022 E51.90373
G1 X50.414 Y6.193 E52.05281
G1 X52.042 Y6.452 E52.25842
G1 X54.535 Y6.777 E52.57199
G1 X57.036 Y7.032 E52.88555
G1 X59.59 Y7.218 E53.20494
G1 X62.075 Y7.33 E53.5152
G1 X64.938 Y7.374 E53.87233
G1 X82.295 Y7.375 E56.03719
G1 X82.993 Y7.385 E56.12426
G1 X83.686 Y7.418 E56.21079
G1 X83.711 Y7.42 E56.21392
G1 X84.201 Y7.47 E56.27535
G1 X84.422 Y7.498 E56.30313
G1 X86.98 Y7.789 E56.62424
G1 X89.513 Y8.005 E56.94132
G1 X92.019 Y8.147 E57.25438
G1 X94.566 Y8.219 E57.57218
G1 X97.076 Y8.219 E57.88524
G1 X99.631 Y8.147 E58.20404
G1 X102.121 Y8.007 E58.5151
G1 X104.672 Y7.789 E58.83443
G1 X106.249 Y7.61 E59.03239
G1 X106.289 Y7.607 E59.03739
G1 X107.653 Y7.452 E59.20861
G1 X107.69 Y7.448 E59.21326
G1 X108.562 Y7.387 E59.32228
G1 X109.18 Y7.374 E59.39938
G1 X128.678 Y7.374 E61.83128
G1 X131.303 Y7.337 E62.15871
G1 X133.811 Y7.23 E62.47181
G1 X136.331 Y7.052 E62.7869
G1 X138.846 Y6.803 E63.10212
G1 X141.335 Y6.484 E63.4151
G1 X143.887 Y6.083 E63.73731
G1 X146.318 Y5.631 E64.04571
G1 X148.817 Y5.093 E64.36454
G1 X151.29 Y4.486 E64.68214
G1 X153.712 Y3.82 E64.99544
G1 X156.121 Y3.082 E65.30969
G1 X159.023 Y2.107 E65.69152
G1 X159.913 Y1.87 E65.8064
G1 X160.82 Y1.712 E65.92123
G1 X161.885 Y1.628 E66.05447
G1 X162.503 Y1.615 E66.13157
G1 X200.118 Y1.616 E70.82312
G1 X200.633 Y1.624 E70.88736
G0 F2160 X200.816 Y1.626
G0 F9000 X200.833 Y0.426
G1 F2400 X201.803 Y0.48 E71.00853
G1 X202.765 Y0.614 E71.12968
G1 X203.713 Y0.826 E71.25084
G1 X204.64 Y1.115 E71.37195
G1 X205.541 Y1.48 E71.49319
G1 X206.408 Y1.917 E71.61429
G1 X207.236 Y2.425 E71.73545
G1 X208.02 Y2.999 E71.85664
G1 X208.754 Y3.635 E71.97778
G1 X209.433 Y4.329 E72.09888
G1 X210.053 Y5.077 E72.22005
G1 X210.609 Y5.874 E72.34126
G1 X211.098 Y6.713 E72.46238
G1 X211.516 Y7.59 E72.58355
G1 X211.86 Y8.499 E72.70477
G1 X212.129 Y9.432 E72.82588
G1 X212.32 Y10.385 E72.94711
G1 X212.431 Y11.349 E73.06814
G1 X212.459 Y11.893 E73.13608
G1 X212.473 Y12.545 E73.21742
G1 X212.472 Y31.677 E75.60367
G1 X212.462 Y32.375 E75.69074
G1 X212.408 Y33.345 E75.81191
G1 X212.274 Y34.307 E75.93305
G1 X212.062 Y35.255 E76.05421
G1 X211.773 Y36.182 E76.17532
G1 X211.274 Y37.368 E76.33581
G1 X211.256 Y37.405 E76.34094
G1 X210.95 Y37.992 E76.4235
G1 X209.652 Y40.319 E76.75584
G1 X208.505 Y42.518 E77.06518
G1 X207.397 Y44.798 E77.38135
G1 X206.378 Y47.055 E77.69022
G1 X205.426 Y49.331 E77.99793
G1 X204.53 Y51.657 E78.30882
G1 X203.7 Y54.009 E78.6199
G1 X202.927 Y56.414 E78.93498
G1 X202.232 Y58.804 E79.24542
G1 X201.606 Y61.214 E79.55599
G1 X201.429 Y61.936 E79.6487
G1 X201.159 Y62.87 E79.76997
G1 X200.814 Y63.778 E79.89112
G1 X200.395 Y64.654 E80.01223
G1 X199.905 Y65.493 E80.13342
G1 X199.348 Y66.289 E80.25459
G1 X198.521 Y67.26 E80.41367
G1 X198.368 Y67.421 E80.44137
G1 X197.67 Y68.097 E80.56257
G1 X196.919 Y68.713 E80.68372
G1 X196.12 Y69.265 E80.80484
G1 X195.279 Y69.75 E80.92593
G1 X194.4 Y70.164 E81.04711
G1 X193.49 Y70.505 E81.16832
G1 X192.555 Y70.769 E81.2895
G1 X191.602 Y70.956 E81.41063
G1 X190.782 Y71.052 E81.5136
G1 X190.624 Y71.065 E81.53338
G1 X189.799 Y71.104 E81.63639
G1 X189.245 Y71.11 E81.70549
G1 X184.542 Y71.11 E82.29208
G1 X182.469 Y71.08 E82.55066
G1 X182.004 Y71.067 E82.60868
G1 X179.499 Y71.07 E82.92112
G1 X178.22 Y71.101 E83.08069
G1 X177.342 Y71.11 E83.1902
G1 X172.63 Y71.11 E83.77791
G1 X171.957 Y71.1 E83.86186
G1 X171.176 Y71.061 E83.95939
G1 X171.09 Y71.051 E83.97019
G1 X170.987 Y71.045 E83.98306
G1 X170.688 Y71.003 E84.02072
G1 X170.211 Y70.947 E84.08062
G1 X170.049 Y70.914 E84.10124
G1 X170.025 Y70.911 E84.10426
G1 X169.956 Y70.896 E84.11306
G1 X169.259 Y70.755 E84.20176
G1 X168.1 Y70.4 E84.35294
G1 X168.098 Y70.405 E84.35362
G1 X165.595 Y69.522 E84.68466
G1 X163.212 Y68.756 E84.99686
G1 X160.811 Y68.06 E85.30865
G1 X158.38 Y67.427 E85.62197
G1 X156.043 Y66.89 E85.92105
G1 X153.512 Y66.383 E86.243
G1 X151.054 Y65.963 E86.55402
G1 X148.635 Y65.619 E86.85877
G1 X145.957 Y65.317 E87.1949
G1 X145.246 Y65.247 E87.28401
G1 X145.229 Y65.245 E87.28614
G1 X144.904 Y65.213 E87.32687
G1 X144.864 Y65.211 E87.33187
G1 X142.63 Y65.004 E87.6117
G1 X140.12 Y64.843 E87.9254
G1 X137.637 Y64.754 E88.2353
G1 X135.739 Y64.733 E88.47204
G1 X134.413 Y64.743 E88.63743
G1 X132.126 Y64.774 E88.9227
G1 X131.65 Y64.774 E88.98207
G1 X129.04 Y64.811 E89.30764
G1 X126.567 Y64.916 E89.61636
G1 X124.11 Y65.09 E89.92358
G1 X121.596 Y65.339 E90.23868
G1 X119.111 Y65.657 E90.55115
G1 X116.651 Y66.044 E90.86175
G1 X114.21 Y66.498 E91.17142
G1 X111.757 Y67.025 E91.48435
G1 X109.343 Y67.618 E91.79439
G1 X106.944 Y68.278 E92.10473
G1 X104.554 Y69.009 E92.41645
G1 X102.194 Y69.806 E92.72714
G1 X99.834 Y70.676 E93.04085
G1 X97.551 Y71.593 E93.34771
G1 X95.221 Y72.607 E93.66465
G1 X93.008 Y73.644 E93.96947
G1 X90.764 Y74.774 E94.28284
G1 X88.572 Y75.958 E94.59357
G1 X86.412 Y77.203 E94.90452
G1 X84.279 Y78.515 E95.21686
G1 X82.196 Y79.879 E95.52741
G1 X80.13 Y81.318 E95.84144
G1 X78.153 Y82.779 E96.14805
G1 X76.183 Y84.322 E96.46015
G1 X74.24 Y85.936 E96.7752
G1 X72.395 Y87.559 E97.08168
G1 X70.545 Y89.279 E97.39674
G1 X68.782 Y91.016 E97.70543
G1 X67.065 Y92.805 E98.01471
G1 X65.374 Y94.672 E98.32889
G1 X63.76 Y96.555 E98.63821
G1 X62.201 Y98.484 E98.94756
G1 X60.67 Y100.493 E99.2626
G1 X60.496 Y100.734 E99.29968
G1 X60.424 Y100.825 E99.31415
G1 X60.425 Y100.826 E99.31432
G1 X59.407 Y102.211 E99.52871
G1 X59.164 Y102.53 E99.57873
G1 X58.884 Y102.885 E99.63512
G1 X58.252 Y103.622 E99.75621
G1 X57.561 Y104.305 E99.8774
G1 X56.958 Y104.817 E99.97606
G1 X56.416 Y105.244 E100.06212
G1 X56.148 Y105.448 E100.10413
G1 X55.352 Y106.004 E100.22523
G1 X54.131 Y106.686 E100.39967
G1 X53.986 Y106.756 E100.41975
G1 X53.27 Y107.072 E100.51736
G1 X52.856 Y107.239 E100.57304
G1 X51.801 Y107.608 E100.71244
G1 X51.471 Y107.706 E100.75538
G1 X50.529 Y107.944 E100.87656
G1 X49.559 Y108.105 E100.9992
G1 X48.944 Y108.181 E101.07649
G1 X47.973 Y108.261 E101.19801
G1 X47.54 Y108.274 E101.25204
G1 X46.906 Y108.281 E101.33112
G1 X19.029 Y108.28 E104.80809
G1 X18.332 Y108.27 E104.89504
G1 X17.56 Y108.233 E104.99144
G1 X17.535 Y108.231 E104.99456
G1 X16.994 Y108.176 E105.06239
G1 X16.733 Y108.143 E105.0952
G1 X16.689 Y108.138 E105.10072
G1 X16.009 Y108.044 E105.18634
G1 X15.055 Y107.862 E105.30748
G1 X14.119 Y107.602 E105.42864
G1 X13.447 Y107.362 E105.51764
G1 X12.859 Y107.132 E105.59639
G1 X11.589 Y106.546 E105.77084
G1 X11.348 Y106.417 E105.80494
G1 X10.512 Y105.924 E105.92599
G1 X9.546 Y105.228 E106.07449
G1 X8.971 Y104.768 E106.16633
G1 X8.238 Y104.131 E106.28745
G1 X7.56 Y103.435 E106.40864
G1 X7.073 Y102.858 E106.50282
G1 X6.84 Y102.558 E106.55019
G1 X6.478 Y102.077 E106.62528
G1 X5.926 Y101.277 E106.74651
G1 X5.442 Y100.435 E106.86764
G1 X5.15 Y99.836 E106.95075
G1 X4.9 Y99.26 E107.02907
G1 X4.556 Y98.386 E107.14622
G1 X4.251 Y97.463 E107.26746
G1 X3.949 Y96.104 E107.4411
G1 X3.929 Y95.98 E107.45677
G1 X3.868 Y95.555 E107.51032
G1 X3.791 Y94.935 E107.58824
G1 X3.707 Y93.882 E107.72
G1 X3.698 Y93.521 E107.76504
G1 X3.691 Y92.862 E107.84723
G1 X3.691 Y20.188 E116.91154
G1 X3.692 Y20.019 E116.93262
G1 X3.702 Y19.321 E117.01968
G1 X3.754 Y18.369 E117.1386
G1 X3.777 Y18.128 E117.16879
G1 X3.842 Y17.587 E117.23676
G1 X3.91 Y17.109 E117.29697
G1 X4.086 Y16.154 E117.41809
G1 X4.252 Y15.505 E117.50165
G1 X4.652 Y14.315 E117.65823
G1 X4.826 Y13.876 E117.71713
G1 X5.022 Y13.41 E117.78018
G1 X5.127 Y13.175 E117.81229
G1 X5.56 Y12.305 E117.93349
G1 X6.152 Y11.342 E118.07448
G1 X6.212 Y11.254 E118.08777
G1 X6.567 Y10.76 E118.16364
G1 X6.821 Y10.429 E118.21568
G1 X7.236 Y9.905 E118.29905
G1 X7.245 Y9.894 E118.30082
G1 X7.891 Y9.168 E118.42203
G1 X8.916 Y8.225 E118.59575
G1 X9.112 Y8.065 E118.62731
G1 X9.523 Y7.744 E118.69235
G1 X9.943 Y7.431 E118.75768
G1 X10.745 Y6.884 E118.87876
G1 X11.717 Y6.339 E119.01775
G1 X11.727 Y6.334 E119.01915
G1 X12.281 Y6.074 E119.09548
G1 X12.542 Y5.96 E119.131
G1 X12.901 Y5.811 E119.17948
G1 X13.323 Y5.643 E119.23613
G1 X14.239 Y5.321 E119.35723
G1 X15.179 Y5.076 E119.47839
G1 X15.925 Y4.938 E119.57302
G1 X16.805 Y4.81 E119.68393
G1 X17.04 Y4.781 E119.71346
G1 X18.009 Y4.701 E119.83473
G1 X18.443 Y4.688 E119.88889
G1 X19.077 Y4.681 E119.96797
G1 X46.953 Y4.682 E123.44482
G1 X47.651 Y4.692 E123.53188
G1 X48.603 Y4.744 E123.6508
G1 X48.844 Y4.767 E123.681
G1 X49.401 Y4.834 E123.75097
G1 X50.603 Y5.008 E123.90245
G1 X52.211 Y5.264 E124.10554
G1 X54.668 Y5.584 E124.41457
