;FLAVOR:Marlin
;TIME:4867
;Filament used: 4.19673m
;Layer height: 0.2
;MINX:78.027
;MINY:93.836
;MINZ:0.2
;MAXX:139.779
;MAXY:126.167
;MAXZ:48
;Generated with Cura_SteamEngine 4.5.0
M140 S60
M105
M190 S60
M104 S205
M105
M109 S205
M82 ;absolute extrusion mode
M201 X500.00 Y500.00 Z100.00 E5000.00 ;Setup machine max acceleration
M203 X500.00 Y500.00 Z10.00 E50.00 ;Setup machine max feedrate
M204 P500.00 R1000.00 T500.00 ;Setup Print/Retract/Travel acceleration
M205 X8.00 Y8.00 Z0.40 E5.00 ;Setup Jerk
M220 S100 ;Reset Feedrate
M221 S100 ;Reset Flowrate

G28 ;Home

G92 E0 ;Reset Extruder
G1 Z2.0 F3000 ;Move Z Axis up
G1 X10.1 Y20 Z0.28 F5000.0 ;Move to start position
G1 X10.1 Y200.0 Z0.28 F1500.0 E15 ;Draw the first line
G1 X10.4 Y200.0 Z0.28 F5000.0 ;Move to side a little
G1 X10.4 Y20 Z0.28 F1500.0 E30 ;Draw the second line
G92 E0 ;Reset Extruder
G1 Z2.0 F3000 ;Move Z Axis up

G92 E0
G92 E0
G1 F1800 E-4.5
;LAYER_COUNT:240
;LAYER:0
M107
M204 S500
M205 X20 Y20
G0 F7500 X80.907 Y99.021 Z0.2
;TYPE:SKIRT
G1 F1800 E0
G1 F1500 X81.514 Y98.571 E0.02764
G1 X81.682 Y98.462 E0.03497
G1 X82.357 Y98.082 E0.06331
G1 X82.544 Y97.992 E0.0709
G1 X83.189 Y97.726 E0.09643
G1 X83.602 Y97.599 E0.11224
G1 X84.025 Y97.485 E0.12827
G1 X84.708 Y97.342 E0.1538
G1 X85.074 Y97.299 E0.16728
G1 X85.78 Y97.239 E0.1932
G1 X109.074 Y95.85 E1.04695
G1 X109.792 Y95.817 E1.07325
G1 X110.151 Y95.812 E1.08639
G1 X110.535 Y95.817 E1.10044
G1 X111.102 Y95.837 E1.12119
G1 X111.796 Y95.883 E1.14664
G1 X112.268 Y95.928 E1.16399
G1 X112.562 Y95.963 E1.17482
G1 X113.313 Y96.074 E1.20259
G1 X114.35 Y96.257 E1.24112
G1 X114.58 Y96.304 E1.24971
G1 X114.856 Y96.367 E1.26007
G1 X115.547 Y96.543 E1.28616
G1 X115.893 Y96.639 E1.29929
G1 X116.246 Y96.749 E1.31282
G1 X117.368 Y97.135 E1.35623
G1 X117.769 Y97.289 E1.37195
G1 X118.786 Y97.721 E1.41237
G1 X119.175 Y97.902 E1.42807
G1 X119.974 Y98.31 E1.46089
G1 X120.281 Y98.479 E1.47371
G1 X121.072 Y98.942 E1.50725
G1 X121.398 Y99.146 E1.52132
G1 X122.332 Y99.781 E1.56264
G1 X122.789 Y100.118 E1.58341
G1 X123.245 Y100.478 E1.60467
G1 X123.878 Y101.014 E1.63501
G1 X124.348 Y101.437 E1.65815
G1 X124.63 Y101.708 E1.67246
G1 X125.349 Y102.444 E1.7101
G1 X125.599 Y102.716 E1.72362
G1 X126.285 Y103.509 E1.76198
G1 X126.543 Y103.828 E1.77699
G1 X127.115 Y104.593 E1.81194
G1 X127.487 Y105.128 E1.83578
G1 X127.925 Y105.804 E1.86525
G1 X128.163 Y106.207 E1.88237
G1 X128.301 Y106.456 E1.89279
G1 X128.594 Y107.061 E1.91738
G1 X128.673 Y107.25 E1.92487
G1 X128.982 Y108.202 E1.96149
G1 X129.032 Y108.414 E1.96946
G1 X129.153 Y109.101 E1.99498
G1 X129.195 Y109.814 E2.02111
G1 X129.195 Y110.103 E2.03169
G1 X129.155 Y110.8 E2.05723
G1 X129.083 Y111.266 E2.07448
G1 X129.016 Y111.611 E2.08734
G1 X128.844 Y112.288 E2.1129
G1 X128.596 Y112.94 E2.13842
G1 X128.37 Y113.393 E2.15694
G1 X128.042 Y113.988 E2.1818
G1 X127.861 Y114.295 E2.19483
G1 X127.66 Y114.614 E2.20863
G1 X127.512 Y114.837 E2.21842
G1 X127.068 Y115.473 E2.2468
G1 X126.636 Y116.056 E2.27335
G1 X126.42 Y116.331 E2.28614
G1 X125.891 Y116.961 E2.31624
G1 X125.442 Y117.467 E2.34099
G1 X125.252 Y117.67 E2.35116
G1 X124.865 Y118.068 E2.37147
G1 X124.678 Y118.253 E2.38109
G1 X124.234 Y118.666 E2.40328
G1 X123.32 Y119.458 E2.44753
G1 X122.888 Y119.806 E2.46782
G1 X122.431 Y120.15 E2.48875
G1 X121.817 Y120.578 E2.51613
G1 X121.273 Y120.935 E2.53994
G1 X120.95 Y121.133 E2.5538
G1 X119.852 Y121.755 E2.59997
G1 X119.437 Y121.973 E2.61712
G1 X119.136 Y122.121 E2.62939
G1 X118.448 Y122.433 E2.65703
G1 X117.864 Y122.681 E2.68024
G1 X117.547 Y122.805 E2.6927
G1 X116.782 Y123.077 E2.7224
G1 X116.393 Y123.2 E2.73733
G1 X115.322 Y123.51 E2.77812
G1 X114.975 Y123.6 E2.79124
G1 X114.071 Y123.801 E2.82512
G1 X113.553 Y123.896 E2.84439
G1 X112.779 Y124.008 E2.873
G1 X112.07 Y124.089 E2.89911
G1 X111.689 Y124.12 E2.91309
G1 X110.533 Y124.176 E2.95543
G1 X109.705 Y124.187 E2.98573
G1 X109.069 Y124.171 E3.00901
G1 X108.21 Y124.127 E3.04048
G1 X85.923 Y122.767 E3.85739
G1 X85.201 Y122.712 E3.88388
G1 X84.643 Y122.644 E3.90445
G1 X84.431 Y122.608 E3.91231
G1 X83.622 Y122.413 E3.94276
G1 X83.374 Y122.335 E3.95227
G1 X82.459 Y121.964 E3.98839
G1 X82.199 Y121.833 E3.99905
G1 X81.396 Y121.347 E4.03339
G1 X81.203 Y121.209 E4.04207
G1 X80.53 Y120.651 E4.07405
G1 X80.362 Y120.49 E4.08256
G1 X79.762 Y119.824 E4.11536
G1 X79.617 Y119.637 E4.12402
G1 X79.055 Y118.769 E4.16185
G1 X78.902 Y118.482 E4.17375
G1 X78.609 Y117.848 E4.1993
G1 X78.429 Y117.321 E4.21968
G1 X78.312 Y116.92 E4.23496
G1 X78.155 Y116.239 E4.26053
G1 X78.081 Y115.615 E4.28352
G1 X78.045 Y115.072 E4.30343
G1 X78.032 Y114.724 E4.31617
G1 X78.027 Y114.115 E4.33845
G1 X78.034 Y105.593 E4.65024
G1 X78.042 Y105.09 E4.66864
G1 X78.06 Y104.712 E4.68249
G1 X78.091 Y104.315 E4.69706
G1 X78.185 Y103.623 E4.72261
G1 X78.273 Y103.236 E4.73713
G1 X78.366 Y102.883 E4.75048
G1 X78.583 Y102.219 E4.77604
G1 X78.752 Y101.826 E4.79169
G1 X78.851 Y101.617 E4.80015
G1 X79.288 Y100.844 E4.83264
G1 X79.446 Y100.607 E4.84306
G1 X79.981 Y99.918 E4.87498
G1 X80.129 Y99.753 E4.88309
G1 X80.375 Y99.515 E4.89561
G0 F1350 X80.743 Y99.159
G0 X80.907 Y99.021
G0 F7500 X81.19 Y99.357
G1 F1500 X81.753 Y98.94 E4.92124
G1 X81.921 Y98.831 E4.92857
G1 X82.547 Y98.479 E4.95484
G1 X82.734 Y98.389 E4.96244
G1 X83.357 Y98.134 E4.98707
G1 X83.716 Y98.024 E5.0008
G1 X84.139 Y97.91 E5.01683
G1 X85.113 Y97.737 E5.05302
G1 X85.806 Y97.678 E5.07847
G1 X109.094 Y96.29 E5.932
G1 X109.812 Y96.257 E5.9583
G1 X110.146 Y96.251 E5.97052
G1 X110.53 Y96.256 E5.98457
G1 X111.085 Y96.276 E6.00489
G1 X111.754 Y96.321 E6.02942
G1 X112.226 Y96.366 E6.04677
G1 X112.499 Y96.398 E6.05682
G1 X113.237 Y96.507 E6.08411
G1 X114.262 Y96.688 E6.1222
G1 X114.492 Y96.735 E6.13078
G1 X114.748 Y96.793 E6.14039
G1 X115.429 Y96.967 E6.1661
G1 X115.775 Y97.063 E6.17924
G1 X116.103 Y97.165 E6.19181
G1 X117.225 Y97.551 E6.23522
G1 X117.597 Y97.694 E6.2498
G1 X118.614 Y98.126 E6.29023
G1 X118.975 Y98.294 E6.30479
G1 X119.774 Y98.702 E6.33762
G1 X120.059 Y98.858 E6.3495
G1 X120.85 Y99.321 E6.38304
G1 X121.153 Y99.511 E6.39612
G1 X121.891 Y100.008 E6.42867
G1 X122.072 Y100.136 E6.43678
G1 X122.519 Y100.466 E6.45711
G1 X122.962 Y100.815 E6.47774
G1 X123.583 Y101.341 E6.50752
G1 X124.053 Y101.764 E6.53065
G1 X124.316 Y102.016 E6.54398
G1 X125.035 Y102.752 E6.58162
G1 X125.267 Y103.004 E6.59416
G1 X125.953 Y103.797 E6.63252
G1 X126.192 Y104.093 E6.64644
G1 X126.755 Y104.846 E6.68084
G1 X127.119 Y105.369 E6.70415
G1 X127.548 Y106.031 E6.73301
G1 X127.779 Y106.42 E6.74956
G1 X127.917 Y106.669 E6.75998
G1 X128.188 Y107.23 E6.78277
G1 X128.267 Y107.419 E6.79027
G1 X128.554 Y108.303 E6.82427
G1 X128.604 Y108.515 E6.83224
G1 X128.719 Y109.177 E6.85682
G1 X128.755 Y109.814 E6.88016
G1 X128.755 Y110.103 E6.89074
G1 X128.715 Y110.774 E6.91533
G1 X128.651 Y111.182 E6.93044
G1 X128.584 Y111.527 E6.9433
G1 X128.417 Y112.179 E6.96792
G1 X128.174 Y112.806 E6.99252
G1 X127.985 Y113.18 E7.00786
G1 X127.657 Y113.775 E7.03271
G1 X127.489 Y114.06 E7.04482
G1 X127.288 Y114.379 E7.05861
G1 X127.151 Y114.586 E7.06769
G1 X126.715 Y115.211 E7.09557
G1 X126.283 Y115.794 E7.12212
G1 X126.082 Y116.049 E7.134
G1 X125.562 Y116.669 E7.16361
G1 X125.113 Y117.175 E7.18836
G1 X124.937 Y117.364 E7.1978
G1 X124.55 Y117.762 E7.21811
G1 X124.376 Y117.933 E7.22704
G1 X123.945 Y118.334 E7.24858
G1 X123.042 Y119.117 E7.29231
G1 X122.621 Y119.457 E7.3121
G1 X122.178 Y119.79 E7.33238
G1 X121.575 Y120.21 E7.35927
G1 X121.031 Y120.567 E7.38307
G1 X120.732 Y120.751 E7.39592
G1 X119.647 Y121.366 E7.44155
G1 X119.232 Y121.584 E7.4587
G1 X118.953 Y121.721 E7.47007
G1 X118.276 Y122.028 E7.49726
G1 X117.692 Y122.276 E7.52048
G1 X117.398 Y122.391 E7.53203
G1 X116.646 Y122.659 E7.56124
G1 X116.271 Y122.778 E7.57563
G1 X115.2 Y123.088 E7.61642
G1 X114.878 Y123.171 E7.62859
G1 X113.989 Y123.369 E7.66191
G1 X113.484 Y123.462 E7.6807
G1 X112.729 Y123.57 E7.7086
G1 X112.02 Y123.651 E7.73471
G1 X111.667 Y123.681 E7.74767
G1 X110.524 Y123.736 E7.78954
G1 X109.714 Y123.747 E7.81917
G1 X109.091 Y123.732 E7.84197
G1 X108.237 Y123.688 E7.87326
G1 X85.956 Y122.329 E8.68995
G1 X85.234 Y122.274 E8.71644
G1 X84.716 Y122.21 E8.73554
G1 X84.504 Y122.174 E8.7434
G1 X83.754 Y121.993 E8.77163
G1 X83.506 Y121.915 E8.78114
G1 X82.657 Y121.571 E8.81466
G1 X82.397 Y121.44 E8.82531
G1 X81.652 Y120.989 E8.85717
G1 X81.459 Y120.851 E8.86585
G1 X80.835 Y120.333 E8.89552
G1 X80.667 Y120.172 E8.90404
G1 X80.11 Y119.554 E8.93448
G1 X79.965 Y119.367 E8.94313
G1 X79.443 Y118.562 E8.97823
G1 X79.29 Y118.275 E8.99013
G1 X79.01 Y117.663 E9.01476
G1 X78.852 Y117.197 E9.03276
G1 X78.735 Y116.796 E9.04804
G1 X78.585 Y116.141 E9.07263
G1 X78.52 Y115.585 E9.09311
G1 X78.484 Y115.042 E9.11302
G1 X78.472 Y114.72 E9.12481
G1 X78.467 Y114.115 E9.14694
G1 X78.474 Y105.6 E9.45847
G1 X78.482 Y105.097 E9.47688
G1 X78.498 Y104.746 E9.48973
G1 X78.529 Y104.349 E9.5043
G1 X78.621 Y103.683 E9.5289
G1 X78.699 Y103.348 E9.54148
G1 X78.792 Y102.995 E9.55484
G1 X79.001 Y102.356 E9.57944
G1 X79.15 Y102.014 E9.59308
G1 X79.249 Y101.805 E9.60155
G1 X79.655 Y101.088 E9.63169
G1 X79.813 Y100.851 E9.64211
G1 X80.309 Y100.212 E9.67171
G1 X80.457 Y100.047 E9.67982
G1 X80.658 Y99.852 E9.69006
G0 F1350 X81.026 Y99.495
G0 X81.19 Y99.357
G0 F7500 X81.473 Y99.694
G1 F1500 X81.993 Y99.309 E9.71373
G1 X82.161 Y99.2 E9.72106
G1 X82.738 Y98.875 E9.74529
G1 X82.925 Y98.785 E9.75288
G1 X83.831 Y98.449 E9.78824
G1 X84.254 Y98.335 E9.80426
G1 X85.152 Y98.175 E9.83764
G1 X85.832 Y98.117 E9.8626
G1 X109.114 Y96.73 E10.71591
G1 X109.832 Y96.697 E10.74221
G1 X110.14 Y96.691 E10.75348
G1 X110.524 Y96.696 E10.76753
G1 X111.068 Y96.716 E10.78745
G1 X111.712 Y96.759 E10.81106
G1 X112.184 Y96.804 E10.82841
G1 X112.436 Y96.834 E10.83769
G1 X113.162 Y96.941 E10.86454
G1 X114.174 Y97.119 E10.90213
G1 X114.404 Y97.166 E10.91072
G1 X114.64 Y97.22 E10.91958
G1 X115.312 Y97.391 E10.94495
G1 X115.658 Y97.487 E10.95809
G1 X115.96 Y97.581 E10.96966
G1 X117.082 Y97.967 E11.01307
G1 X117.425 Y98.098 E11.0265
G1 X118.442 Y98.53 E11.06693
G1 X118.775 Y98.686 E11.08038
G1 X119.574 Y99.094 E11.11321
G1 X119.837 Y99.238 E11.12418
G1 X120.628 Y99.701 E11.15771
G1 X120.907 Y99.876 E11.16976
G1 X121.813 Y100.491 E11.20982
G1 X122.25 Y100.814 E11.2297
G1 X122.679 Y101.152 E11.24968
G1 X123.289 Y101.668 E11.27891
G1 X123.759 Y102.091 E11.30205
G1 X124.001 Y102.323 E11.31431
G1 X124.72 Y103.059 E11.35196
G1 X124.934 Y103.292 E11.36353
G1 X125.62 Y104.085 E11.40189
G1 X125.84 Y104.358 E11.41472
G1 X126.395 Y105.099 E11.44859
G1 X126.751 Y105.61 E11.47138
G1 X127.171 Y106.259 E11.49966
G1 X127.394 Y106.634 E11.51562
G1 X127.532 Y106.883 E11.52604
G1 X127.782 Y107.4 E11.54705
G1 X127.861 Y107.589 E11.55454
G1 X128.126 Y108.404 E11.5859
G1 X128.176 Y108.616 E11.59387
G1 X128.285 Y109.252 E11.61748
G1 X128.315 Y109.814 E11.63807
G1 X128.315 Y110.103 E11.64864
G1 X128.275 Y110.748 E11.67228
G1 X128.219 Y111.098 E11.68525
G1 X128.152 Y111.443 E11.69811
G1 X127.99 Y112.068 E11.72173
G1 X127.752 Y112.669 E11.74538
G1 X127.599 Y112.968 E11.75767
G1 X127.271 Y113.563 E11.78253
G1 X127.116 Y113.826 E11.7937
G1 X126.789 Y114.336 E11.81586
G1 X126.361 Y114.949 E11.84321
G1 X125.929 Y115.532 E11.86976
G1 X125.744 Y115.767 E11.8807
G1 X125.232 Y116.377 E11.90984
G1 X124.783 Y116.883 E11.93459
G1 X124.621 Y117.057 E11.94329
G1 X124.074 Y117.613 E11.97182
G1 X123.656 Y118.002 E11.99271
G1 X122.764 Y118.776 E12.03592
G1 X122.353 Y119.108 E12.05525
G1 X121.925 Y119.43 E12.07485
G1 X121.334 Y119.842 E12.10121
G1 X120.79 Y120.199 E12.12501
G1 X120.514 Y120.368 E12.13685
G1 X119.443 Y120.976 E12.18191
G1 X119.028 Y121.194 E12.19906
G1 X118.77 Y121.321 E12.20958
G1 X118.104 Y121.623 E12.23634
G1 X117.52 Y121.871 E12.25955
G1 X117.249 Y121.977 E12.2702
G1 X116.51 Y122.24 E12.29889
G1 X116.148 Y122.355 E12.31279
G1 X115.077 Y122.665 E12.35358
G1 X114.78 Y122.742 E12.36481
G1 X113.907 Y122.936 E12.39753
G1 X113.415 Y123.027 E12.41583
G1 X112.68 Y123.133 E12.443
G1 X111.971 Y123.214 E12.46911
G1 X111.644 Y123.241 E12.48111
G1 X110.516 Y123.296 E12.52243
G1 X109.723 Y123.307 E12.55145
G1 X109.114 Y123.292 E12.57374
G1 X108.263 Y123.248 E12.60491
G1 X85.99 Y121.89 E13.42131
G1 X85.268 Y121.835 E13.4478
G1 X84.79 Y121.776 E13.46542
G1 X84.578 Y121.74 E13.47329
G1 X83.886 Y121.574 E13.49932
G1 X83.638 Y121.496 E13.50884
G1 X82.855 Y121.178 E13.53976
G1 X82.595 Y121.047 E13.55041
G1 X81.908 Y120.631 E13.57979
G1 X81.715 Y120.493 E13.58847
G1 X81.139 Y120.016 E13.61583
G1 X80.971 Y119.855 E13.62435
G1 X80.458 Y119.285 E13.6524
G1 X80.313 Y119.098 E13.66106
G1 X79.832 Y118.355 E13.69344
G1 X79.679 Y118.068 E13.70534
G1 X79.411 Y117.48 E13.72898
G1 X79.274 Y117.074 E13.74466
G1 X79.157 Y116.673 E13.75994
G1 X79.015 Y116.043 E13.78357
G1 X78.959 Y115.556 E13.8015
G1 X78.923 Y115.013 E13.82141
G1 X78.912 Y114.716 E13.83229
G1 X78.907 Y114.115 E13.85428
G1 X78.914 Y105.607 E14.16555
G1 X78.922 Y105.104 E14.18396
G1 X78.937 Y104.781 E14.19579
G1 X78.968 Y104.384 E14.21036
G1 X79.124 Y103.46 E14.24464
G1 X79.217 Y103.107 E14.258
G1 X79.547 Y102.202 E14.29324
G1 X79.646 Y101.993 E14.3017
G1 X80.021 Y101.332 E14.3295
G1 X80.179 Y101.095 E14.33993
G1 X80.636 Y100.506 E14.3672
G1 X80.784 Y100.341 E14.37531
G1 X80.941 Y100.189 E14.3833
G0 F1350 X81.309 Y99.832
G0 X81.473 Y99.694
G1 F1800 E9.8833
;MESH:3DBenchy.stl
G0 F7500 X101.74 Y107.673
G0 X103.228 Y109.176
;TYPE:WALL-INNER
G1 F1800 E14.3833
G1 F1500 X103.391 Y109.199 E14.38933
G1 X103.447 Y109.342 E14.39495
G1 X103.48 Y109.48 E14.40014
G1 X103.509 Y109.688 E14.40782
G1 X103.519 Y109.955 E14.4176
G1 X103.513 Y110.142 E14.42444
G1 X103.498 Y110.304 E14.43039
G1 X103.469 Y110.464 E14.43634
G1 X103.435 Y110.586 E14.44098
G1 X103.411 Y110.65 E14.44348
G1 X103.385 Y110.7 E14.44554
G1 X103.36 Y110.735 E14.44711
G1 X103.3 Y110.748 E14.44936
G1 X103.23 Y110.756 E14.45194
G1 X103.228 Y109.419 E14.50085
G0 F1350 X103.228 Y109.176
G0 F7500 X103.196 Y108.726
G1 F1500 X103.51 Y108.771 E14.51246
G1 X103.606 Y108.798 E14.51611
G1 X103.64 Y108.815 E14.5175
G1 X103.678 Y108.846 E14.51929
G1 X103.727 Y108.901 E14.52199
G1 X103.752 Y108.94 E14.52368
G1 X103.801 Y109.033 E14.52753
G1 X103.868 Y109.21 E14.53445
G1 X103.913 Y109.397 E14.54149
G1 X103.948 Y109.651 E14.55087
G1 X103.96 Y109.953 E14.56193
G1 X103.953 Y110.164 E14.56965
G1 X103.934 Y110.367 E14.57711
G1 X103.899 Y110.559 E14.58425
G1 X103.853 Y110.725 E14.59055
G1 X103.814 Y110.827 E14.59455
G1 X103.761 Y110.93 E14.59879
G1 X103.68 Y111.041 E14.60381
G1 X103.637 Y111.081 E14.60596
G1 X103.594 Y111.111 E14.60788
G1 X103.544 Y111.137 E14.60994
G1 X103.482 Y111.158 E14.61234
G1 X103.377 Y111.182 E14.61628
G1 X103.096 Y111.213 E14.62662
G1 X102.786 Y111.218 E14.63796
G1 X102.79 Y111.135 E14.641
G1 X102.788 Y108.769 E14.72757
G0 F1350 X102.788 Y108.708
G0 X103.196 Y108.726
G0 F7500 X102.348 Y108.294
;TYPE:WALL-OUTER
G1 F1500 X102.352 Y108.29 E14.72776
G1 X102.434 Y108.274 E14.73067
G1 X102.785 Y108.267 E14.74287
G1 X103.236 Y108.287 E14.75856
G1 X103.596 Y108.338 E14.7712
G1 X103.765 Y108.386 E14.7773
G1 X103.856 Y108.43 E14.78082
G1 X103.905 Y108.462 E14.78285
G1 X103.986 Y108.53 E14.78653
G1 X104.077 Y108.633 E14.7913
G1 X104.136 Y108.723 E14.79504
G1 X104.199 Y108.843 E14.79975
G1 X104.271 Y109.025 E14.80656
G1 X104.293 Y109.095 E14.80911
G1 X104.345 Y109.309 E14.81676
G1 X104.377 Y109.515 E14.82401
G1 X104.388 Y109.633 E14.82813
G1 X104.401 Y109.953 E14.83926
G1 X104.393 Y110.184 E14.84729
G1 X104.37 Y110.433 E14.85598
G1 X104.329 Y110.656 E14.86386
G1 X104.273 Y110.857 E14.87112
G1 X104.215 Y111.01 E14.8768
G1 X104.14 Y111.155 E14.88248
G1 X104.094 Y111.225 E14.88539
G1 X104.01 Y111.334 E14.89017
G1 X103.917 Y111.422 E14.89462
G1 X103.822 Y111.488 E14.89864
G1 X103.718 Y111.542 E14.90271
G1 X103.601 Y111.582 E14.90701
G1 X103.454 Y111.615 E14.91225
G1 X103.214 Y111.646 E14.92066
G1 X103.116 Y111.653 E14.92407
G1 X102.683 Y111.66 E14.93913
G1 X102.428 Y111.674 E14.948
G1 X102.405 Y111.668 E14.94883
G1 X102.372 Y111.641 E14.95031
G1 X102.339 Y111.566 E14.95316
G1 X102.332 Y111.487 E14.95592
G1 X102.35 Y111.124 E14.96855
