; generated by PrusaSlicer 2.2.0+win64 on 2020-06-02 at 17:10:36 UTC

; 

; external perimeters extrusion width = 0.41mm
; perimeters extrusion width = 0.42mm
; infill extrusion width = 0.40mm
; solid infill extrusion width = 0.40mm
; top infill extrusion width = 0.42mm
; first layer extrusion width = 0.42mm

M73 P0 R151
M73 Q0 S155
M201 X9000 Y9000 Z500 E10000 ; sets maximum accelerations, mm/sec^2
M203 X500 Y500 Z80 E120 ; sets maximum feedrates, mm/sec
M204 P1500 R1500 T1500 ; sets acceleration (P, T) and retract acceleration (R), mm/sec^2
M205 X10.00 Y10.00 Z0.20 E2.50 ; sets the jerk limits, mm/sec
M205 S0 T0 ; sets the minimum extruding and travel feed rate, mm/sec
M107
G90 ; use absolute coordinates
M83 ; extruder relative mode
M104 S220 ; set extruder temp
M140 S60 ; set bed temp
G28 ; home all
G1 Z2 F240
M190 S60 ; wait for bed temp
M109 S220 ; wait for extruder temp
G1 X219 Y190 F3000
G1 Z0.28 F240
G92 E0.0
G1 Y20 E15.0 F1500.0 ; intro line
M73 Q0 S154
M73 P0 R151
G1 X219.3 F5000
G1 Y190 E30 F1200.0 ; intro line
G92 E0.0
G21 ; set units to millimeters
G90 ; use absolute coordinates
M82 ; use absolute distances for extrusion
G92 E0
;BEFORE_LAYER_CHANGE
;0.2
G1 Z0.200 F12000.000
;AFTER_LAYER_CHANGE
;0.2
G1 E-6.50000 F3000.00000
G92 E0
G1 Z0.300 F12000.000
G1 X207.581 Y63.272
G1 Z0.200
G1 E6.50000 F2700.00000
G1 F1200.000
G1 X213.845 Y63.272 E6.69641
G1 X207.295 Y72.799 E7.05892
G1 X200.745 Y63.272 E7.42142
G1 X207.009 Y63.272 E7.61784
G1 X207.009 Y15.725 E9.10866
G1 X207.189 Y13.128 E9.19026
G1 X207.401 Y13.128 E9.19688
G1 X207.581 Y15.725 E9.27849
G1 X207.581 Y63.212 E10.76743
G1 E4.26743 F3000.00000
G92 E0
G1 Z0.300 F12000.000
G1 X199.957 Y80.721
G1 Z0.200
G1 E6.50000 F2700.00000
G1 F1200.000
G1 X200.935 Y82.094 E6.55285
G1 X200.805 Y82.284 E6.56007
G1 X201.123 Y82.359 E6.57032
G1 X201.204 Y82.472 E6.57469
G1 X201.260 Y82.391 E6.57779
G1 X202.887 Y82.771 E6.63016
G1 X199.079 Y85.160 E6.77110
G1 X199.170 Y84.624 E6.78815
G1 X199.945 Y80.780 E6.91111
G1 E0.41111 F3000.00000
G92 E0
G1 Z0.300 F12000.000
G1 X211.703 Y82.771
G1 Z0.200
G1 E6.50000 F2700.00000
G1 F1200.000
G1 X213.330 Y82.391 E6.55237
G1 X213.386 Y82.472 E6.55547
G1 X213.467 Y82.359 E6.55983
G1 X213.785 Y82.284 E6.57009
G1 X213.655 Y82.094 E6.57731
G1 X214.633 Y80.721 E6.63015
G1 X215.420 Y84.624 E6.75500
G1 X215.511 Y85.160 E6.77205
G1 X211.754 Y82.803 E6.91111
G1 E0.41111 F3000.00000
G92 E0
G1 Z0.300 F12000.000
G1 X207.958 Y62.895
G1 Z0.200
G1 E6.50000 F2700.00000
G1 F1200.000
G1 X214.261 Y62.895 E6.69764
G1 X216.430 Y59.741 E6.81766
G1 X216.368 Y59.495 E6.82560
G1 X216.568 Y59.443 E6.83206
G1 X217.996 Y57.316 E6.91239
G1 X217.933 Y57.065 E6.92052
G1 X218.149 Y57.008 E6.92753
G1 X218.173 Y57.095 E6.93038
G1 X219.390 Y55.333 E6.99751
G1 X219.500 Y54.786 E7.01502
G1 X219.453 Y54.434 E7.02614
G1 X219.659 Y54.391 E7.03273
G1 X219.863 Y55.102 E7.05592
G1 X218.443 Y57.452 E7.14202
G1 X218.259 Y57.472 E7.14782
G1 X216.906 Y59.579 E7.22634
G1 X217.880 Y59.484 E7.25701
G1 X217.904 Y59.706 E7.26403
G1 X216.746 Y59.845 E7.30058
G1 X214.987 Y62.277 E7.39469
G1 X207.445 Y73.247 E7.81210
G1 X213.390 Y81.816 E8.13911
G1 X214.830 Y79.793 E8.21697
G1 X215.791 Y84.555 E8.36928
G1 X216.024 Y85.927 E8.41291
G1 X210.737 Y82.610 E8.60860
G1 X213.163 Y82.042 E8.68672
G1 X207.295 Y73.468 E9.01250
G1 X201.427 Y82.042 E9.33827
G1 X203.853 Y82.610 E9.41639
G1 X198.566 Y85.927 E9.61208
G1 X198.799 Y84.555 E9.65571
G1 X199.760 Y79.793 E9.80802
G1 X201.200 Y81.816 E9.88588
G1 X207.145 Y73.247 E10.21289
G1 X199.603 Y62.277 E10.63030
G1 X197.844 Y59.845 E10.72441
G1 X196.686 Y59.706 E10.76097
G1 X196.711 Y59.484 E10.76798
G1 X197.684 Y59.579 E10.79865
G1 X196.331 Y57.472 E10.87717
G1 X196.147 Y57.452 E10.88297
G1 X194.727 Y55.102 E10.96907
G1 X194.931 Y54.391 E10.99226
G1 X195.137 Y54.434 E10.99885
G1 X195.090 Y54.786 E11.00997
G1 X195.200 Y55.333 E11.02748
G1 X196.417 Y57.095 E11.09461
G1 X196.441 Y57.008 E11.09745
G1 X196.657 Y57.065 E11.10447
G1 X196.594 Y57.316 E11.11258
G1 X198.022 Y59.443 E11.19291
G1 X198.222 Y59.495 E11.19938
G1 X198.160 Y59.741 E11.20732
G1 X200.329 Y62.895 E11.32734
G1 X206.632 Y62.895 E11.52498
G1 X206.632 Y15.712 E13.00439
G1 X207.189 Y7.685 E13.25666
G1 X207.401 Y7.685 E13.26327
G1 X207.958 Y15.712 E13.51554
G1 X207.958 Y62.835 E14.99307
G1 X208.335 Y62.518 F12000.000
G1 F1200.000
G1 X214.063 Y62.518 E15.17266
G1 X216.023 Y59.667 E15.28114
G1 X215.092 Y55.933 E15.40180
G1 X215.756 Y54.966 E15.43857
G1 X216.728 Y58.529 E15.55435
G1 X217.590 Y57.245 E15.60282
G1 X216.675 Y53.630 E15.71976
G1 X217.340 Y52.662 E15.75658
G1 X218.322 Y56.217 E15.87221
G1 X219.035 Y55.183 E15.91159
G1 X219.118 Y54.773 E15.92469
G1 X219.059 Y54.333 E15.93861
G1 X218.264 Y51.322 E16.03627
G1 X218.911 Y50.428 E16.07087
G1 X220.102 Y54.566 E16.20590
G1 X224.443 Y54.139 E16.34266
G1 X223.743 Y55.125 E16.38056
G1 X220.051 Y55.520 E16.49700
G1 X219.264 Y56.824 E16.54475
G1 X222.893 Y56.479 E16.65907
G1 X222.229 Y57.434 E16.69554
G1 X218.479 Y57.828 E16.81379
G1 X217.644 Y59.128 E16.86223
G1 X221.322 Y58.769 E16.97813
G1 X220.643 Y59.758 E17.01575
G1 X216.955 Y60.200 E17.13221
G1 X215.295 Y62.494 E17.22100
G1 X207.903 Y73.246 E17.63010
G1 X213.394 Y81.160 E17.93213
G1 X215.028 Y78.866 E18.02045
G1 X216.162 Y84.487 E18.20023
G1 X216.536 Y86.694 E18.27044
G1 X209.771 Y82.449 E18.52088
G1 X212.541 Y81.801 E18.61007
G1 X207.295 Y74.135 E18.90130
G1 X202.049 Y81.801 E19.19253
G1 X204.819 Y82.449 E19.28173
G1 X198.054 Y86.694 E19.53216
G1 X198.429 Y84.487 E19.60237
G1 X199.562 Y78.866 E19.78215
G1 X201.196 Y81.160 E19.87048
G1 X206.687 Y73.246 E20.17250
G1 X199.295 Y62.494 E20.58161
G1 X197.635 Y60.200 E20.67039
G1 X193.947 Y59.758 E20.78685
G1 X193.268 Y58.769 E20.82448
G1 X196.946 Y59.128 E20.94037
G1 X196.111 Y57.828 E20.98882
G1 X192.361 Y57.434 E21.10706
G1 X191.697 Y56.479 E21.14354
G1 X195.326 Y56.824 E21.25786
G1 X194.539 Y55.520 E21.30561
G1 X190.847 Y55.125 E21.42204
G1 X190.147 Y54.139 E21.45994
G1 X194.489 Y54.566 E21.59671
G1 X195.679 Y50.428 E21.73173
G1 X196.326 Y51.322 E21.76634
G1 X195.531 Y54.333 E21.86400
G1 X195.472 Y54.773 E21.87791
G1 X195.555 Y55.183 E21.89102
G1 X196.268 Y56.217 E21.93040
G1 X197.250 Y52.662 E22.04603
G1 X197.915 Y53.630 E22.08284
G1 X197.000 Y57.245 E22.19978
G1 X197.862 Y58.529 E22.24826
G1 X198.834 Y54.966 E22.36404
G1 X199.498 Y55.933 E22.40081
G1 X198.567 Y59.667 E22.52147
G1 X200.527 Y62.518 E22.62994
G1 X206.255 Y62.518 E22.80954
G1 X206.255 Y15.698 E24.27754
G1 X207.123 Y3.200 E24.67035
G1 X207.310 Y3.169 E24.67630
G1 X207.467 Y3.197 E24.68130
G1 X208.335 Y15.698 E25.07421
G1 X208.335 Y62.458 E26.54033
G1 X208.337 Y62.918 F12000.000
G1 X207.295 Y63.461
G1 F1200.000
G1 X207.295 Y15.379 E27.31837
G1 X207.295 Y15.024 E27.32270
G1 X207.295 Y14.669 E27.32561
G1 X207.295 Y12.940 F12000.000
G1 F1200.000
G1 X207.295 Y12.568 E27.34183
G1 X207.295 Y12.197 E27.35658
G1 X207.295 Y11.825 E27.36986
G1 X207.295 Y11.454 E27.38168
G1 X207.295 Y11.083 E27.39204
G1 X207.295 Y10.711 E27.40092
G1 X207.295 Y10.340 E27.40835
G1 X207.295 Y9.968 E27.41430
G1 X207.295 Y9.597 E27.41879
G1 X207.295 Y9.226 E27.42181
G1 X207.295 Y7.497 F12000.000
G1 F1200.000
G1 X207.295 Y7.125 E27.43803
G1 X207.295 Y6.754 E27.45278
G1 X207.295 Y6.382 E27.46607
G1 X207.295 Y6.011 E27.47789
G1 X207.295 Y5.640 E27.48824
G1 X207.295 Y5.268 E27.49713
G1 X207.295 Y4.897 E27.50455
G1 X207.295 Y4.525 E27.51050
G1 X207.295 Y4.154 E27.51499
G1 X207.295 Y3.783 E27.51802
G1 E21.01802 F3000.00000
G92 E0
G1 Z0.300 F12000.000
G1 X190.745 Y54.656
G1 Z0.200
G1 E6.50000 F2700.00000
G1 F1200.000
G1 X194.547 Y55.046 E6.67947
G1 X195.073 Y54.228 F12000.000
G1 F1200.000
G1 X195.935 Y51.104 E6.82107
G1 E0.32107 F3000.00000
G92 E0
G1 Z0.300 F12000.000
G1 X197.516 Y53.382
G1 Z0.200
G1 E6.50000 F2700.00000
G1 F1200.000
G1 X196.597 Y56.854 E6.66672
G1 X195.857 Y57.338 F12000.000
G1 F1200.000
G1 X192.274 Y56.979 E6.82892
G1 E0.32892 F3000.00000
G92 E0
G1 Z0.300 F12000.000
G1 X193.851 Y59.286
G1 Z0.200
G1 E6.50000 F2700.00000
G1 F1200.000
G1 X196.511 Y59.575 E6.63129
G1 X198.161 Y59.284 F12000.000
G1 F1200.000
G1 X199.100 Y55.686 E6.80304
G1 E0.30304 F3000.00000
G92 E0
G1 Z0.300 F12000.000
G1 X223.845 Y54.656
G1 Z0.200
G1 E6.50000 F2700.00000
G1 F1200.000
G1 X220.043 Y55.046 E6.67947
G1 X219.517 Y54.228 F12000.000
G1 F1200.000
G1 X219.086 Y52.666 E6.75418
G1 X218.655 Y51.104 E6.82498
G1 E0.32498 F3000.00000
G92 E0
G1 Z0.300 F12000.000
G1 X217.074 Y53.382
G1 Z0.200
G1 E6.50000 F2700.00000
M73 Q0 S153
G1 F1200.000
G1 X217.533 Y55.118 E6.58335
G1 X217.993 Y56.854 E6.67151
G1 X218.733 Y57.338 F12000.000
G1 F1200.000
G1 X222.316 Y56.979 E6.83371
G1 E0.33371 F3000.00000
G92 E0
G1 Z0.300 F12000.000
G1 X220.739 Y59.286
G1 Z0.200
G1 E6.50000 F2700.00000
M73 P0 R150
G1 F1200.000
G1 X218.079 Y59.575 E6.63129
G1 X216.429 Y59.284 F12000.000
G1 F1200.000
G1 X215.959 Y57.485 E6.72227
G1 X215.490 Y55.686 E6.80815
G1 E0.30815 F3000.00000
G92 E0
G1 Z0.300 F12000.000
G1 X213.377 Y63.806
G1 Z0.200
G1 E6.50000 F2700.00000
G1 F1200.000
G1 X213.096 Y63.525 E6.51274
G1 X212.552 Y63.525 E6.53014
G1 X213.034 Y64.007 E6.55195
G1 X212.812 Y64.329 E6.56446
G1 X212.008 Y63.525 E6.60085
G1 X211.463 Y63.525 E6.61826
G1 X212.590 Y64.652 E6.66923
G1 X212.369 Y64.974 E6.68175
G1 X210.919 Y63.525 E6.74731
G1 X210.375 Y63.525 E6.76471
G1 X212.147 Y65.297 E6.84486
G1 X211.925 Y65.619 E6.85737
G1 X209.831 Y63.525 E6.95211
G1 X209.287 Y63.525 E6.96951
G1 X211.704 Y65.941 E7.07883
G1 X211.482 Y66.264 E7.09134
G1 X208.743 Y63.525 E7.21525
G1 X208.199 Y63.525 E7.23265
G1 X211.260 Y66.586 E7.37114
G1 X211.039 Y66.909 E7.38366
G1 X207.666 Y63.536 E7.53622
G1 X207.666 Y63.713 E7.54188
G1 X207.299 Y63.713 E7.55362
G1 X210.817 Y67.231 E7.71275
G1 X210.595 Y67.553 E7.72527
G1 X206.567 Y63.525 E7.90752
G1 X206.023 Y63.525 E7.92492
G1 X210.374 Y67.876 E8.12175
G1 X210.152 Y68.198 E8.13427
G1 X205.479 Y63.525 E8.34569
G1 X204.935 Y63.525 E8.36309
G1 X209.930 Y68.521 E8.58910
G1 X209.709 Y68.843 E8.60161
G1 X204.390 Y63.525 E8.84220
G1 X203.846 Y63.525 E8.85961
G1 X209.487 Y69.165 E9.11478
G1 X209.265 Y69.488 E9.12730
G1 X203.302 Y63.525 E9.39706
G1 X202.758 Y63.525 E9.41446
G1 X209.044 Y69.810 E9.69881
G1 X208.822 Y70.133 E9.71133
G1 X202.214 Y63.525 E10.01026
G1 X201.670 Y63.525 E10.02767
G1 X208.600 Y70.455 E10.34118
G1 X208.379 Y70.778 E10.35370
G1 X201.443 Y63.842 E10.66746
G1 X202.640 Y65.583 E10.73506
G1 X208.157 Y71.100 E10.98463
G1 X207.935 Y71.422 E10.99715
G1 X203.837 Y67.324 E11.18253
G1 X205.035 Y69.066 E11.25013
G1 X207.714 Y71.745 E11.37133
G1 X207.492 Y72.067 E11.38384
G1 X205.573 Y70.148 E11.47067
G1 E4.97067 F3000.00000
G92 E0
G1 Z0.300 F12000.000
G1 X199.900 Y81.423
G1 Z0.200
G1 E6.50000 F2700.00000
G1 F1200.000
G1 X200.727 Y82.250 E6.53981
G1 X202.175 Y83.120 F12000.000
G1 F1200.000
G1 X201.842 Y82.786 E6.55585
G1 X201.370 Y82.676 E6.57234
G1 X201.281 Y82.804 E6.57766
G1 X201.697 Y83.220 E6.59766
G1 X201.341 Y83.443 E6.61194
G1 X199.947 Y82.049 E6.67902
G1 X199.850 Y82.531 E6.69574
G1 X200.985 Y83.666 E6.75037
G1 X200.630 Y83.889 E6.76466
G1 X199.753 Y83.012 E6.80685
G1 X199.656 Y83.494 E6.82357
G1 X200.274 Y84.112 E6.85333
G1 X199.918 Y84.335 E6.86762
G1 X199.559 Y83.976 E6.88493
G1 X199.461 Y84.457 E6.90165
G1 X199.686 Y84.682 E6.91245
G1 E0.41245 F3000.00000
G92 E0
G1 Z0.300 F12000.000
G1 X214.149 Y84.208
G1 Z0.200
G1 E6.50000 F2700.00000
G1 F1200.000
G1 X212.731 Y82.790 E6.56853
G1 X213.202 Y82.680 E6.58507
G1 X215.166 Y84.644 E6.68001
G1 X215.019 Y83.915 E6.70541
G1 X213.674 Y82.570 E6.77047
G1 X214.145 Y82.459 E6.78701
G1 X214.872 Y83.187 E6.82219
G1 X214.726 Y82.459 E6.84759
G1 X214.130 Y81.863 E6.87639
G1 X214.372 Y81.523 E6.89064
G1 X214.795 Y81.947 E6.91113
G1 E0.41113 F3000.00000
G92 E0
G1 Z0.300 F12000.000
G1 X207.421 Y91.266
G1 Z0.200
G1 E6.50000 F2700.00000
G1 F1200.000
G1 X207.601 Y93.862 E6.58160
G1 X207.601 Y141.410 E8.07243
G1 X213.865 Y141.410 E8.26884
G1 X207.315 Y150.937 E8.63135
G1 X200.765 Y141.410 E8.99385
G1 X207.029 Y141.410 E9.19026
G1 X207.029 Y93.862 E10.68109
G1 X207.210 Y91.266 E10.76269
G1 X207.361 Y91.266 E10.76743
G1 E4.26743 F3000.00000
G92 E0
G1 Z0.300 F12000.000
G1 X199.977 Y158.859
G1 Z0.200
G1 E6.50000 F2700.00000
G1 F1200.000
G1 X200.955 Y160.232 E6.55285
G1 X200.825 Y160.422 E6.56007
G1 X201.143 Y160.496 E6.57032
G1 X201.224 Y160.610 E6.57469
G1 X201.280 Y160.528 E6.57779
G1 X202.907 Y160.909 E6.63016
G1 X199.099 Y163.298 E6.77110
G1 X199.190 Y162.762 E6.78815
G1 X199.965 Y158.918 E6.91111
G1 E0.41111 F3000.00000
G92 E0
G1 Z0.300 F12000.000
G1 X211.723 Y160.909
G1 Z0.200
G1 E6.50000 F2700.00000
G1 F1200.000
G1 X213.350 Y160.528 E6.55237
G1 X213.406 Y160.610 E6.55547
G1 X213.487 Y160.496 E6.55983
G1 X213.805 Y160.422 E6.57009
G1 X213.675 Y160.232 E6.57731
G1 X214.653 Y158.859 E6.63015
G1 X215.440 Y162.762 E6.75500
G1 X215.531 Y163.298 E6.77205
G1 X211.774 Y160.941 E6.91111
G1 E0.41111 F3000.00000
G92 E0
G1 Z0.300 F12000.000
G1 X207.978 Y141.033
G1 Z0.200
G1 E6.50000 F2700.00000
G1 F1200.000
G1 X214.281 Y141.033 E6.69764
G1 X216.450 Y137.879 E6.81766
G1 X216.388 Y137.633 E6.82560
G1 X216.588 Y137.581 E6.83206
G1 X218.016 Y135.454 E6.91239
G1 X217.953 Y135.203 E6.92052
G1 X218.169 Y135.146 E6.92753
G1 X218.193 Y135.233 E6.93038
G1 X219.410 Y133.471 E6.99751
G1 X219.520 Y132.924 E7.01502
G1 X219.473 Y132.572 E7.02614
G1 X219.679 Y132.529 E7.03273
G1 X219.883 Y133.240 E7.05592
G1 X218.463 Y135.590 E7.14202
G1 X218.279 Y135.610 E7.14782
G1 X216.926 Y137.717 E7.22634
G1 X217.900 Y137.622 E7.25701
G1 X217.924 Y137.844 E7.26403
G1 X216.766 Y137.983 E7.30058
G1 X215.007 Y140.415 E7.39469
G1 X207.465 Y151.385 E7.81210
G1 X213.410 Y159.954 E8.13911
G1 X214.850 Y157.931 E8.21697
G1 X215.811 Y162.693 E8.36928
G1 X216.044 Y164.065 E8.41291
G1 X210.757 Y160.748 E8.60860
G1 X213.183 Y160.180 E8.68672
G1 X207.315 Y151.605 E9.01250
G1 X201.447 Y160.180 E9.33827
G1 X203.873 Y160.748 E9.41639
G1 X198.586 Y164.065 E9.61208
G1 X198.819 Y162.693 E9.65571
G1 X199.780 Y157.931 E9.80802
G1 X201.220 Y159.954 E9.88588
G1 X207.165 Y151.385 E10.21289
G1 X199.623 Y140.415 E10.63030
G1 X197.864 Y137.983 E10.72441
G1 X196.706 Y137.844 E10.76097
G1 X196.731 Y137.622 E10.76798
G1 X197.704 Y137.717 E10.79865
G1 X196.351 Y135.610 E10.87717
G1 X196.167 Y135.590 E10.88297
G1 X194.747 Y133.240 E10.96907
G1 X194.951 Y132.529 E10.99226
G1 X195.157 Y132.572 E10.99885
G1 X195.110 Y132.924 E11.00997
G1 X195.220 Y133.471 E11.02748
G1 X196.437 Y135.233 E11.09461
G1 X196.461 Y135.146 E11.09745
G1 X196.677 Y135.203 E11.10447
G1 X196.614 Y135.454 E11.11258
G1 X198.042 Y137.581 E11.19291
G1 X198.242 Y137.633 E11.19938
G1 X198.180 Y137.879 E11.20732
G1 X200.349 Y141.033 E11.32734
G1 X206.652 Y141.033 E11.52498
G1 X206.652 Y93.849 E13.00439
G1 X207.210 Y85.823 E13.25666
G1 X207.421 Y85.823 E13.26327
G1 X207.978 Y93.849 E13.51554
G1 X207.978 Y140.973 E14.99307
G1 X208.355 Y140.656 F12000.000
G1 F1200.000
G1 X214.083 Y140.656 E15.17266
G1 X216.043 Y137.805 E15.28114
G1 X215.112 Y134.071 E15.40180
G1 X215.776 Y133.104 E15.43857
G1 X216.748 Y136.667 E15.55435
G1 X217.610 Y135.383 E15.60282
G1 X216.695 Y131.768 E15.71976
G1 X217.360 Y130.800 E15.75658
G1 X218.342 Y134.354 E15.87221
G1 X219.055 Y133.321 E15.91159
G1 X219.138 Y132.911 E15.92469
G1 X219.079 Y132.471 E15.93861
G1 X218.284 Y129.460 E16.03627
G1 X218.931 Y128.565 E16.07087
G1 X220.122 Y132.704 E16.20590
G1 X224.463 Y132.277 E16.34266
G1 X223.764 Y133.263 E16.38056
G1 X220.071 Y133.658 E16.49700
G1 X219.284 Y134.962 E16.54475
G1 X222.913 Y134.617 E16.65907
G1 X222.249 Y135.572 E16.69554
G1 X218.499 Y135.966 E16.81379
G1 X217.664 Y137.266 E16.86223
G1 X221.342 Y136.907 E16.97813
G1 X220.663 Y137.896 E17.01575
G1 X216.975 Y138.337 E17.13221
G1 X215.315 Y140.632 E17.22100
G1 X207.923 Y151.384 E17.63010
G1 X213.414 Y159.298 E17.93213
G1 X215.048 Y157.004 E18.02045
G1 X216.182 Y162.624 E18.20023
G1 X216.557 Y164.832 E18.27044
G1 X209.791 Y160.587 E18.52088
G1 X212.561 Y159.939 E18.61007
G1 X207.315 Y152.273 E18.90130
G1 X202.069 Y159.939 E19.19253
G1 X204.839 Y160.587 E19.28173
