; generated by PrusaSlicer 2.2.0+win64 on 2020-06-07 at 21:41:00 UTC

; 

; external perimeters extrusion width = 0.41mm
; perimeters extrusion width = 0.43mm
; infill extrusion width = 0.40mm
; solid infill extrusion width = 0.40mm
; top infill extrusion width = 0.42mm
; first layer extrusion width = 0.43mm

M73 P0 R17
M73 Q0 S18
M201 X9000 Y9000 Z500 E10000 ; sets maximum accelerations, mm/sec^2
M203 X500 Y500 Z80 E120 ; sets maximum feedrates, mm/sec
M204 P1500 R1500 T1500 ; sets acceleration (P, T) and retract acceleration (R), mm/sec^2
M205 X10.00 Y10.00 Z0.20 E2.50 ; sets the jerk limits, mm/sec
M205 S0 T0 ; sets the minimum extruding and travel feed rate, mm/sec
M107
G90 ; use absolute coordinates
M83 ; extruder relative mode
M104 S220 ; set extruder temp
M140 S60 ; set bed temp
G28 ; home all
G1 Z2 F240
M190 S60 ; wait for bed temp
M109 S220 ; wait for extruder temp
G1 X219 Y190 F3000
G1 Z0.28 F240
G92 E0.0
G1 Y20 E15.0 F1500.0 ; intro line
M73 Q1 S17
M73 P1 R17
G1 X219.3 F5000
G1 Y190 E30 F1200.0 ; intro line
G92 E0.0
G21 ; set units to millimeters
G90 ; use absolute coordinates
M82 ; use absolute distances for extrusion
G92 E0
;BEFORE_LAYER_CHANGE
;0.2
G1 Z0.200 F12000.000
;AFTER_LAYER_CHANGE
;0.2
G1 E-6.50000 F3000.00000
G92 E0
G1 Z0.300 F12000.000
G1 X83.116 Y114.753
G1 Z0.200
G1 E6.50000 F2700.00000
G1 F1200.000
G1 X83.112 Y121.571 E6.71946
G1 X141.757 Y121.540 E8.60701
G1 X141.757 Y103.420 E9.19022
G1 X138.652 Y103.374 E9.29019
G1 X137.624 Y102.995 E9.32544
G1 X137.101 Y102.617 E9.34620
G1 X136.452 Y101.941 E9.37639
G1 X136.050 Y101.270 E9.40156
G1 X135.757 Y100.194 E9.43745
G1 X135.838 Y94.811 E9.61072
G1 X136.046 Y94.231 E9.63055
G1 X136.326 Y93.722 E9.64926
G1 X137.091 Y92.891 E9.68561
G1 X137.873 Y92.382 E9.71563
G1 X138.760 Y92.105 E9.74553
G1 X150.006 Y92.091 E10.10750
G1 X150.662 Y92.245 E10.12920
G1 X151.295 Y92.534 E10.15159
G1 X152.270 Y93.381 E10.19316
G1 X152.829 Y94.248 E10.22635
G1 X153.112 Y95.301 E10.26145
G1 X153.112 Y129.650 E11.36698
G1 X152.940 Y130.472 E11.39401
G1 X152.534 Y131.286 E11.42331
G1 X151.774 Y132.112 E11.45944
G1 X151.166 Y132.537 E11.48330
G1 X149.887 Y132.928 E11.52634
G1 X76.822 Y132.877 E13.87799
G1 X74.606 Y132.091 E13.95368
G1 X73.311 Y131.002 E14.00814
G1 X72.407 Y129.620 E14.06128
G1 X72.033 Y128.522 E14.09860
G1 X71.888 Y127.349 E14.13665
G1 X71.888 Y112.515 E14.61409
G1 X72.164 Y110.606 E14.67619
G1 X72.926 Y108.786 E14.73971
G1 X74.224 Y107.137 E14.80724
G1 X75.333 Y106.235 E14.85325
G1 X90.304 Y96.561 E15.42694
G1 X92.444 Y95.802 E15.50002
G1 X93.980 Y95.801 E15.54947
G1 X95.500 Y96.230 E15.60030
G1 X96.754 Y96.976 E15.64726
G1 X97.789 Y98.044 E15.69513
G1 X98.541 Y99.466 E15.74691
G1 X98.807 Y100.432 E15.77917
G1 X98.851 Y102.148 E15.83439
G1 X98.674 Y102.946 E15.86073
G1 X98.134 Y104.245 E15.90600
G1 X96.974 Y105.669 E15.96512
G1 X83.166 Y114.720 E16.49649
G1 X82.729 Y114.544 F12000.000
G1 F1200.000
G1 X82.725 Y121.959 E16.73514
G1 X142.145 Y121.927 E18.64762
G1 X142.145 Y103.037 E19.25563
G1 X138.752 Y102.999 E19.36483
G1 X137.827 Y102.664 E19.39649
G1 X137.366 Y102.335 E19.41471
G1 X136.770 Y101.720 E19.44229
G1 X136.415 Y101.139 E19.46421
G1 X136.144 Y100.171 E19.49656
G1 X136.214 Y94.912 E19.66584
G1 X136.405 Y94.377 E19.68411
G1 X136.653 Y93.931 E19.70054
G1 X137.357 Y93.173 E19.73384
G1 X138.059 Y92.723 E19.76066
G1 X138.844 Y92.484 E19.78710
G1 X149.939 Y92.473 E20.14419
G1 X150.554 Y92.618 E20.16452
G1 X151.106 Y92.873 E20.18411
G1 X151.993 Y93.653 E20.22211
G1 X152.486 Y94.430 E20.25171
G1 X152.725 Y95.326 E20.28159
G1 X152.725 Y129.629 E21.38564
G1 X152.567 Y130.365 E21.40988
G1 X152.202 Y131.086 E21.43588
G1 X151.506 Y131.832 E21.46873
G1 X150.971 Y132.201 E21.48964
G1 X149.859 Y132.540 E21.52707
G1 X76.855 Y132.490 E23.87674
G1 X74.827 Y131.771 E23.94601
G1 X73.619 Y130.765 E23.99660
G1 X72.745 Y129.430 E24.04798
G1 X72.406 Y128.419 E24.08229
G1 X72.275 Y127.338 E24.11734
G1 X72.275 Y112.530 E24.59395
G1 X72.543 Y110.687 E24.65389
G1 X73.272 Y108.961 E24.71419
G1 X74.514 Y107.395 E24.77852
G1 X75.552 Y106.554 E24.82150
G1 X90.496 Y96.898 E25.39415
G1 X92.478 Y96.189 E25.46191
G1 X93.953 Y96.188 E25.50939
G1 X95.368 Y96.594 E25.55678
G1 X96.532 Y97.294 E25.60048
G1 X97.490 Y98.292 E25.64501
G1 X98.188 Y99.626 E25.69347
G1 X98.427 Y100.510 E25.72295
G1 X98.463 Y102.132 E25.77517
G1 X98.309 Y102.815 E25.79771
G1 X97.814 Y104.025 E25.83979
G1 X96.736 Y105.362 E25.89508
G1 X82.779 Y114.511 E26.43219
G1 X82.458 Y114.259 F12000.000
G1 F1200.000
G1 X82.385 Y114.353 E26.43603
G1 X82.338 Y114.623 E26.44485
G1 X82.338 Y122.346 E26.69343
G1 X142.532 Y122.314 E28.63081
G1 X142.532 Y102.652 E29.26366
G1 X138.850 Y102.623 E29.38217
G1 X138.028 Y102.332 E29.41023
G1 X137.630 Y102.051 E29.42591
G1 X137.086 Y101.495 E29.45093
G1 X136.778 Y101.004 E29.46959
G1 X136.531 Y100.146 E29.49834
G1 X136.589 Y95.011 E29.66360
G1 X136.764 Y94.523 E29.68028
G1 X136.978 Y94.142 E29.69437
G1 X137.623 Y93.455 E29.72468
G1 X138.197 Y93.086 E29.74666
G1 X138.930 Y92.863 E29.77131
G1 X149.875 Y92.855 E30.12358
G1 X150.410 Y92.978 E30.14127
G1 X150.917 Y93.212 E30.15924
G1 X151.715 Y93.923 E30.19365
G1 X152.121 Y94.561 E30.21795
G1 X152.338 Y95.353 E30.24439
G1 X152.338 Y129.607 E31.34690
G1 X152.195 Y130.256 E31.36828
G1 X151.871 Y130.883 E31.39098
G1 X151.240 Y131.550 E31.42056
G1 X150.778 Y131.864 E31.43853
G1 X149.830 Y132.153 E31.47043
G1 X76.889 Y132.103 E33.81811
G1 X75.048 Y131.452 E33.88095
G1 X73.890 Y130.487 E33.92947
G1 X73.084 Y129.241 E33.97723
G1 X72.780 Y128.317 E34.00853
G1 X72.662 Y127.326 E34.04064
G1 X72.662 Y112.544 E34.51643
G1 X72.922 Y110.768 E34.57420
G1 X73.618 Y109.138 E34.63125
G1 X74.803 Y107.653 E34.69238
G1 X75.770 Y106.874 E34.73235
G1 X90.687 Y97.235 E35.30399
G1 X92.514 Y96.576 E35.36649
G1 X93.873 Y96.568 E35.41024
G1 X95.236 Y96.959 E35.45589
G1 X96.308 Y97.611 E35.49627
G1 X97.191 Y98.538 E35.53746
G1 X97.834 Y99.784 E35.58260
G1 X98.047 Y100.586 E35.60931
G1 X98.076 Y102.115 E35.65852
G1 X97.945 Y102.685 E35.67735
G1 X97.494 Y103.807 E35.71627
G1 X96.498 Y105.056 E35.76769
G1 X82.508 Y114.226 E36.30606
G1 E29.80606 F3000.00000
G92 E0
G1 Z0.300 F12000.000
G1 X81.951 Y122.733
G1 Z0.200
G1 E6.50000 F2700.00000
G1 F1200.000
G1 X142.919 Y122.701 E8.46230
M73 Q6 S16
G1 X142.919 Y102.266 E9.12001
M73 P7 R16
G1 X138.945 Y102.247 E9.24792
G1 X138.226 Y101.999 E9.27238
G1 X137.892 Y101.765 E9.28550
G1 X137.400 Y101.268 E9.30804
G1 X137.141 Y100.865 E9.32344
G1 X136.919 Y100.119 E9.34850
G1 X136.965 Y95.111 E9.50969
G1 X137.122 Y94.670 E9.52476
G1 X137.302 Y94.355 E9.53645
G1 X137.886 Y93.740 E9.56373
G1 X138.380 Y93.428 E9.58253
G1 X139.012 Y93.242 E9.60373
G1 X149.813 Y93.238 E9.95138
G1 X150.268 Y93.338 E9.96637
G1 X150.727 Y93.551 E9.98268
G1 X151.436 Y94.193 E10.01345
G1 X151.756 Y94.694 E10.03260
G1 X151.951 Y95.381 E10.05556
G1 X151.951 Y129.585 E11.15646
G1 X151.824 Y130.144 E11.17492
G1 X151.543 Y130.676 E11.19429
G1 X150.976 Y131.266 E11.22061
G1 X150.587 Y131.527 E11.23568
G1 X149.802 Y131.766 E11.26211
G1 X76.922 Y131.716 E13.60781
G1 X75.269 Y131.132 E13.66421
G1 X74.161 Y130.209 E13.71065
G1 X73.424 Y129.055 E13.75472
G1 X73.155 Y128.217 E13.78303
G1 X73.049 Y127.315 E13.81226
G1 X73.049 Y112.557 E14.28726
G1 X73.288 Y110.896 E14.34128
G1 X73.963 Y109.314 E14.39663
G1 X75.091 Y107.913 E14.45453
G1 X75.988 Y107.194 E14.49153
G1 X90.879 Y97.572 E15.06217
G1 X92.550 Y96.963 E15.11939
G1 X93.847 Y96.955 E15.16114
G1 X95.101 Y97.323 E15.20323
G1 X96.083 Y97.927 E15.24031
G1 X96.889 Y98.782 E15.27816
G1 X97.480 Y99.940 E15.31998
G1 X97.667 Y100.660 E15.34392
G1 X97.689 Y102.096 E15.39013
G1 X97.579 Y102.556 E15.40536
G1 X97.171 Y103.591 E15.44116
G1 X96.259 Y104.750 E15.48864
G1 X82.192 Y113.970 E16.02998
G1 X82.020 Y114.191 E16.03900
G1 X81.951 Y114.589 E16.05202
G1 X81.951 Y122.673 E16.31220
G1 X81.564 Y123.120 F12000.000
G1 F1200.000
G1 X143.306 Y123.088 E18.29942
G1 X143.306 Y101.879 E18.98203
G1 X139.037 Y101.870 E19.11943
G1 X138.422 Y101.664 E19.14030
G1 X138.152 Y101.478 E19.15083
G1 X137.710 Y101.036 E19.17096
G1 X137.501 Y100.722 E19.18310
G1 X137.306 Y100.091 E19.20437
G1 X137.340 Y95.211 E19.36144
G1 X137.481 Y94.818 E19.37486
G1 X137.625 Y94.570 E19.38409
G1 X138.149 Y94.025 E19.40843
G1 X138.516 Y93.791 E19.42243
G1 X139.094 Y93.621 E19.44184
G1 X149.790 Y93.625 E19.78608
G1 X150.159 Y93.710 E19.79827
G1 X150.534 Y93.887 E19.81164
G1 X151.155 Y94.460 E19.83883
G1 X151.393 Y94.831 E19.85302
G1 X151.564 Y95.409 E19.87242
G1 X151.564 Y129.564 E20.97172
G1 X151.469 Y129.986 E20.98565
G1 X151.214 Y130.470 E21.00326
G1 X150.715 Y130.980 E21.02620
G1 X150.398 Y131.188 E21.03840
G1 X149.773 Y131.379 E21.05945
G1 X76.955 Y131.329 E23.40317
G1 X75.488 Y130.812 E23.45321
G1 X74.469 Y129.973 E23.49570
G1 X73.785 Y128.912 E23.53634
G1 X73.529 Y128.117 E23.56320
G1 X73.436 Y127.305 E23.58953
G1 X73.436 Y112.571 E24.06373
G1 X73.668 Y110.978 E24.11557
G1 X74.308 Y109.493 E24.16762
G1 X75.378 Y108.173 E24.22229
G1 X76.206 Y107.514 E24.25635
G1 X91.072 Y97.908 E24.82603
G1 X92.586 Y97.350 E24.87797
G1 X93.820 Y97.342 E24.91767
G1 X94.965 Y97.686 E24.95615
G1 X95.857 Y98.242 E24.98999
G1 X96.557 Y98.983 E25.02281
G1 X97.125 Y100.097 E25.06306
G1 X97.280 Y100.691 E25.08281
G1 X97.306 Y102.032 E25.12598
G1 X97.214 Y102.427 E25.13905
G1 X96.822 Y103.423 E25.17348
G1 X96.020 Y104.443 E25.21525
G1 X81.927 Y113.681 E25.75763
G1 X81.655 Y114.029 E25.77183
G1 X81.564 Y114.556 E25.78905
G1 X81.564 Y123.060 E26.06276
G1 X81.177 Y123.508 F12000.000
G1 F1200.000
G1 X143.693 Y123.475 E28.07490
G1 X143.693 Y101.492 E28.78243
G1 X139.126 Y101.492 E28.92944
G1 X138.614 Y101.327 E28.94674
G1 X138.412 Y101.191 E28.95457
G1 X137.996 Y100.775 E28.97351
G1 X137.860 Y100.574 E28.98131
G1 X137.693 Y100.060 E28.99871
G1 X137.716 Y95.310 E29.15159
G1 X137.838 Y94.967 E29.16331
G1 X137.944 Y94.789 E29.16998
G1 X138.411 Y94.311 E29.19147
G1 X138.657 Y94.153 E29.20089
G1 X139.124 Y94.008 E29.21665
G1 X149.767 Y94.012 E29.55920
G1 X150.012 Y94.069 E29.56728
G1 X150.340 Y94.224 E29.57898
G1 X150.873 Y94.725 E29.60250
G1 X151.032 Y94.972 E29.61197
G1 X151.177 Y95.440 E29.62772
G1 X151.177 Y129.544 E30.72540
G1 X151.115 Y129.829 E30.73480
G1 X150.886 Y130.263 E30.75057
G1 X150.458 Y130.690 E30.77002
G1 X150.212 Y130.848 E30.77943
G1 X149.744 Y130.992 E30.79520
G1 X76.988 Y130.942 E33.13692
G1 X75.706 Y130.490 E33.18067
G1 X74.776 Y129.736 E33.21920
G1 X74.144 Y128.767 E33.25643
G1 X73.911 Y128.053 E33.28059
G1 X73.823 Y127.293 E33.30521
G1 X73.823 Y112.586 E33.77858
G1 X74.047 Y111.060 E33.82822
G1 X74.652 Y109.672 E33.87693
G1 X75.663 Y108.435 E33.92838
G1 X76.423 Y107.835 E33.95955
G1 X91.265 Y98.244 E34.52828
G1 X92.626 Y97.736 E34.57504
G1 X93.737 Y97.722 E34.61082
G1 X94.827 Y98.049 E34.64745
G1 X95.628 Y98.555 E34.67794
G1 X96.255 Y99.226 E34.70749
G1 X96.770 Y100.252 E34.74446
G1 X96.894 Y100.723 E34.76012
G1 X96.923 Y101.970 E34.80028
G1 X96.848 Y102.300 E34.81115
G1 X96.472 Y103.255 E34.84420
G1 X95.781 Y104.137 E34.88025
G1 X81.812 Y113.283 E35.41764
G1 X81.647 Y113.411 E35.42439
G1 X81.290 Y113.867 E35.44303
G1 X81.177 Y114.523 E35.46445
G1 X81.177 Y123.448 E35.75170
G1 X80.790 Y123.895 F12000.000
G1 F1200.000
G1 X144.080 Y123.861 E37.78875
G1 X144.080 Y101.105 E38.52119
G1 X139.157 Y101.105 E38.67965
G1 X138.803 Y100.989 E38.69162
G1 X138.671 Y100.902 E38.69672
G1 X138.280 Y100.512 E38.71449
G1 X138.215 Y100.419 E38.71812
G1 X138.080 Y100.027 E38.73149
G1 X138.091 Y95.409 E38.88011
G1 X138.195 Y95.119 E38.89004
G1 X138.261 Y95.013 E38.89403
G1 X138.671 Y94.598 E38.91284
G1 X138.803 Y94.511 E38.91792
G1 X139.157 Y94.395 E38.92989
G1 X149.745 Y94.399 E39.27066
G1 X149.865 Y94.427 E39.27463
G1 X150.145 Y94.560 E39.28462
G1 X150.588 Y94.987 E39.30443
G1 X150.673 Y95.119 E39.30947
G1 X150.790 Y95.472 E39.32145
G1 X150.790 Y129.525 E40.41745
G1 X150.757 Y129.680 E40.42255
G1 X150.589 Y130.012 E40.43453
G1 X150.198 Y130.402 E40.45231
G1 X150.065 Y130.489 E40.45742
G1 X149.712 Y130.605 E40.46940
G1 X77.021 Y130.555 E42.80901
G1 X75.921 Y130.167 E42.84654
G1 X75.081 Y129.496 E42.88114
G1 X74.504 Y128.621 E42.91486
G1 X74.286 Y127.952 E42.93753
G1 X74.210 Y127.283 E42.95920
G1 X74.210 Y112.599 E43.43181
G1 X74.412 Y111.190 E43.47762
G1 X74.996 Y109.852 E43.52460
G1 X75.948 Y108.698 E43.57276
G1 X76.641 Y108.155 E43.60109
G1 X91.458 Y98.580 E44.16890
G1 X92.665 Y98.123 E44.21044
G1 X93.711 Y98.109 E44.24412
G1 X94.688 Y98.411 E44.27703
G1 X95.365 Y98.839 E44.30280
G1 X95.922 Y99.426 E44.32885
G1 X96.416 Y100.409 E44.36424
G1 X96.508 Y100.757 E44.37584
G1 X96.540 Y101.911 E44.41301
G1 X96.482 Y102.172 E44.42162
G1 X96.122 Y103.087 E44.45327
G1 X95.542 Y103.831 E44.48360
G1 X81.588 Y112.967 E45.02045
G1 X81.371 Y113.135 E45.02925
G1 X80.970 Y113.648 E45.05022
G1 X80.906 Y113.793 E45.05532
G1 X80.790 Y114.491 E45.07811
G1 X80.790 Y123.835 E45.37885
G1 X80.402 Y124.282 F12000.000
G1 F1200.000
G1 X144.467 Y124.248 E47.44082
M73 Q12 S15
G1 X144.467 Y100.718 E48.19817
M73 P13 R15
G1 X139.193 Y100.718 E48.36792
G1 X138.932 Y100.616 E48.37695
G1 X138.569 Y100.253 E48.39345
G1 X138.467 Y99.992 E48.40248
G1 X138.467 Y95.508 E48.54679
G1 X138.569 Y95.247 E48.55581
G1 X138.932 Y94.884 E48.57232
G1 X139.193 Y94.782 E48.58134
G1 X149.691 Y94.782 E48.91923
G1 X149.948 Y94.895 E48.92826
G1 X150.319 Y95.275 E48.94535
G1 X150.402 Y95.508 E48.95333
G1 X150.402 Y129.507 E50.04759
G1 X150.290 Y129.763 E50.05662
G1 X149.910 Y130.134 E50.07372
G1 X149.676 Y130.218 E50.08170
G1 X77.054 Y130.168 E52.41910
G1 X76.138 Y129.844 E52.45038
G1 X75.347 Y129.213 E52.48294
G1 X74.863 Y128.475 E52.51133
G1 X74.668 Y127.888 E52.53127
G1 X74.598 Y127.272 E52.55122
G1 X74.598 Y112.613 E53.02301
G1 X74.791 Y111.272 E53.06662
G1 X75.338 Y110.034 E53.11018
G1 X76.231 Y108.962 E53.15509
G1 X76.857 Y108.476 E53.18061
G1 X91.652 Y98.916 E53.74754
G1 X92.708 Y98.509 E53.78398
G1 X93.628 Y98.488 E53.81357
G1 X94.548 Y98.773 E53.84457
G1 X95.134 Y99.151 E53.86702
G1 X95.619 Y99.668 E53.88986
G1 X96.060 Y100.562 E53.92194
G1 X96.122 Y100.792 E53.92961
G1 X96.156 Y101.855 E53.96384
G1 X96.116 Y102.046 E53.97012
G1 X95.772 Y102.920 E54.00034
G1 X95.303 Y103.525 E54.02496
G1 X81.363 Y112.652 E54.56126
G1 X81.096 Y112.858 E54.57211
G1 X80.635 Y113.448 E54.59620
G1 X80.533 Y113.681 E54.60440
G1 X80.402 Y114.459 E54.62980
G1 X80.402 Y124.222 E54.94403
G1 X80.162 Y124.522 F12000.000
G1 F1200.000
G1 X80.235 Y124.595 E54.94735
G1 X80.511 Y124.669 E54.95654
G1 X144.538 Y124.635 E57.01729
G1 X144.766 Y124.504 E57.02576
G1 X144.854 Y124.174 E57.03676
G1 X144.854 Y100.331 E57.80417
G1 X139.236 Y100.331 E57.98500
G1 X139.165 Y100.301 E57.98747
G1 X138.884 Y100.020 E58.00027
G1 X138.854 Y99.949 E58.00275
G1 X138.854 Y95.551 E58.14429
G1 X138.884 Y95.480 E58.14677
G1 X139.165 Y95.199 E58.15957
G1 X139.236 Y95.169 E58.16205
G1 X149.634 Y95.169 E58.49671
G1 X149.705 Y95.199 E58.49918
G1 X149.986 Y95.480 E58.51198
G1 X150.015 Y95.551 E58.51446
G1 X150.015 Y129.449 E59.60549
G1 X149.986 Y129.520 E59.60797
G1 X149.704 Y129.801 E59.62077
G1 X149.633 Y129.831 E59.62325
G1 X77.087 Y129.780 E61.95821
G1 X76.354 Y129.522 E61.98324
G1 X75.613 Y128.930 E62.01374
G1 X75.222 Y128.328 E62.03686
G1 X75.050 Y127.822 E62.05406
G1 X74.985 Y127.260 E62.07226
G1 X74.985 Y112.627 E62.54323
G1 X75.171 Y111.355 E62.58460
G1 X75.680 Y110.218 E62.62472
G1 X76.513 Y109.228 E62.66636
G1 X77.074 Y108.797 E62.68913
G1 X91.846 Y99.251 E63.25522
G1 X92.752 Y98.895 E63.28653
G1 X93.603 Y98.876 E63.31393
G1 X94.403 Y99.132 E63.34097
G1 X94.900 Y99.460 E63.36013
G1 X95.314 Y99.909 E63.37979
G1 X95.704 Y100.715 E63.40861
G1 X95.736 Y100.830 E63.41247
G1 X95.772 Y101.804 E63.44383
G1 X95.749 Y101.922 E63.44769
G1 X95.421 Y102.753 E63.47645
G1 X95.064 Y103.219 E63.49535
G1 X81.138 Y112.336 E64.03108
G1 X80.821 Y112.582 E64.04399
G1 X80.300 Y113.248 E64.07119
G1 X80.159 Y113.570 E64.08251
G1 X80.015 Y114.427 E64.11049
G1 X80.015 Y124.174 E64.42419
G1 X80.089 Y124.449 E64.43338
G1 X80.120 Y124.480 E64.43477
G1 X79.742 Y124.650 F12000.000
G1 F1200.000
