;FLAVOR:Marlin
;TIME:7540
;Filament used: 8.14995m
;Layer height: 0.32
;MINX:-0.507
;MINY:0.126
;MINZ:0.32
;MAXX:220.524
;MAXY:219.86
;MAXZ:0.96
;Generated with Cura_SteamEngine 4.6.0
M82 ;absolute extrusion mode
M201 X500.00 Y500.00 Z100.00 E5000.00 ;Setup machine max acceleration
M203 X500.00 Y500.00 Z10.00 E50.00 ;Setup machine max feedrate
M204 P500.00 R1000.00 T500.00 ;Setup Print/Retract/Travel acceleration
M205 X8.00 Y8.00 Z0.40 E5.00 ;Setup Jerk
M220 S100 ;Reset Feedrate
M221 S100 ;Reset Flowrate

M140 S50; start preheating the bed
M104 S220 T0; start preheating hotend
G28 ;Home
G1 Z2.0 F3000 ;Move Z Axis up
M190 S50; heat to bed setting in Cura and WAIT
M109 S220 T0; heat hotend to setting in Cura and WAIT


G92 E0 ;Reset Extruder
G1 Z2.0 F3000 ;Move Z Axis up
G1 X219 Y20 Z0.28 F5000.0 ;Move to start position
G1 X219 Y200.0 Z0.28 F1500.0 E15 ;Draw the first line
G1 X218 Y200.0 Z0.28 F5000.0 ;Move to side a little
G1 X218 Y15 Z0.28 F1500.0 E30 ;Draw the second line
G92 E0 ;Reset Extruder
G1 Z2.0 F3000 ;Move Z Axis up
G90 ;absolute xyze mode
G92 E0
G92 E0
G1 F3000 E-6.5
;LAYER_COUNT:3
;LAYER:0
M107
M204 S500
G0 F9000 X142.378 Y217.449 Z0.32
;TYPE:SKIRT
G1 F2700 E0
G1 F2400 X142.082 Y217.462 E0.0473
G1 X141.96 Y217.46 E0.06678
G1 X141.776 Y217.447 E0.09623
G1 X139.908 Y217.234 E0.39639
G1 X137.093 Y216.96 E0.84792
G1 X134.329 Y216.77 E1.29023
G1 X131.53 Y216.657 E1.73745
G1 X128.728 Y216.622 E2.18482
G1 X125.928 Y216.668 E2.6319
G1 X123.128 Y216.792 E3.07935
G1 X120.347 Y216.995 E3.52452
G1 X116.968 Y217.347 E4.06689
G1 X116.278 Y217.431 E4.17786
G1 X116.078 Y217.449 E4.20992
G1 X115.776 Y217.462 E4.25818
G1 X115.652 Y217.46 E4.27798
G1 X115.524 Y217.451 E4.29846
G1 X115.476 Y217.447 E4.30615
G1 X113.608 Y217.234 E4.60631
G1 X110.793 Y216.96 E5.05784
G1 X108.029 Y216.77 E5.50015
G1 X105.23 Y216.657 E5.94737
G1 X102.428 Y216.622 E6.39474
G1 X99.628 Y216.668 E6.84182
G1 X96.828 Y216.792 E7.28927
G1 X94.047 Y216.995 E7.73444
G1 X90.668 Y217.347 E8.27681
G1 X89.978 Y217.431 E8.38778
G1 X89.779 Y217.449 E8.41968
G1 X89.479 Y217.462 E8.46762
G1 X89.355 Y217.46 E8.48742
G1 X89.225 Y217.451 E8.50822
G1 X89.176 Y217.447 E8.51607
G1 X87.308 Y217.234 E8.81623
G1 X84.493 Y216.96 E9.26776
G1 X81.729 Y216.77 E9.71007
G1 X78.93 Y216.657 E10.15729
G1 X76.128 Y216.622 E10.60466
G1 X73.328 Y216.668 E11.05174
G1 X70.528 Y216.792 E11.4992
G1 X67.747 Y216.995 E11.94436
G1 X64.368 Y217.347 E12.48673
G1 X63.678 Y217.431 E12.5977
G1 X63.478 Y217.449 E12.62976
G1 X63.176 Y217.462 E12.67802
G1 X63.052 Y217.46 E12.69782
G1 X62.924 Y217.451 E12.7183
G1 X62.878 Y217.447 E12.72568
G1 X61.214 Y217.259 E12.99302
G1 X61.189 Y217.261 E12.99703
G1 X60.688 Y217.199 E13.07762
G1 X57.931 Y216.94 E13.51971
G1 X55.109 Y216.754 E13.97121
G1 X52.338 Y216.65 E14.41391
G1 X49.537 Y216.624 E14.86111
G1 X46.737 Y216.678 E15.30821
G1 X43.938 Y216.811 E15.75557
G1 X41.152 Y217.023 E16.20163
G1 X38.066 Y217.349 E16.69705
G1 X37.393 Y217.431 E16.80529
G1 X37.175 Y217.45 E16.84023
G1 X36.963 Y217.458 E16.8741
G1 X36.837 Y217.456 E16.89421
G1 X36.283 Y217.413 E16.98292
G1 X36.244 Y217.409 E16.98918
G1 X35.193 Y217.29 E17.15805
G1 X35.021 Y217.268 E17.18573
G1 X32.262 Y216.989 E17.62845
G1 X29.469 Y216.786 E18.07552
G1 X26.671 Y216.662 E18.52266
G1 X23.87 Y216.616 E18.96989
G1 X21.069 Y216.651 E19.4171
G1 X18.271 Y216.764 E19.86417
G1 X15.496 Y216.956 E20.30825
G1 X11.708 Y217.344 E20.91616
G1 X11.002 Y217.43 E21.02971
G1 X10.775 Y217.45 E21.06609
G1 X10.563 Y217.458 E21.09996
G1 X10.438 Y217.456 E21.11992
G1 X9.94 Y217.418 E21.19965
G1 X9.752 Y217.387 E21.23007
G1 X9.403 Y217.298 E21.28757
G1 X9.273 Y217.256 E21.30938
G1 X9.166 Y217.214 E21.32773
G1 X9.134 Y217.201 E21.33325
G1 X8.859 Y217.083 E21.38102
G1 X8.752 Y217.03 E21.40009
G1 X8.684 Y216.99 E21.41268
G1 X8.365 Y216.789 E21.47288
G1 X8.274 Y216.725 E21.49064
G1 X8.091 Y216.579 E21.52801
G1 X7.815 Y216.333 E21.58704
G1 X7.716 Y216.233 E21.6095
G1 X7.605 Y216.105 E21.63655
G1 X7.536 Y216.017 E21.6544
G1 X7.348 Y215.742 E21.70759
G1 X7.124 Y215.354 E21.77911
G1 X7.066 Y215.237 E21.79996
G1 X7.026 Y215.141 E21.81656
G1 X6.934 Y214.886 E21.85984
G1 X6.868 Y214.677 E21.89483
G1 X6.815 Y214.445 E21.93282
G1 X6.767 Y214.147 E21.98101
G1 X6.759 Y214.05 E21.99655
G1 X6.756 Y214.05 E21.99703
G1 X6.705 Y213.366 E22.10653
G1 X6.67 Y212.726 E22.20886
G1 X6.433 Y209.908 E22.66034
G1 X6.119 Y207.127 E23.10714
G1 X5.73 Y204.381 E23.54992
G1 X5.368 Y202.137 E23.9128
G1 X5.366 Y202.114 E23.91648
G1 X5.238 Y200.877 E24.11502
G1 X4.909 Y198.085 E24.56385
G1 X4.508 Y195.348 E25.00547
G1 X4.022 Y192.588 E25.45288
G1 X3.63 Y190.628 E25.77199
G1 X3.582 Y190.326 E25.82081
G1 X3.574 Y190.233 E25.83571
G1 X3.571 Y190.233 E25.83619
G1 X3.467 Y188.852 E26.05729
G1 X3.216 Y186.049 E26.50657
G1 X2.893 Y183.303 E26.94799
G1 X2.486 Y180.531 E27.39528
G1 X2.358 Y179.79 E27.51533
G1 X2.356 Y179.781 E27.5168
G1 X2.134 Y178.425 E27.73617
G1 X2.122 Y178.308 E27.75495
G1 X2.114 Y178.143 E27.78132
G1 X2.113 Y177.836 E27.83033
G1 X2.119 Y177.713 E27.84999
G1 X2.159 Y177.344 E27.90925
G1 X2.16 Y177.344 E27.90941
G1 X2.421 Y174.575 E28.35343
G1 X2.607 Y171.752 E28.8051
G1 X2.711 Y168.983 E29.24748
G1 X2.738 Y166.191 E29.69324
G1 X2.684 Y163.364 E30.14465
G1 X2.552 Y160.569 E30.59136
G1 X2.341 Y157.78 E31.0379
G1 X2.009 Y154.652 E31.54008
G1 X1.951 Y154.18 E31.616
G1 X1.933 Y153.958 E31.65156
G1 X1.905 Y152.592 E31.86969
G1 X1.905 Y117.359 E37.49459
G1 X1.912 Y116.895 E37.56867
G1 X1.913 Y116.861 E37.5741
G1 X1.95 Y116.103 E37.69526
G1 X2.084 Y114.872 E37.89295
G1 X2.086 Y114.857 E37.89536
G1 X2.161 Y114.247 E37.99348
G1 X2.42 Y111.493 E38.4351
G1 X2.605 Y108.67 E38.88675
G1 X2.708 Y105.902 E39.32896
G1 X2.733 Y103.108 E39.77504
G1 X2.678 Y100.282 E40.22629
G1 X2.544 Y97.486 E40.67318
G1 X2.334 Y94.732 E41.11413
G1 X2.25 Y93.947 E41.24017
G1 X2.25 Y93.934 E41.24225
G1 X2.124 Y92.563 E41.46205
G1 X2.122 Y92.015 E41.54954
G1 X2.133 Y91.855 E41.57514
G1 X2.173 Y91.575 E41.6203
G1 X2.262 Y91.039 E41.70704
G1 X2.263 Y91.027 E41.70896
G1 X2.481 Y89.798 E41.90823
G1 X2.89 Y87.031 E42.35478
G1 X3.216 Y84.284 E42.79641
G1 X3.471 Y81.468 E43.24782
G1 X3.472 Y81.468 E43.24798
G1 X3.56 Y80.166 E43.45632
G1 X3.571 Y80.03 E43.4781
G1 X3.574 Y79.999 E43.48307
G1 X3.69 Y79 E43.64363
G1 X3.691 Y79 E43.64379
G1 X3.973 Y76.226 E44.08894
G1 X4.179 Y73.432 E44.53621
G1 X4.307 Y70.617 E44.98609
G1 X4.355 Y67.82 E45.43269
G1 X4.323 Y65.023 E45.87926
G1 X4.212 Y62.228 E46.32583
G1 X4.024 Y59.468 E46.76748
G1 X3.753 Y56.652 E47.21912
G1 X3.41 Y53.909 E47.66045
G1 X2.979 Y51.113 E48.1121
G1 X2.478 Y48.378 E48.55601
G1 X2.232 Y47.244 E48.74126
G1 X2.228 Y47.19 E48.7499
G1 X1.944 Y45.786 E48.97859
G1 X1.898 Y45.364 E49.04636
G1 X1.892 Y45.101 E49.08836
G1 X1.895 Y44.996 E49.10513
G1 X1.915 Y44.72 E49.14931
G1 X1.938 Y44.492 E49.18589
G1 X1.941 Y44.465 E49.19023
G1 X1.986 Y44.108 E49.24767
G1 X1.987 Y44.098 E49.24928
G1 X4.632 Y24.663 E52.38065
G1 X4.634 Y24.647 E52.38323
G1 X4.737 Y23.963 E52.49366
G1 X4.774 Y23.757 E52.52707
G1 X4.822 Y23.556 E52.56006
G1 X4.857 Y23.439 E52.57956
G1 X5.007 Y23.023 E52.65016
G1 X5.075 Y22.871 E52.67674
G1 X5.282 Y22.49 E52.74597
G1 X5.37 Y22.354 E52.77183
G1 X5.521 Y22.153 E52.81196
G1 X5.594 Y22.062 E52.83059
G1 X5.667 Y21.981 E52.848
G1 X5.984 Y21.667 E52.91923
G1 X6.002 Y21.651 E52.92308
G1 X6.083 Y21.586 E52.93966
G1 X6.326 Y21.408 E52.98775
G1 X6.484 Y21.3 E53.0183
G1 X6.622 Y21.221 E53.04369
G1 X7.075 Y21.003 E53.12395
G1 X7.25 Y20.936 E53.15386
G1 X7.551 Y20.85 E53.20384
G1 X7.585 Y20.841 E53.20945
G1 X7.723 Y20.814 E53.2319
G1 X8.294 Y20.74 E53.32382
G1 X9.079 Y20.684 E53.44947
G1 X9.091 Y20.683 E53.45139
G1 X10.687 Y20.588 E53.70664
G1 X13.477 Y20.341 E54.1538
G1 X16.258 Y20.015 E54.60082
G1 X19.037 Y19.61 E55.04917
G1 X21.789 Y19.129 E55.49519
G1 X24.541 Y18.567 E55.94361
G1 X27.235 Y17.937 E56.38531
G1 X29.969 Y17.216 E56.83671
G1 X32.639 Y16.43 E57.28106
G1 X35.302 Y15.564 E57.72812
G1 X37.927 Y14.627 E58.17309
G1 X40.547 Y13.608 E58.62189
G1 X43.109 Y12.526 E59.06589
G1 X45.655 Y11.366 E59.51256
G1 X48.168 Y10.134 E59.95938
G1 X50.663 Y8.822 E60.40942
G1 X52.438 Y7.826 E60.73436
G1 X52.478 Y7.804 E60.74164
G1 X52.661 Y7.711 E60.77442
G1 X52.783 Y7.658 E60.79565
G1 X53.134 Y7.534 E60.85508
G1 X53.398 Y7.46 E60.89885
G1 X53.519 Y7.443 E60.91836
G1 X53.518 Y7.434 E60.91981
G1 X53.853 Y7.382 E60.97393
G1 X53.9 Y7.377 E60.98148
G1 X54.597 Y7.325 E61.09306
G1 X55.284 Y7.286 E61.20291
G1 X58.075 Y7.05 E61.65008
G1 X60.853 Y6.735 E62.09643
G1 X64.356 Y6.215 E62.66181
G1 X64.414 Y6.214 E62.67107
G1 X65.782 Y5.993 E62.8923
G1 X65.806 Y5.99 E62.89616
G1 X67.201 Y5.842 E63.12012
G1 X67.211 Y5.839 E63.12179
G1 X69.587 Y5.565 E63.50363
G1 X72.356 Y5.168 E63.95021
G1 X75.11 Y4.691 E64.39643
G1 X77.354 Y4.246 E64.76166
G1 X77.71 Y4.192 E64.81915
G1 X78.817 Y4.106 E64.99641
G1 X79.12 Y4.088 E65.04487
G1 X81.933 Y3.835 E65.49577
G1 X84.691 Y3.509 E65.93915
G1 X87.449 Y3.103 E66.3842
G1 X88.458 Y2.927 E66.54772
G1 X88.472 Y2.925 E66.54998
G1 X89.438 Y2.769 E66.7062
G1 X89.569 Y2.756 E66.72722
G1 X90.088 Y2.735 E66.81014
G1 X90.247 Y2.74 E66.83554
G1 X90.883 Y2.807 E66.93764
G1 X93.655 Y3.061 E67.38204
G1 X96.478 Y3.24 E67.83363
G1 X99.245 Y3.337 E68.27565
G1 X102.045 Y3.355 E68.72267
G1 X104.847 Y3.294 E69.17012
G1 X107.644 Y3.154 E69.61721
G1 X110.448 Y2.934 E70.06624
G1 X113.769 Y2.571 E70.59959
G1 X113.814 Y2.567 E70.60681
G1 X114.179 Y2.543 E70.6652
G1 X115.188 Y2.526 E70.82631
G1 X150.576 Y2.527 E76.47596
G1 X150.592 Y2.527 E76.47851
G1 X151.15 Y2.535 E76.56761
G1 X151.183 Y2.536 E76.57288
G1 X151.681 Y2.558 E76.65246
G1 X151.819 Y2.569 E76.67456
G1 X151.844 Y2.571 E76.67856
G1 X152.587 Y2.649 E76.79784
G1 X152.602 Y2.651 E76.80025
G1 X153.949 Y2.812 E77.01683
G1 X156.713 Y3.064 E77.45993
G1 X159.535 Y3.24 E77.91133
G1 X162.303 Y3.335 E78.3535
G1 X165.104 Y3.352 E78.80068
G1 X167.905 Y3.288 E79.24798
G1 X170.702 Y3.147 E79.69508
G1 X173.491 Y2.926 E80.14174
G1 X173.979 Y2.873 E80.2201
G1 X174.013 Y2.874 E80.22553
G1 X175.495 Y2.733 E80.4632
G1 X175.661 Y2.732 E80.4897
G1 X175.889 Y2.74 E80.52613
G1 X176.016 Y2.752 E80.54649
G1 X177.117 Y2.92 E80.7243
G1 X177.138 Y2.923 E80.72769
G1 X178.52 Y3.162 E80.95159
G1 X181.288 Y3.559 E81.39802
G1 X184.088 Y3.881 E81.84799
G1 X187.815 Y4.185 E82.44497
G1 X188.504 Y4.29 E82.55624
G1 X188.541 Y4.296 E82.56223
G1 X189.042 Y4.39 E82.6436
G1 X189.056 Y4.393 E82.64589
G1 X190.598 Y4.704 E82.89703
G1 X193.366 Y5.183 E83.3455
G1 X196.126 Y5.579 E83.79064
G1 X198.776 Y5.867 E84.2162
G1 X198.784 Y5.868 E84.21749
G1 X199.833 Y5.99 E84.38609
G1 X200.182 Y6.04 E84.44238
G1 X200.654 Y6.115 E84.51868
G1 X202.889 Y6.477 E84.88014
G1 X205.635 Y6.842 E85.32239
G1 X208.421 Y7.134 E85.76961
G1 X211.254 Y7.348 E86.22318
G1 X211.715 Y7.381 E86.29697
G1 X212.231 Y7.46 E86.38031
G1 X212.395 Y7.498 E86.40718
G1 X212.503 Y7.532 E86.42526
G1 X212.545 Y7.546 E86.43233
G1 X212.818 Y7.644 E86.47864
G1 X212.933 Y7.693 E86.49859
G1 X213.144 Y7.798 E86.53622
G1 X213.396 Y7.942 E86.58256
G1 X213.48 Y7.999 E86.59876
G1 X213.697 Y8.16 E86.6419
G1 X213.784 Y8.227 E86.65943
G1 X213.883 Y8.317 E86.68079
G1 X214.243 Y8.682 E86.76264
G1 X214.334 Y8.786 E86.7847
G1 X214.378 Y8.846 E86.79658
G1 X214.54 Y9.083 E86.84241
G1 X214.659 Y9.275 E86.87847
G1 X214.715 Y9.376 E86.89691
G1 X214.784 Y9.525 E86.92312
G1 X214.917 Y9.854 E86.97978
G1 X214.952 Y9.955 E86.99684
G1 X215.019 Y10.182 E87.03463
G1 X215.045 Y10.288 E87.05205
G1 X215.099 Y10.572 E87.0982
G1 X215.114 Y10.689 E87.11704
G1 X215.129 Y10.876 E87.14699
G1 X215.132 Y11.001 E87.16695
G1 X215.109 Y11.604 E87.26329
G1 X215.096 Y11.733 E87.28399
G1 X215.094 Y11.756 E87.28767
G1 X215.043 Y12.174 E87.3549
G1 X215.041 Y12.189 E87.35732
G1 X214.064 Y19.363 E88.51321
G1 X213.724 Y22.156 E88.9624
G1 X213.468 Y24.91 E89.40397
G1 X213.285 Y27.734 E89.85576
G1 X213.185 Y30.497 E90.29716
G1 X213.162 Y33.295 E90.74387
G1 X213.218 Y36.091 E91.19034
G1 X213.353 Y38.886 E91.63707
G1 X213.569 Y41.692 E92.08637
G1 X213.864 Y44.484 E92.53459
G1 X214.233 Y47.235 E92.97772
G1 X214.454 Y48.648 E93.20605
G1 X214.656 Y49.893 E93.40741
G1 X214.66 Y49.926 E93.41272
G1 X214.81 Y51.327 E93.63766
G1 X214.811 Y51.332 E93.63848
G1 X215.085 Y53.708 E94.02031
G1 X215.482 Y56.477 E94.4669
G1 X215.956 Y59.218 E94.91099
G1 X216.402 Y61.463 E95.27641
G1 X216.443 Y61.713 E95.31685
G1 X216.457 Y61.826 E95.33503
G1 X216.561 Y63.206 E95.55597
G1 X216.813 Y66.023 E96.0075
G1 X217.137 Y68.769 E96.44893
G1 X217.544 Y71.543 E96.89654
G1 X217.702 Y72.468 E97.04636
G1 X217.704 Y72.475 E97.04752
G1 X217.9 Y73.695 E97.24479
G1 X217.915 Y73.93 E97.28238
G1 X217.916 Y74.239 E97.33171
G1 X217.91 Y74.36 E97.35105
G1 X217.868 Y74.752 E97.41399
G1 X217.607 Y77.522 E97.85818
G1 X217.421 Y80.346 E98.31
G1 X217.318 Y83.109 E98.75142
G1 X217.292 Y85.907 E99.19814
G1 X217.346 Y88.703 E99.6446
G1 X217.479 Y91.517 E100.09435
G1 X217.689 Y94.282 E100.53705
G1 X218.077 Y97.858 E101.1113
G1 X218.107 Y98.299 E101.18187
G1 X218.124 Y99.31 E101.3433
G1 X218.123 Y134.697 E106.99279
G1 X218.123 Y134.713 E106.99534
G1 X218.115 Y135.27 E107.08427
G1 X218.114 Y135.302 E107.08938
G1 X218.092 Y135.802 E107.16929
G1 X218.081 Y135.941 E107.19155
G1 X218.079 Y135.964 E107.19523
G1 X218.002 Y136.701 E107.31353
G1 X217.835 Y138.096 E107.53783
G1 X217.584 Y140.85 E107.97933
G1 X217.408 Y143.674 E108.43105
G1 X217.313 Y146.438 E108.87258
G1 X217.296 Y149.236 E109.31929
G1 X217.359 Y152.031 E109.76562
G1 X217.5 Y154.826 E110.2124
G1 X217.72 Y157.613 E110.65873
G1 X217.787 Y158.231 E110.75797
G1 X217.788 Y158.245 E110.76021
G1 X217.904 Y159.507 E110.96254
G1 X217.907 Y160.056 E111.05018
G1 X217.896 Y160.219 E111.07627
G1 X217.852 Y160.524 E111.12546
G1 X217.777 Y160.976 E111.19861
G1 X217.776 Y160.985 E111.20006
G1 X217.512 Y162.499 E111.44541
G1 X217.106 Y165.299 E111.8971
G1 X216.783 Y168.077 E112.34359
G1 X216.467 Y171.925 E112.95999
G1 X216.361 Y172.623 E113.0727
G1 X216.26 Y173.162 E113.16025
G1 X215.946 Y174.719 E113.41383
G1 X215.469 Y177.475 E113.86036
G1 X215.072 Y180.239 E114.30616
G1 X214.786 Y182.871 E114.72883
G1 X214.785 Y182.879 E114.73011
G1 X214.66 Y183.953 E114.90273
G1 X214.61 Y184.302 E114.95902
G1 X214.532 Y184.768 E115.03445
G1 X214.532 Y184.77 E115.03477
G1 X214.144 Y187.208 E115.42889
G1 X213.778 Y190.012 E115.88034
G1 X213.497 Y192.766 E116.3223
G1 X213.306 Y195.325 E116.73198
G1 X213.271 Y195.826 E116.81216
G1 X213.193 Y196.342 E116.89547
G1 X213.156 Y196.502 E116.92169
G1 X213.102 Y196.673 E116.95032
G1 X213.002 Y196.949 E116.99718
G1 X212.943 Y197.083 E117.02056
G1 X212.81 Y197.338 E117.06647
G1 X212.738 Y197.457 E117.08868
G1 X212.483 Y197.824 E117.16002
G1 X212.391 Y197.939 E117.18354
G1 X212.299 Y198.038 E117.20511
G1 X211.967 Y198.366 E117.27962
G1 X211.819 Y198.488 E117.31024
G1 X211.603 Y198.637 E117.35213
G1 X211.346 Y198.801 E117.40081
G1 X211.088 Y198.949 E117.44829
G1 X208.685 Y200.38 E117.8948
G1 X206.297 Y201.896 E118.34638
G1 X203.993 Y203.451 E118.79014
G1 X201.704 Y205.092 E119.23979
G1 X199.503 Y206.767 E119.68135
G1 X197.3 Y208.542 E120.13302
G1 X195.199 Y210.338 E120.57429
G1 X193.101 Y212.235 E121.02585
G1 X191.749 Y213.519 E121.32352
G1 X191.311 Y213.894 E121.41558
G1 X191.158 Y214.004 E121.44566
G1 X190.818 Y214.206 E121.5088
G1 X190.666 Y214.27 E121.53513
G1 X190.669 Y214.278 E121.53649
G1 X190.289 Y214.432 E121.60195
G1 X190.286 Y214.425 E121.60317
G1 X190.132 Y214.484 E121.62949
G1 X189.548 Y214.619 E121.72519
G1 X189.075 Y214.691 E121.80157
G1 X189.057 Y214.694 E121.80448
G1 X169.593 Y217.344 E124.94055
G1 X169.578 Y217.346 E124.94297
G1 X168.899 Y217.429 E125.05218
G1 X168.679 Y217.449 E125.08745
G1 X168.382 Y217.462 E125.13491
G1 X168.26 Y217.46 E125.15439
G1 X168.127 Y217.451 E125.17567
G1 X168.078 Y217.447 E125.18352
G1 X166.431 Y217.261 E125.44813
G1 X166.408 Y217.263 E125.45182
G1 X164.171 Y217.027 E125.81093
G1 X161.377 Y216.814 E126.25828
G1 X158.579 Y216.68 E126.70549
G1 X155.777 Y216.624 E127.15292
G1 X152.976 Y216.648 E127.60011
G1 X150.207 Y216.75 E128.04248
