; generated by PrusaSlicer 2.2.0+win64 on 2020-05-28 at 02:12:05 UTC

; 

; external perimeters extrusion width = 0.41mm
; perimeters extrusion width = 0.43mm
; infill extrusion width = 0.40mm
; solid infill extrusion width = 0.40mm
; top infill extrusion width = 0.42mm
; first layer extrusion width = 0.43mm

M73 P0 R169
M73 Q0 S195
M201 X9000 Y9000 Z500 E10000 ; sets maximum accelerations, mm/sec^2
M203 X500 Y500 Z80 E120 ; sets maximum feedrates, mm/sec
M204 P1500 R1500 T1500 ; sets acceleration (P, T) and retract acceleration (R), mm/sec^2
M205 X10.00 Y10.00 Z0.20 E2.50 ; sets the jerk limits, mm/sec
M205 S0 T0 ; sets the minimum extruding and travel feed rate, mm/sec
M107
G90 ; use absolute coordinates
M83 ; extruder relative mode
M104 S220 ; set extruder temp
M140 S60 ; set bed temp
G28 ; home all
G1 Z2 F240
M190 S60 ; wait for bed temp
M109 S220 ; wait for extruder temp
G1 X218 Y190 F3000
G1 Z0.28 F240
G92 E0.0
G1 Y20 E15.0 F1500.0 ; intro line
M73 Q0 S195
M73 P0 R168
G1 X218.3 F5000
G1 Y190 E30 F1200.0 ; intro line
G92 E0.0
G21 ; set units to millimeters
G90 ; use absolute coordinates
M82 ; use absolute distances for extrusion
G92 E0
;BEFORE_LAYER_CHANGE
;0.2
G1 Z0.200 F12000.000
;AFTER_LAYER_CHANGE
;0.2
G1 E-6.50000 F3000.00000
G92 E0
G1 Z0.300 F12000.000
G1 X87.888 Y85.910
G1 Z0.200
G1 E6.50000 F2700.00000
G1 F1200.000
G1 X88.805 Y85.245 E6.53648
G1 X112.539 Y75.827 E7.35831
G1 X113.958 Y75.705 E7.40415
G1 X115.048 Y75.986 E7.44040
G1 X115.477 Y76.213 E7.45599
G1 X115.697 Y76.374 E7.46477
G1 X137.757 Y86.310 E8.24348
G1 X138.633 Y86.996 E8.27930
G1 X139.396 Y88.188 E8.32486
G1 X139.539 Y88.664 E8.34084
G1 X139.581 Y88.940 E8.34984
G1 X148.160 Y112.166 E9.14675
G1 X148.284 Y113.364 E9.18553
G1 X148.175 Y114.026 E9.20711
G1 X147.964 Y114.669 E9.22890
G1 X137.818 Y138.149 E10.05215
G1 X137.112 Y139.087 E10.08992
G1 X136.195 Y139.752 E10.12640
G1 X112.482 Y149.163 E10.94751
G1 X111.367 Y149.313 E10.98374
G1 X109.966 Y149.020 E11.02980
G1 X109.523 Y148.785 E11.04594
G1 X109.303 Y148.625 E11.05471
G1 X87.241 Y138.690 E11.83347
G1 X86.409 Y138.051 E11.86725
G1 X85.602 Y136.811 E11.91484
G1 X85.459 Y136.336 E11.93080
G1 X85.418 Y136.060 E11.93981
G1 X76.839 Y112.832 E12.73675
G1 X76.716 Y111.634 E12.77552
G1 X76.825 Y110.972 E12.79711
G1 X77.036 Y110.329 E12.81889
G1 X87.182 Y86.848 E13.64219
G1 X87.852 Y85.958 E13.67803
G1 X88.140 Y86.205 F12000.000
G1 F1200.000
G1 X88.972 Y85.596 E13.71121
G1 X112.656 Y76.197 E14.53133
G1 X113.895 Y76.089 E14.57138
G1 X114.888 Y76.340 E14.60434
G1 X115.282 Y76.548 E14.61868
G1 X115.499 Y76.709 E14.62739
G1 X137.577 Y86.654 E15.40675
G1 X138.327 Y87.235 E15.43727
G1 X139.034 Y88.327 E15.47913
G1 X139.164 Y88.760 E15.49371
G1 X139.203 Y89.035 E15.50263
G1 X147.789 Y112.277 E16.30013
G1 X147.898 Y113.327 E16.33408
G1 X147.795 Y113.948 E16.35434
G1 X147.605 Y114.523 E16.37385
G1 X137.471 Y137.975 E17.19611
G1 X136.860 Y138.792 E17.22897
G1 X136.029 Y139.401 E17.26214
G1 X112.361 Y148.795 E18.08171
G1 X111.411 Y148.928 E18.11257
G1 X110.123 Y148.665 E18.15490
G1 X109.718 Y148.450 E18.16963
G1 X109.501 Y148.289 E18.17834
G1 X87.421 Y138.346 E18.95772
G1 X86.672 Y137.765 E18.98824
G1 X85.965 Y136.674 E19.03010
G1 X85.834 Y136.240 E19.04468
G1 X85.796 Y135.965 E19.05361
G1 X77.211 Y112.721 E19.85114
G1 X77.102 Y111.672 E19.88509
G1 X77.205 Y111.051 E19.90535
G1 X77.395 Y110.475 E19.92485
G1 X87.529 Y87.022 E20.74716
G1 X88.104 Y86.253 E20.77808
G1 X88.394 Y86.498 F12000.000
G1 F1200.000
G1 X89.138 Y85.946 E20.80791
G1 X112.773 Y76.567 E21.62631
G1 X113.834 Y76.472 E21.66062
G1 X114.728 Y76.693 E21.69025
G1 X115.086 Y76.882 E21.70328
G1 X115.299 Y77.044 E21.71190
G1 X137.396 Y86.997 E22.49192
G1 X138.062 Y87.519 E22.51914
G1 X138.671 Y88.464 E22.55532
G1 X138.789 Y88.856 E22.56851
G1 X138.825 Y89.128 E22.57732
G1 X147.418 Y112.389 E23.37546
G1 X147.512 Y113.289 E23.40460
G1 X147.416 Y113.869 E23.42352
G1 X147.247 Y114.377 E23.44075
G1 X137.125 Y137.801 E24.26204
G1 X136.606 Y138.499 E24.29003
G1 X135.862 Y139.051 E24.31985
G1 X112.241 Y148.426 E25.13782
G1 X111.393 Y148.540 E25.16534
G1 X110.280 Y148.310 E25.20193
G1 X109.914 Y148.116 E25.21525
G1 X109.701 Y147.954 E25.22386
G1 X87.602 Y138.003 E26.00390
G1 X86.937 Y137.481 E26.03112
G1 X86.328 Y136.536 E26.06731
G1 X86.210 Y136.144 E26.08049
G1 X86.174 Y135.872 E26.08931
G1 X77.582 Y112.609 E26.88748
G1 X77.488 Y111.709 E26.91662
G1 X77.584 Y111.129 E26.93553
G1 X77.753 Y110.621 E26.95276
G1 X87.875 Y87.196 E27.77410
G1 X88.358 Y86.546 E27.80016
G1 X88.650 Y86.790 F12000.000
G1 F1200.000
G1 X89.306 Y86.296 E27.82658
G1 X112.890 Y76.937 E28.64324
G1 X113.776 Y76.856 E28.67187
G1 X114.569 Y77.047 E28.69814
G1 X114.889 Y77.216 E28.70979
G1 X115.098 Y77.378 E28.71828
G1 X137.217 Y87.341 E29.49910
G1 X137.756 Y87.759 E29.52105
G1 X138.308 Y88.603 E29.55351
G1 X138.413 Y88.951 E29.56521
G1 X138.445 Y89.218 E29.57388
G1 X147.046 Y112.501 E30.37274
G1 X147.126 Y113.252 E30.39707
G1 X147.037 Y113.790 E30.41462
G1 X146.888 Y114.231 E30.42958
G1 X136.778 Y137.627 E31.24992
G1 X136.350 Y138.207 E31.27312
G1 X135.694 Y138.701 E31.29954
G1 X112.119 Y148.058 E32.11592
G1 X111.436 Y148.154 E32.13812
G1 X110.435 Y147.954 E32.17095
G1 X110.111 Y147.782 E32.18277
G1 X109.902 Y147.621 E32.19126
G1 X87.782 Y137.660 E32.97209
G1 X87.242 Y137.242 E32.99405
G1 X86.690 Y136.398 E33.02651
G1 X86.586 Y136.049 E33.03821
G1 X86.553 Y135.782 E33.04689
G1 X77.954 Y112.498 E33.84578
G1 X77.874 Y111.746 E33.87010
G1 X77.963 Y111.208 E33.88766
G1 X78.112 Y110.768 E33.90261
G1 X88.222 Y87.370 E34.72300
G1 X88.614 Y86.838 E34.74427
G1 X88.908 Y87.079 F12000.000
G1 F1200.000
G1 X89.474 Y86.646 E34.76722
G1 X113.007 Y77.307 E35.58211
G1 X113.719 Y77.240 E35.60513
G1 X114.411 Y77.401 E35.62798
G1 X114.691 Y77.549 E35.63819
G1 X114.894 Y77.710 E35.64652
G1 X137.036 Y87.683 E36.42814
G1 X137.491 Y88.042 E36.44680
G1 X137.946 Y88.740 E36.47360
G1 X138.037 Y89.044 E36.48381
G1 X138.065 Y89.306 E36.49230
G1 X146.675 Y112.612 E37.29198
G1 X146.740 Y113.215 E37.31148
G1 X146.658 Y113.711 E37.32766
G1 X146.530 Y114.084 E37.34034
G1 X136.431 Y137.454 E38.15976
G1 X136.092 Y137.918 E38.17825
G1 X135.526 Y138.351 E38.20121
G1 X111.999 Y147.689 E39.01590
M73 Q0 S194
M73 P0 R167
G1 X111.418 Y147.766 E39.03477
G1 X110.592 Y147.599 E39.06187
G1 X110.309 Y147.449 E39.07219
G1 X110.106 Y147.288 E39.08052
G1 X87.963 Y137.317 E39.86216
G1 X87.507 Y136.958 E39.88082
G1 X87.053 Y136.260 E39.90763
G1 X86.962 Y135.956 E39.91783
G1 X86.933 Y135.694 E39.92633
G1 X78.325 Y112.386 E40.72603
G1 X78.260 Y111.783 E40.74554
G1 X78.342 Y111.288 E40.76171
G1 X78.470 Y110.915 E40.77439
G1 X88.569 Y87.543 E41.59386
G1 X88.873 Y87.128 E41.61042
G1 X89.169 Y87.366 F12000.000
G1 F1200.000
G1 X89.644 Y86.995 E41.62983
G1 X113.125 Y77.677 E42.44292
G1 X113.666 Y77.624 E42.46041
G1 X114.253 Y77.755 E42.47978
G1 X114.491 Y77.882 E42.48846
G1 X114.686 Y78.042 E42.49657
G1 X136.857 Y88.027 E43.27918
G1 X137.187 Y88.284 E43.29265
G1 X137.583 Y88.880 E43.31569
G1 X137.660 Y89.136 E43.32428
G1 X137.684 Y89.392 E43.33255
G1 X146.304 Y112.725 E44.13315
G1 X146.353 Y113.178 E44.14784
G1 X146.279 Y113.631 E44.16260
G1 X146.172 Y113.936 E44.17300
G1 X136.084 Y137.282 E44.99155
G1 X135.831 Y137.631 E45.00543
G1 X135.356 Y138.002 E45.02484
G1 X111.877 Y147.321 E45.83788
G1 X111.458 Y147.380 E45.85150
G1 X110.747 Y147.243 E45.87480
G1 X110.509 Y147.117 E45.88349
G1 X110.314 Y146.957 E45.89160
G1 X88.142 Y136.973 E46.67423
G1 X87.811 Y136.716 E46.68770
G1 X87.415 Y136.120 E46.71074
G1 X87.338 Y135.865 E46.71933
G1 X87.314 Y135.608 E46.72761
G1 X78.696 Y112.274 E47.52823
G1 X78.647 Y111.820 E47.54292
G1 X78.721 Y111.368 E47.55768
G1 X78.828 Y111.062 E47.56808
G1 X88.916 Y87.715 E48.38668
G1 X89.134 Y87.415 E48.39862
G1 X89.815 Y87.343 F12000.000
G1 F1200.000
G1 X113.243 Y78.046 E49.20988
G1 X113.616 Y78.009 E49.22196
G1 X114.097 Y78.111 E49.23777
G1 X114.290 Y78.213 E49.24480
G1 X114.476 Y78.371 E49.25265
G1 X136.675 Y88.370 E50.03627
G1 X136.922 Y88.567 E50.04644
G1 X137.221 Y89.018 E50.06388
G1 X137.283 Y89.225 E50.07083
G1 X137.302 Y89.473 E50.07883
G1 X145.933 Y112.837 E50.88049
G1 X145.967 Y113.142 E50.89036
G1 X145.900 Y113.550 E50.90367
G1 X145.815 Y113.788 E50.91180
G1 X135.737 Y137.110 E51.72952
G1 X135.567 Y137.347 E51.73892
G1 X135.185 Y137.654 E51.75467
G1 X111.758 Y146.952 E52.56592
G1 X111.441 Y146.992 E52.57619
G1 X110.903 Y146.888 E52.59384
G1 X110.710 Y146.786 E52.60087
G1 X110.524 Y146.627 E52.60872
G1 X88.324 Y136.630 E53.39236
G1 X88.077 Y136.434 E53.40252
G1 X87.778 Y135.982 E53.41997
G1 X87.716 Y135.775 E53.42692
G1 X87.697 Y135.527 E53.43492
G1 X79.067 Y112.161 E54.23661
G1 X79.033 Y111.857 E54.24648
G1 X79.100 Y111.449 E54.25979
G1 X79.185 Y111.211 E54.26791
G1 X89.263 Y87.887 E55.08568
G1 X89.433 Y87.650 E55.09508
G1 X89.768 Y87.381 E55.10890
G1 X89.702 Y87.929 F12000.000
G1 F1200.000
G1 X89.988 Y87.691 E55.12087
G1 X113.361 Y78.416 E55.93022
G1 X113.572 Y78.394 E55.93705
G1 X113.942 Y78.467 E55.94920
G1 X114.086 Y78.543 E55.95443
G1 X114.260 Y78.699 E55.96195
G1 X136.495 Y88.714 E56.74685
G1 X136.621 Y88.811 E56.75197
G1 X136.859 Y89.160 E56.76556
G1 X136.905 Y89.312 E56.77068
G1 X136.917 Y89.550 E56.77834
G1 X145.562 Y112.951 E57.58126
G1 X145.581 Y113.106 E57.58631
G1 X145.521 Y113.467 E57.59808
G1 X145.458 Y113.638 E57.60393
G1 X135.389 Y136.938 E58.42090
G1 X135.298 Y137.068 E58.42600
G1 X135.012 Y137.306 E58.43797
G1 X111.636 Y146.584 E59.24744
G1 X111.477 Y146.606 E59.25262
G1 X111.056 Y146.531 E59.26637
G1 X110.914 Y146.456 E59.27154
G1 X110.740 Y146.300 E59.27906
G1 X88.503 Y136.286 E60.06399
G1 X88.378 Y136.189 E60.06911
G1 X88.139 Y135.840 E60.08270
G1 X88.094 Y135.688 E60.08782
G1 X88.081 Y135.450 E60.09548
G1 X79.438 Y112.048 E60.89843
G1 X79.419 Y111.892 E60.90348
G1 X79.479 Y111.531 E60.91525
G1 X79.542 Y111.361 E60.92110
G1 X89.611 Y88.059 E61.73811
G1 X89.668 Y87.978 E61.74128
G1 X89.978 Y88.201 F12000.000
G1 F1200.000
G1 X90.164 Y88.038 E61.74926
G1 X113.479 Y78.785 E62.55658
G1 X113.532 Y78.780 E62.55832
G1 X113.802 Y78.828 E62.56713
G1 X114.047 Y79.027 E62.57728
G1 X136.309 Y89.054 E63.36315
G1 X136.350 Y89.088 E63.36487
G1 X136.503 Y89.312 E63.37358
G1 X136.534 Y89.629 E63.38383
G1 X145.189 Y113.057 E64.18770
G1 X145.193 Y113.109 E64.18938
G1 X145.144 Y113.376 E64.19812
G1 X145.102 Y113.486 E64.20190
G1 X135.022 Y136.796 E65.01928
G1 X134.836 Y136.959 E65.02726
G1 X111.521 Y146.213 E65.83460
G1 X111.468 Y146.218 E65.83634
G1 X111.198 Y146.171 E65.84516
G1 X110.953 Y145.972 E65.85530
G1 X88.689 Y135.946 E66.64119
G1 X88.649 Y135.912 E66.64291
G1 X88.496 Y135.688 E66.65162
G1 X88.465 Y135.371 E66.66188
G1 X79.811 Y111.941 E67.46578
G1 X79.807 Y111.889 E67.46745
G1 X79.856 Y111.622 E67.47619
G1 X79.898 Y111.513 E67.47997
G1 X89.948 Y88.253 E68.29549
G1 X90.292 Y88.435 F12000.000
G1 F1200.000
G1 X90.347 Y88.382 E68.29797
G1 X113.545 Y79.175 E69.10127
G1 X113.653 Y79.195 E69.10481
G1 X113.833 Y79.355 E69.11257
G1 X136.076 Y89.374 E69.89775
G1 X136.138 Y89.464 E69.90125
G1 X136.150 Y89.708 E69.90912
G1 X144.798 Y113.117 E70.71234
G1 X144.779 Y113.222 E70.71575
G1 X144.721 Y113.289 E70.71860
G1 X144.718 Y113.398 E70.72211
G1 X134.708 Y136.562 E71.53431
G1 X134.653 Y136.616 E71.53678
G1 X111.455 Y145.823 E72.34010
G1 X111.347 Y145.804 E72.34364
G1 X111.167 Y145.643 E72.35140
G1 X88.922 Y135.626 E73.13660
G1 X88.861 Y135.536 E73.14010
G1 X88.848 Y135.292 E73.14798
G1 X80.202 Y111.881 E73.95123
G1 X80.221 Y111.777 E73.95464
G1 X80.279 Y111.710 E73.95749
G1 X80.282 Y111.601 E73.96100
G1 X90.268 Y88.490 E74.77130
G1 X90.616 Y88.714 F12000.000
G1 F1200.000
G1 X113.521 Y79.625 E75.56446
G1 X113.608 Y79.702 E75.56819
G1 X135.739 Y89.670 E76.34944
G1 X135.746 Y89.791 E76.35334
G1 X144.352 Y113.090 E77.15275
G1 X144.244 Y113.215 E77.15807
G1 X144.294 Y113.349 E77.16269
G1 X134.384 Y136.283 E77.96680
M73 Q1 S193
M73 P1 R166
G1 X111.479 Y145.374 E78.75997
G1 X111.392 Y145.297 E78.76370
G1 X89.259 Y135.330 E79.54497
G1 X89.253 Y135.209 E79.54887
G1 X80.648 Y111.909 E80.34831
G1 X80.756 Y111.784 E80.35364
G1 X80.706 Y111.649 E80.35825
G1 X90.592 Y88.769 E81.16047
G1 X90.983 Y88.872 F12000.000
G1 X90.908 Y89.015
G1 F1200.000
G1 X113.466 Y80.063 E81.94162
G1 X135.386 Y89.936 E82.71540
G1 X143.910 Y113.009 E83.50708
G1 X143.801 Y113.134 E83.51242
G1 X143.877 Y113.338 E83.51943
G1 X134.092 Y135.982 E84.31337
G1 X111.534 Y144.936 E85.09454
G1 X89.612 Y135.064 E85.86834
G1 X81.090 Y111.990 E86.66005
G1 X81.199 Y111.864 E86.66539
G1 X81.123 Y111.660 E86.67240
G1 X90.884 Y89.070 E87.46445
G1 X91.199 Y89.316 F12000.000
G1 F1200.000
G1 X113.457 Y80.483 E88.23516
G1 X135.080 Y90.222 E88.99845
G1 X143.467 Y112.928 E89.77753
G1 X143.358 Y113.054 E89.78289
G1 X143.460 Y113.328 E89.79229
G1 X133.801 Y135.682 E90.57607
G1 X111.543 Y144.516 E91.34680
G1 X89.919 Y134.778 E92.11011
G1 X81.533 Y112.070 E92.88922
G1 X81.642 Y111.944 E92.89458
G1 X81.540 Y111.671 E92.90398
G1 X91.176 Y89.371 E93.68587
G1 X91.491 Y89.616 F12000.000
G1 F1200.000
G1 X113.447 Y80.903 E94.44615
G1 X134.773 Y90.508 E95.19894
G1 X143.025 Y112.847 E95.96542
G1 X142.915 Y112.974 E95.97081
G1 X143.043 Y113.317 E95.98259
G1 X133.509 Y135.381 E96.75621
G1 X111.553 Y144.095 E97.51651
G1 X90.226 Y134.492 E98.26932
G1 X81.975 Y112.151 E99.03583
G1 X82.085 Y112.025 E99.04122
G1 X81.957 Y111.682 E99.05300
G1 X91.467 Y89.671 E99.82473
G1 E93.32473 F3000.00000
G92 E0
G1 Z0.300 F12000.000
G1 X135.170 Y91.829
G1 Z0.200
G1 E6.50000 F2700.00000
G1 F1200.000
G1 X133.609 Y90.269 E6.57120
G1 X132.611 Y89.819 E6.60651
G1 X135.197 Y92.405 E6.72447
G1 X135.518 Y93.275 E6.75439
G1 X131.613 Y89.370 E6.93255
G1 X130.615 Y88.920 E6.96787
G1 X135.840 Y94.145 E7.20623
G1 X136.161 Y95.015 E7.23614
G1 X129.616 Y88.470 E7.53470
G1 X128.618 Y88.021 E7.57002
G1 X136.482 Y95.885 E7.92878
G1 X136.804 Y96.755 E7.95869
G1 X127.620 Y87.571 E8.37765
G1 X126.622 Y87.121 E8.41297
G1 X137.125 Y97.625 E8.89212
G1 X137.447 Y98.495 E8.92204
G1 X125.623 Y86.672 E9.46140
G1 X124.625 Y86.222 E9.49671
G1 X137.768 Y99.365 E10.09627
G1 X138.089 Y100.235 E10.12618
G1 X123.627 Y85.773 E10.78594
G1 X122.629 Y85.323 E10.82125
G1 X138.411 Y101.105 E11.54121
G1 X138.732 Y101.975 E11.57112
G1 X121.630 Y84.873 E12.35128
G1 X120.632 Y84.424 E12.38659
G1 X139.054 Y102.845 E13.22694
G1 X139.375 Y103.715 E13.25686
G1 X119.634 Y83.974 E14.15741
G1 X118.636 Y83.525 E14.19273
G1 X139.696 Y104.585 E15.15348
G1 X140.018 Y105.455 E15.18339
G1 X117.637 Y83.075 E16.20434
G1 X116.639 Y82.625 E16.23966
G1 X140.339 Y106.325 E17.32081
G1 X140.661 Y107.195 E17.35072
G1 X115.641 Y82.176 E18.49207
G1 X114.643 Y81.726 E18.52739
G1 X140.982 Y108.065 E19.72893
G1 X141.303 Y108.935 E19.75885
G1 X113.644 Y81.276 E21.02060
G1 X113.441 Y81.185 E21.02780
G1 X113.128 Y81.309 E21.03865
G1 X141.625 Y109.805 E22.33861
G1 X141.946 Y110.675 E22.36853
G1 X112.735 Y81.465 E23.70106
M73 Q1 S192
M73 P1 R165
G1 X112.343 Y81.621 E23.71469
G1 X142.267 Y111.545 E25.07981
G1 X142.589 Y112.415 E25.10972
G1 X111.950 Y81.776 E26.50741
G1 X111.557 Y81.932 E26.52105
G1 X142.662 Y113.037 E27.94000
G1 X142.764 Y113.310 E27.94937
G1 X142.650 Y113.573 E27.95864
G1 X111.164 Y82.088 E29.39494
G1 X110.772 Y82.244 E29.40857
G1 X142.484 Y113.956 E30.85523
G1 X142.319 Y114.340 E30.86869
G1 X110.379 Y82.400 E32.32572
G1 X109.986 Y82.556 E32.33935
G1 X142.153 Y114.723 E33.80675
G1 X141.987 Y115.106 E33.82021
G1 X109.593 Y82.712 E35.29797
G1 X109.201 Y82.867 E35.31160
G1 X141.822 Y115.489 E36.79973
G1 X141.656 Y115.872 E36.81319
G1 X108.808 Y83.023 E38.31168
G1 X108.415 Y83.179 E38.32531
G1 X141.491 Y116.255 E39.83417
G1 X141.325 Y116.638 E39.84763
G1 X108.022 Y83.335 E41.36685
G1 X107.630 Y83.491 E41.38048
G1 X141.160 Y117.021 E42.91007
G1 X140.994 Y117.404 E42.92353
G1 X107.237 Y83.647 E44.46348
G1 X106.844 Y83.803 E44.47711
G1 X140.829 Y117.787 E46.02743
G1 X140.663 Y118.170 E46.04089
G1 X106.451 Y83.958 E47.60158
G1 X106.059 Y84.114 E47.61521
G1 X140.498 Y118.553 E49.18626
G1 X140.332 Y118.937 E49.19972
G1 X105.666 Y84.270 E50.78114
