; generated by PrusaSlicer 2.2.0+win64 on 2020-06-03 at 14:46:47 UTC

; 

; external perimeters extrusion width = 0.41mm
; perimeters extrusion width = 0.43mm
; infill extrusion width = 0.40mm
; solid infill extrusion width = 0.40mm
; top infill extrusion width = 0.42mm
; first layer extrusion width = 0.43mm

M73 P0 R230
M73 Q0 S239
M201 X9000 Y9000 Z500 E10000 ; sets maximum accelerations, mm/sec^2
M203 X500 Y500 Z80 E120 ; sets maximum feedrates, mm/sec
M204 P1500 R1500 T1500 ; sets acceleration (P, T) and retract acceleration (R), mm/sec^2
M205 X10.00 Y10.00 Z0.20 E2.50 ; sets the jerk limits, mm/sec
M205 S0 T0 ; sets the minimum extruding and travel feed rate, mm/sec
M107
G90 ; use absolute coordinates
M83 ; extruder relative mode
M104 S220 ; set extruder temp
M140 S60 ; set bed temp
G28 ; home all
G1 Z2 F240
M190 S60 ; wait for bed temp
M109 S220 ; wait for extruder temp
G1 X219 Y190 F3000
G1 Z0.28 F240
G92 E0.0
G1 Y20 E15.0 F1500.0 ; intro line
M73 Q0 S239
M73 P0 R230
G1 X219.3 F5000
G1 Y190 E30 F1200.0 ; intro line
G92 E0.0
G21 ; set units to millimeters
G90 ; use absolute coordinates
M82 ; use absolute distances for extrusion
G92 E0
;BEFORE_LAYER_CHANGE
;0.2
G1 Z0.200 F10500.000
;AFTER_LAYER_CHANGE
;0.2
G1 E-6.50000 F3000.00000
G92 E0
G1 Z0.300 F10500.000
G1 X87.888 Y85.910
G1 Z0.200
G1 E6.50000 F2700.00000
G1 F1200.000
G1 X88.805 Y85.245 E6.53648
G1 X112.539 Y75.827 E7.35831
G1 X113.958 Y75.705 E7.40415
G1 X115.048 Y75.986 E7.44040
G1 X115.477 Y76.213 E7.45599
G1 X115.697 Y76.374 E7.46477
G1 X137.757 Y86.310 E8.24348
G1 X138.633 Y86.996 E8.27930
G1 X139.396 Y88.188 E8.32486
G1 X139.539 Y88.664 E8.34084
G1 X139.581 Y88.940 E8.34984
G1 X148.160 Y112.166 E9.14675
G1 X148.284 Y113.364 E9.18553
G1 X148.175 Y114.026 E9.20711
G1 X147.964 Y114.669 E9.22890
G1 X137.818 Y138.149 E10.05215
G1 X137.112 Y139.087 E10.08992
G1 X136.195 Y139.752 E10.12640
G1 X112.482 Y149.163 E10.94751
G1 X111.367 Y149.313 E10.98374
G1 X109.966 Y149.020 E11.02980
G1 X109.523 Y148.785 E11.04594
G1 X109.303 Y148.625 E11.05471
G1 X87.241 Y138.690 E11.83347
G1 X86.409 Y138.051 E11.86725
G1 X85.602 Y136.811 E11.91484
G1 X85.459 Y136.336 E11.93080
G1 X85.418 Y136.060 E11.93981
G1 X76.839 Y112.832 E12.73675
G1 X76.716 Y111.634 E12.77552
G1 X76.825 Y110.972 E12.79711
G1 X77.036 Y110.329 E12.81889
G1 X87.182 Y86.848 E13.64219
G1 X87.852 Y85.958 E13.67803
G1 X88.140 Y86.205 F10500.000
G1 F1200.000
G1 X88.972 Y85.596 E13.71121
G1 X112.656 Y76.197 E14.53133
G1 X113.895 Y76.089 E14.57138
G1 X114.888 Y76.340 E14.60434
G1 X115.282 Y76.548 E14.61868
G1 X115.499 Y76.709 E14.62739
G1 X137.577 Y86.654 E15.40675
G1 X138.327 Y87.235 E15.43727
G1 X139.034 Y88.327 E15.47913
G1 X139.164 Y88.760 E15.49371
G1 X139.203 Y89.035 E15.50263
G1 X147.789 Y112.277 E16.30013
G1 X147.898 Y113.327 E16.33408
G1 X147.795 Y113.948 E16.35434
G1 X147.605 Y114.523 E16.37385
G1 X137.471 Y137.975 E17.19611
G1 X136.860 Y138.792 E17.22897
G1 X136.029 Y139.401 E17.26214
G1 X112.361 Y148.795 E18.08171
G1 X111.411 Y148.928 E18.11257
G1 X110.123 Y148.665 E18.15490
G1 X109.718 Y148.450 E18.16963
G1 X109.501 Y148.289 E18.17834
G1 X87.421 Y138.346 E18.95772
G1 X86.672 Y137.765 E18.98824
G1 X85.965 Y136.674 E19.03010
G1 X85.834 Y136.240 E19.04468
G1 X85.796 Y135.965 E19.05361
G1 X77.211 Y112.721 E19.85114
G1 X77.102 Y111.672 E19.88509
G1 X77.205 Y111.051 E19.90535
G1 X77.395 Y110.475 E19.92485
G1 X87.529 Y87.022 E20.74716
G1 X88.104 Y86.253 E20.77808
G1 X88.394 Y86.498 F10500.000
G1 F1200.000
G1 X89.138 Y85.946 E20.80791
G1 X112.773 Y76.567 E21.62631
G1 X113.834 Y76.472 E21.66062
G1 X114.728 Y76.693 E21.69025
G1 X115.086 Y76.882 E21.70328
G1 X115.299 Y77.044 E21.71190
G1 X137.396 Y86.997 E22.49192
G1 X138.062 Y87.519 E22.51914
G1 X138.671 Y88.464 E22.55532
G1 X138.789 Y88.856 E22.56851
G1 X138.825 Y89.128 E22.57732
G1 X147.418 Y112.389 E23.37546
G1 X147.512 Y113.289 E23.40460
G1 X147.416 Y113.869 E23.42352
G1 X147.247 Y114.377 E23.44075
G1 X137.125 Y137.801 E24.26204
G1 X136.606 Y138.499 E24.29003
G1 X135.862 Y139.051 E24.31985
G1 X112.241 Y148.426 E25.13782
G1 X111.393 Y148.540 E25.16534
G1 X110.280 Y148.310 E25.20193
G1 X109.914 Y148.116 E25.21525
G1 X109.701 Y147.954 E25.22386
G1 X87.602 Y138.003 E26.00390
G1 X86.937 Y137.481 E26.03112
G1 X86.328 Y136.536 E26.06731
G1 X86.210 Y136.144 E26.08049
G1 X86.174 Y135.872 E26.08931
G1 X77.582 Y112.609 E26.88748
G1 X77.488 Y111.709 E26.91662
G1 X77.584 Y111.129 E26.93553
G1 X77.753 Y110.621 E26.95276
G1 X87.875 Y87.196 E27.77410
G1 X88.358 Y86.546 E27.80016
G1 X88.650 Y86.790 F10500.000
G1 F1200.000
G1 X89.306 Y86.296 E27.82658
G1 X112.890 Y76.937 E28.64324
G1 X113.776 Y76.856 E28.67187
G1 X114.569 Y77.047 E28.69814
G1 X114.889 Y77.216 E28.70979
G1 X115.098 Y77.378 E28.71828
G1 X137.217 Y87.341 E29.49910
G1 X137.756 Y87.759 E29.52105
G1 X138.308 Y88.603 E29.55351
G1 X138.413 Y88.951 E29.56521
G1 X138.445 Y89.218 E29.57388
G1 X147.046 Y112.501 E30.37274
G1 X147.126 Y113.252 E30.39707
G1 X147.037 Y113.790 E30.41462
G1 X146.888 Y114.231 E30.42958
G1 X136.778 Y137.627 E31.24992
G1 X136.350 Y138.207 E31.27312
G1 X135.694 Y138.701 E31.29954
G1 X112.119 Y148.058 E32.11592
G1 X111.436 Y148.154 E32.13812
G1 X110.435 Y147.954 E32.17095
G1 X110.111 Y147.782 E32.18277
G1 X109.902 Y147.621 E32.19126
G1 X87.782 Y137.660 E32.97209
G1 X87.242 Y137.242 E32.99405
G1 X86.690 Y136.398 E33.02651
G1 X86.586 Y136.049 E33.03821
G1 X86.553 Y135.782 E33.04689
G1 X77.954 Y112.498 E33.84578
G1 X77.874 Y111.746 E33.87010
G1 X77.963 Y111.208 E33.88766
G1 X78.112 Y110.768 E33.90261
G1 X88.222 Y87.370 E34.72300
G1 X88.614 Y86.838 E34.74427
G1 X88.908 Y87.079 F10500.000
G1 F1200.000
G1 X89.474 Y86.646 E34.76722
G1 X113.007 Y77.307 E35.58211
G1 X113.719 Y77.240 E35.60513
G1 X114.411 Y77.401 E35.62798
G1 X114.691 Y77.549 E35.63819
G1 X114.894 Y77.710 E35.64652
G1 X137.036 Y87.683 E36.42814
G1 X137.491 Y88.042 E36.44680
G1 X137.946 Y88.740 E36.47360
G1 X138.037 Y89.044 E36.48381
G1 X138.065 Y89.306 E36.49230
G1 X146.675 Y112.612 E37.29198
G1 X146.740 Y113.215 E37.31148
G1 X146.658 Y113.711 E37.32766
G1 X146.530 Y114.084 E37.34034
G1 X136.431 Y137.454 E38.15976
G1 X136.092 Y137.918 E38.17825
G1 X135.526 Y138.351 E38.20121
G1 X111.999 Y147.689 E39.01590
M73 Q0 S238
M73 P0 R229
G1 X111.418 Y147.766 E39.03477
G1 X110.592 Y147.599 E39.06187
G1 X110.309 Y147.449 E39.07219
G1 X110.106 Y147.288 E39.08052
G1 X87.963 Y137.317 E39.86216
G1 X87.507 Y136.958 E39.88082
G1 X87.053 Y136.260 E39.90763
G1 X86.962 Y135.956 E39.91783
G1 X86.933 Y135.694 E39.92633
G1 X78.325 Y112.386 E40.72603
G1 X78.260 Y111.783 E40.74554
G1 X78.342 Y111.288 E40.76171
G1 X78.470 Y110.915 E40.77439
G1 X88.569 Y87.543 E41.59386
G1 X88.873 Y87.128 E41.61042
G1 X89.169 Y87.366 F10500.000
G1 F1200.000
G1 X89.644 Y86.995 E41.62983
G1 X113.125 Y77.677 E42.44292
G1 X113.666 Y77.624 E42.46041
G1 X114.253 Y77.755 E42.47978
G1 X114.491 Y77.882 E42.48846
G1 X114.686 Y78.042 E42.49657
G1 X136.857 Y88.027 E43.27918
G1 X137.187 Y88.284 E43.29265
G1 X137.583 Y88.880 E43.31569
G1 X137.660 Y89.136 E43.32428
G1 X137.684 Y89.392 E43.33255
G1 X146.304 Y112.725 E44.13315
G1 X146.353 Y113.178 E44.14784
G1 X146.279 Y113.631 E44.16260
G1 X146.172 Y113.936 E44.17300
G1 X136.084 Y137.282 E44.99155
G1 X135.831 Y137.631 E45.00543
G1 X135.356 Y138.002 E45.02484
G1 X111.877 Y147.321 E45.83788
G1 X111.458 Y147.380 E45.85150
G1 X110.747 Y147.243 E45.87480
G1 X110.509 Y147.117 E45.88349
G1 X110.314 Y146.957 E45.89160
G1 X88.142 Y136.973 E46.67423
G1 X87.811 Y136.716 E46.68770
G1 X87.415 Y136.120 E46.71074
G1 X87.338 Y135.865 E46.71933
G1 X87.314 Y135.608 E46.72761
G1 X78.696 Y112.274 E47.52823
G1 X78.647 Y111.820 E47.54292
G1 X78.721 Y111.368 E47.55768
G1 X78.828 Y111.062 E47.56808
G1 X88.916 Y87.715 E48.38668
G1 X89.134 Y87.415 E48.39862
G1 X89.815 Y87.343 F10500.000
G1 F1200.000
G1 X113.243 Y78.046 E49.20988
G1 X113.616 Y78.009 E49.22196
G1 X114.097 Y78.111 E49.23777
G1 X114.290 Y78.213 E49.24480
G1 X114.476 Y78.371 E49.25265
G1 X136.675 Y88.370 E50.03627
G1 X136.922 Y88.567 E50.04644
G1 X137.221 Y89.018 E50.06388
G1 X137.283 Y89.225 E50.07083
G1 X137.302 Y89.473 E50.07883
G1 X145.933 Y112.837 E50.88049
G1 X145.967 Y113.142 E50.89036
G1 X145.900 Y113.550 E50.90367
G1 X145.815 Y113.788 E50.91180
G1 X135.737 Y137.110 E51.72952
G1 X135.567 Y137.347 E51.73892
G1 X135.185 Y137.654 E51.75467
G1 X111.758 Y146.952 E52.56592
G1 X111.441 Y146.992 E52.57619
G1 X110.903 Y146.888 E52.59384
G1 X110.710 Y146.786 E52.60087
G1 X110.524 Y146.627 E52.60872
G1 X88.324 Y136.630 E53.39236
G1 X88.077 Y136.434 E53.40252
G1 X87.778 Y135.982 E53.41997
G1 X87.716 Y135.775 E53.42692
G1 X87.697 Y135.527 E53.43492
G1 X79.067 Y112.161 E54.23661
G1 X79.033 Y111.857 E54.24648
G1 X79.100 Y111.449 E54.25979
G1 X79.185 Y111.211 E54.26791
G1 X89.263 Y87.887 E55.08568
G1 X89.433 Y87.650 E55.09508
G1 X89.768 Y87.381 E55.10890
G1 X89.702 Y87.929 F10500.000
G1 F1200.000
G1 X89.988 Y87.691 E55.12087
G1 X113.361 Y78.416 E55.93022
G1 X113.572 Y78.394 E55.93705
G1 X113.942 Y78.467 E55.94920
G1 X114.086 Y78.543 E55.95443
G1 X114.260 Y78.699 E55.96195
G1 X136.495 Y88.714 E56.74685
G1 X136.621 Y88.811 E56.75197
G1 X136.859 Y89.160 E56.76556
G1 X136.905 Y89.312 E56.77068
G1 X136.917 Y89.550 E56.77834
G1 X145.562 Y112.951 E57.58126
G1 X145.581 Y113.106 E57.58631
G1 X145.521 Y113.467 E57.59808
G1 X145.458 Y113.638 E57.60393
G1 X135.389 Y136.938 E58.42090
G1 X135.298 Y137.068 E58.42600
G1 X135.012 Y137.306 E58.43797
G1 X111.636 Y146.584 E59.24744
G1 X111.477 Y146.606 E59.25262
G1 X111.056 Y146.531 E59.26637
G1 X110.914 Y146.456 E59.27154
G1 X110.740 Y146.300 E59.27906
G1 X88.503 Y136.286 E60.06399
G1 X88.378 Y136.189 E60.06911
G1 X88.139 Y135.840 E60.08270
G1 X88.094 Y135.688 E60.08782
G1 X88.081 Y135.450 E60.09548
G1 X79.438 Y112.048 E60.89843
G1 X79.419 Y111.892 E60.90348
G1 X79.479 Y111.531 E60.91525
G1 X79.542 Y111.361 E60.92110
G1 X89.611 Y88.059 E61.73811
G1 X89.668 Y87.978 E61.74128
G1 X89.978 Y88.201 F10500.000
G1 F1200.000
G1 X90.164 Y88.038 E61.74926
G1 X113.479 Y78.785 E62.55658
G1 X113.532 Y78.780 E62.55832
G1 X113.802 Y78.828 E62.56713
G1 X114.047 Y79.027 E62.57728
G1 X136.309 Y89.054 E63.36315
G1 X136.350 Y89.088 E63.36487
G1 X136.503 Y89.312 E63.37358
G1 X136.534 Y89.629 E63.38383
G1 X145.189 Y113.057 E64.18770
G1 X145.193 Y113.109 E64.18938
G1 X145.144 Y113.376 E64.19812
G1 X145.102 Y113.486 E64.20190
G1 X135.022 Y136.796 E65.01928
G1 X134.836 Y136.959 E65.02726
G1 X111.521 Y146.213 E65.83460
G1 X111.468 Y146.218 E65.83634
G1 X111.198 Y146.171 E65.84516
G1 X110.953 Y145.972 E65.85530
G1 X88.689 Y135.946 E66.64119
G1 X88.649 Y135.912 E66.64291
G1 X88.496 Y135.688 E66.65162
G1 X88.465 Y135.371 E66.66188
G1 X79.811 Y111.941 E67.46578
G1 X79.807 Y111.889 E67.46745
G1 X79.856 Y111.622 E67.47619
G1 X79.898 Y111.513 E67.47997
G1 X89.948 Y88.253 E68.29549
G1 X90.292 Y88.435 F10500.000
G1 F1200.000
G1 X90.347 Y88.382 E68.29797
G1 X113.545 Y79.175 E69.10127
G1 X113.653 Y79.195 E69.10481
G1 X113.833 Y79.355 E69.11257
G1 X136.076 Y89.374 E69.89775
G1 X136.138 Y89.464 E69.90125
G1 X136.150 Y89.708 E69.90912
G1 X144.798 Y113.117 E70.71234
G1 X144.779 Y113.222 E70.71575
G1 X144.721 Y113.289 E70.71860
G1 X144.718 Y113.398 E70.72211
G1 X134.708 Y136.562 E71.53431
G1 X134.653 Y136.616 E71.53678
G1 X111.455 Y145.823 E72.34010
G1 X111.347 Y145.804 E72.34364
G1 X111.167 Y145.643 E72.35140
G1 X88.922 Y135.626 E73.13660
G1 X88.861 Y135.536 E73.14010
G1 X88.848 Y135.292 E73.14798
G1 X80.202 Y111.881 E73.95123
G1 X80.221 Y111.777 E73.95464
G1 X80.279 Y111.710 E73.95749
G1 X80.282 Y111.601 E73.96100
G1 X90.268 Y88.490 E74.77130
G1 E68.27130 F3000.00000
G92 E0
G1 Z0.300 F10500.000
G1 X134.384 Y136.283
G1 Z0.200
G1 E6.50000 F2700.00000
G1 F1200.000
G1 X111.479 Y145.374 E7.29317
G1 X111.392 Y145.297 E7.29691
G1 X89.259 Y135.330 E8.07817
G1 X89.253 Y135.209 E8.08207
G1 X80.648 Y111.909 E8.88152
M73 Q0 S237
M73 P0 R228
G1 X80.756 Y111.784 E8.88684
G1 X80.706 Y111.649 E8.89146
G1 X90.616 Y88.714 E9.69560
G1 X113.521 Y79.625 E10.48876
G1 X113.608 Y79.702 E10.49249
G1 X135.739 Y89.670 E11.27374
G1 X135.746 Y89.791 E11.27764
G1 X144.352 Y113.090 E12.07705
G1 X144.244 Y113.215 E12.08237
G1 X144.294 Y113.349 E12.08699
G1 X134.408 Y136.228 E12.88917
G1 X134.017 Y136.125 F10500.000
G1 X134.092 Y135.982
G1 F1200.000
G1 X111.534 Y144.936 E13.67033
G1 X89.612 Y135.064 E14.44413
G1 X81.090 Y111.990 E15.23584
G1 X81.199 Y111.864 E15.24119
G1 X81.123 Y111.660 E15.24819
G1 X90.908 Y89.015 E16.04218
G1 X113.466 Y80.063 E16.82333
G1 X135.386 Y89.936 E17.59710
G1 X143.910 Y113.009 E18.38879
G1 X143.801 Y113.134 E18.39413
G1 X143.877 Y113.338 E18.40114
G1 X134.116 Y135.927 E19.19315
G1 X133.801 Y135.682 F10500.000
G1 F1200.000
G1 X111.543 Y144.516 E19.96388
G1 X89.919 Y134.778 E20.72718
G1 X81.533 Y112.070 E21.50630
G1 X81.642 Y111.944 E21.51166
G1 X81.540 Y111.671 E21.52106
G1 X91.199 Y89.316 E22.30488
G1 X113.457 Y80.483 E23.07559
G1 X135.080 Y90.222 E23.83887
G1 X143.467 Y112.928 E24.61796
G1 X143.358 Y113.054 E24.62332
G1 X143.460 Y113.328 E24.63272
G1 X133.824 Y135.626 E25.41456
G1 X133.509 Y135.381 F10500.000
G1 F1200.000
G1 X111.553 Y144.095 E26.17487
G1 X90.226 Y134.492 E26.92767
G1 X81.975 Y112.151 E27.69419
G1 X82.085 Y112.025 E27.69957
G1 X81.957 Y111.682 E27.71136
G1 X91.491 Y89.616 E28.48501
G1 X113.447 Y80.903 E29.24530
G1 X134.773 Y90.508 E29.99808
G1 X143.025 Y112.847 E30.76457
G1 X142.915 Y112.974 E30.76995
G1 X143.043 Y113.317 E30.78174
G1 X133.533 Y135.326 E31.55342
G1 E25.05342 F3000.00000
G92 E0
G1 Z0.300 F10500.000
G1 X89.829 Y133.171
G1 Z0.200
G1 E6.50000 F2700.00000
G1 F1200.000
G1 X91.389 Y134.731 E6.57117
G1 X92.387 Y135.180 E6.60648
G1 X89.802 Y132.595 E6.72440
G1 X89.481 Y131.725 E6.75431
G1 X93.385 Y135.630 E6.93242
G1 X94.383 Y136.079 E6.96773
G1 X89.159 Y130.856 E7.20602
G1 X88.838 Y129.986 E7.23594
G1 X95.381 Y136.529 E7.53442
G1 X96.379 Y136.978 E7.56973
G1 X88.517 Y129.116 E7.92839
G1 X88.196 Y128.246 E7.95830
G1 X97.377 Y137.428 E8.37716
G1 X98.375 Y137.877 E8.41246
G1 X87.874 Y127.376 E8.89150
G1 X87.553 Y126.506 E8.92141
G1 X99.373 Y138.326 E9.46064
G1 X100.371 Y138.776 E9.49595
G1 X87.232 Y125.636 E10.09536
G1 X86.911 Y124.766 E10.12527
G1 X101.370 Y139.225 E10.78486
G1 X102.368 Y139.675 E10.82017
G1 X86.589 Y123.896 E11.53995
G1 X86.268 Y123.026 E11.56986
G1 X103.366 Y140.124 E12.34983
G1 X104.364 Y140.574 E12.38514
G1 X85.947 Y122.157 E13.22529
G1 X85.625 Y121.287 E13.25520
G1 X105.362 Y141.023 E14.15554
G1 X106.360 Y141.472 E14.19085
G1 X85.304 Y120.417 E15.15137
G1 X84.983 Y119.547 E15.18129
G1 X107.358 Y141.922 E16.20200
G1 X108.356 Y142.371 E16.23730
G1 X84.662 Y118.677 E17.31820
G1 X84.340 Y117.807 E17.34811
G1 X109.354 Y142.821 E18.48919
G1 X110.352 Y143.270 E18.52450
G1 X84.019 Y116.937 E19.72577
G1 X83.698 Y116.067 E19.75568
G1 X111.350 Y143.720 E21.01713
G1 X111.559 Y143.814 E21.02452
G1 X111.870 Y143.690 E21.03530
G1 X83.377 Y115.197 E22.33510
M73 Q1 S236
M73 P1 R227
G1 X83.055 Y114.328 E22.36502
G1 X112.262 Y143.535 E23.69739
G1 X112.655 Y143.379 E23.71102
G1 X82.734 Y113.458 E25.07597
G1 X82.413 Y112.588 E25.10588
G1 X113.048 Y143.223 E26.50340
G1 X113.441 Y143.067 E26.51703
G1 X82.340 Y111.966 E27.93580
G1 X82.236 Y111.689 E27.94534
G1 X82.349 Y111.427 E27.95453
G1 X113.833 Y142.911 E29.39077
G1 X114.226 Y142.755 E29.40440
G1 X82.515 Y111.044 E30.85100
G1 X82.681 Y110.661 E30.86446
G1 X114.619 Y142.599 E32.32143
G1 X115.012 Y142.443 E32.33506
G1 X82.846 Y110.278 E33.80239
G1 X83.012 Y109.895 E33.81585
G1 X115.404 Y142.288 E35.29355
G1 X115.797 Y142.132 E35.30718
G1 X83.177 Y109.512 E36.79524
G1 X83.343 Y109.129 E36.80870
G1 X116.190 Y141.976 E38.30712
G1 X116.583 Y141.820 E38.32075
G1 X83.508 Y108.746 E39.82955
G1 X83.674 Y108.362 E39.84301
G1 X116.975 Y141.664 E41.36216
G1 X117.368 Y141.508 E41.37579
G1 X83.839 Y107.979 E42.90532
G1 X84.005 Y107.596 E42.91878
G1 X117.761 Y141.352 E44.45866
G1 X118.153 Y141.196 E44.47229
G1 X84.170 Y107.213 E46.02255
G1 X84.336 Y106.830 E46.03601
G1 X118.546 Y141.041 E47.59662
G1 X118.939 Y140.885 E47.61025
