;FLAVOR:Marlin
;TIME:20516
;Filament used: 17.3506m
;Layer height: 0.2
;MINX:22.379
;MINY:17.221
;MINZ:0.2
;MAXX:136.207
;MAXY:203.346
;MAXZ:75.2
;Generated with Cura_SteamEngine 4.5.0
M140 S50
M105
M190 S50
M104 S200
M105
M109 S200
M82 ;absolute extrusion mode
M201 X500.00 Y500.00 Z100.00 E5000.00 ;Setup machine max acceleration
M203 X500.00 Y500.00 Z10.00 E50.00 ;Setup machine max feedrate
M204 P500.00 R1000.00 T500.00 ;Setup Print/Retract/Travel acceleration
M205 X8.00 Y8.00 Z0.40 E5.00 ;Setup Jerk
M220 S100 ;Reset Feedrate
M221 S100 ;Reset Flowrate

G28 ;Home

G92 E0 ;Reset Extruder
G1 Z2.0 F3000 ;Move Z Axis up
G1 X10.1 Y20 Z0.28 F5000.0 ;Move to start position
G1 X10.1 Y200.0 Z0.28 F1500.0 E15 ;Draw the first line
G1 X10.4 Y200.0 Z0.28 F5000.0 ;Move to side a little
G1 X10.4 Y20 Z0.28 F1500.0 E30 ;Draw the second line
G92 E0 ;Reset Extruder
G1 Z2.0 F3000 ;Move Z Axis up

G92 E0
G92 E0
G1 F2700 E-5
;LAYER_COUNT:376
;LAYER:0
M107
G0 F6000 X53.441 Y35.325 Z0.2
;TYPE:SKIRT
G1 F2700 E0
G1 F1200 X53.962 Y34.545 E0.0312
G1 X54.548 Y33.812 E0.06241
G1 X55.193 Y33.132 E0.09358
G1 X55.895 Y32.51 E0.12478
G1 X56.647 Y31.949 E0.15598
G1 X57.443 Y31.454 E0.18716
G1 X58.28 Y31.029 E0.21838
G1 X59.149 Y30.677 E0.24957
G1 X60.045 Y30.4 E0.28076
G1 X60.961 Y30.201 E0.31194
G1 X61.891 Y30.08 E0.34313
G1 X62.828 Y30.039 E0.37432
G1 X63.765 Y30.078 E0.40552
G1 X64.696 Y30.196 E0.43673
G1 X65.682 Y30.412 E0.4703
G1 X66.914 Y30.744 E0.51274
G1 X124.27 Y47.374 E2.49898
G1 X124.415 Y47.417 E2.50401
G1 X125.048 Y47.61 E2.52602
G1 X125.933 Y47.922 E2.55723
G1 X126.788 Y48.307 E2.58841
G1 X127.606 Y48.765 E2.6196
G1 X128.383 Y49.29 E2.65078
G1 X129.113 Y49.879 E2.68198
G1 X129.789 Y50.529 E2.71317
G1 X130.622 Y51.509 E2.75595
G1 X131.336 Y52.459 E2.79548
G1 X133.812 Y55.878 E2.93588
G1 X134.207 Y56.44 E2.95873
G1 X134.714 Y57.229 E2.98992
G1 X135.151 Y58.059 E3.02112
G1 X135.515 Y58.923 E3.0523
G1 X135.805 Y59.815 E3.0835
G1 X136.018 Y60.729 E3.11472
G1 X136.152 Y61.657 E3.1459
G1 X136.207 Y62.593 E3.17709
G1 X136.181 Y63.531 E3.2083
G1 X136.076 Y64.463 E3.23949
G1 X135.892 Y65.382 E3.27066
G1 X135.63 Y66.283 E3.30187
G1 X135.293 Y67.158 E3.33306
G1 X134.882 Y68.001 E3.36425
G1 X134.401 Y68.806 E3.39544
G1 X133.853 Y69.567 E3.42663
G1 X133.142 Y70.384 E3.46265
G1 X132.488 Y71.065 E3.49406
G1 X130.737 Y72.922 E3.57895
G1 X129.04 Y74.829 E3.66385
G1 X127.45 Y76.719 E3.746
G1 X125.873 Y78.707 E3.8304
G1 X124.344 Y80.749 E3.91525
G1 X122.915 Y82.774 E3.99768
G1 X121.503 Y84.901 E4.08259
G1 X120.196 Y86.995 E4.16469
G1 X118.91 Y89.196 E4.24948
G1 X117.7 Y91.404 E4.33322
G1 X116.557 Y93.637 E4.41666
G1 X115.47 Y95.917 E4.50067
G1 X114.454 Y98.217 E4.5843
G1 X113.506 Y100.534 E4.66756
G1 X112.61 Y102.917 E4.75224
G1 X111.801 Y105.267 E4.8349
G1 X111.042 Y107.694 E4.91948
G1 X110.366 Y110.086 E5.00215
G1 X109.74 Y112.573 E5.08745
G1 X109.2 Y115.01 E5.17047
G1 X108.726 Y117.477 E5.25402
G1 X108.319 Y119.968 E5.33797
G1 X107.988 Y122.433 E5.4207
G1 X107.721 Y124.953 E5.50498
G1 X107.527 Y127.484 E5.58941
G1 X107.406 Y129.968 E5.67213
G1 X107.354 Y132.501 E5.75639
G1 X107.374 Y135.036 E5.84071
G1 X107.475 Y137.752 E5.93111
G1 X109.049 Y167.905 E6.93536
G1 X109.074 Y168.566 E6.95736
G1 X109.07 Y169.504 E6.98856
G1 X108.985 Y170.438 E7.01976
G1 X108.822 Y171.362 E7.05096
G1 X108.58 Y172.268 E7.08215
G1 X108.262 Y173.15 E7.11334
G1 X107.87 Y174.002 E7.14453
G1 X107.406 Y174.818 E7.17575
G1 X106.875 Y175.591 E7.20694
G1 X106.281 Y176.316 E7.23812
G1 X105.626 Y176.987 E7.2693
G1 X104.917 Y177.601 E7.3005
G1 X104.162 Y178.149 E7.33153
G1 X103.678 Y178.47 E7.35084
G1 X103.366 Y178.669 E7.36315
G1 X66.393 Y201.438 E8.80736
G1 X65.793 Y201.796 E8.8306
G1 X64.968 Y202.242 E8.86179
G1 X64.108 Y202.616 E8.89298
G1 X63.219 Y202.915 E8.92418
G1 X62.308 Y203.138 E8.95537
G1 X61.381 Y203.282 E8.98657
G1 X60.446 Y203.346 E9.01774
G1 X59.508 Y203.331 E9.04895
G1 X58.575 Y203.236 E9.08014
G1 X57.653 Y203.061 E9.11135
G1 X56.75 Y202.809 E9.14253
G1 X55.871 Y202.481 E9.17374
G1 X55.024 Y202.079 E9.20492
G1 X54.214 Y201.606 E9.23612
G1 X53.093 Y200.782 E9.28239
G1 X52.497 Y200.281 E9.30829
G1 X33.313 Y183.631 E10.15315
G1 X32.792 Y183.166 E10.17638
G1 X32.12 Y182.512 E10.20757
G1 X31.506 Y181.803 E10.23876
G1 X30.954 Y181.045 E10.26995
G1 X30.469 Y180.242 E10.30115
G1 X30.054 Y179.401 E10.33235
G1 X29.712 Y178.528 E10.36353
G1 X29.446 Y177.628 E10.39475
G1 X29.257 Y176.71 E10.42592
G1 X29.148 Y175.778 E10.45713
G1 X29.118 Y174.841 E10.48831
G1 X29.168 Y173.904 E10.51952
G1 X29.343 Y172.742 E10.5586
G1 X29.479 Y172.104 E10.5803
G1 X33.831 Y153.797 E11.20616
G1 X34.394 Y151.268 E11.29233
G1 X34.877 Y148.773 E11.37686
G1 X35.282 Y146.299 E11.46024
G1 X35.621 Y143.795 E11.54428
G1 X35.882 Y141.336 E11.62653
G1 X36.08 Y138.803 E11.71103
G1 X36.204 Y136.286 E11.79485
G1 X36.258 Y133.759 E11.87892
G1 X36.241 Y131.238 E11.96277
G1 X36.153 Y128.751 E12.04554
G1 X35.992 Y126.22 E12.12989
G1 X35.76 Y123.707 E12.21383
G1 X35.459 Y121.215 E12.29732
G1 X35.09 Y118.744 E12.38041
G1 X34.64 Y116.228 E12.46542
G1 X34.145 Y113.845 E12.54637
G1 X33.543 Y111.31 E12.63303
G1 X32.9 Y108.907 E12.71577
G1 X32.186 Y106.515 E12.7988
G1 X31.387 Y104.087 E12.88381
G1 X30.542 Y101.747 E12.96656
G1 X29.611 Y99.379 E13.05119
G1 X28.631 Y97.082 E13.13425
G1 X27.592 Y94.825 E13.21689
G1 X26.766 Y93.177 E13.2782
G1 X26.15 Y91.919 E13.32479
G1 X25.774 Y91.059 E13.35601
G1 X25.472 Y90.171 E13.3872
G1 X25.247 Y89.261 E13.41838
G1 X25.101 Y88.334 E13.44959
G1 X25.034 Y87.399 E13.48077
G1 X25.046 Y86.461 E13.51197
G1 X25.139 Y85.528 E13.54316
G1 X25.311 Y84.606 E13.57435
G1 X25.561 Y83.702 E13.60555
G1 X25.887 Y82.823 E13.63673
G1 X26.425 Y81.718 E13.67761
G1 X26.987 Y80.715 E13.71585
G1 X52.917 Y36.187 E15.42967
G1 X53.441 Y35.325 E15.46322
G0 F6000 X53.783 Y35.533
G1 F1200 X54.295 Y34.768 E15.49384
G1 X54.872 Y34.05 E15.52447
G1 X55.508 Y33.385 E15.55508
G1 X56.2 Y32.777 E15.58572
G1 X56.942 Y32.232 E15.61634
G1 X57.728 Y31.753 E15.64695
G1 X58.553 Y31.345 E15.67756
G1 X59.411 Y31.009 E15.70821
G1 X60.294 Y30.75 E15.73882
G1 X61.196 Y30.567 E15.76943
G1 X62.111 Y30.464 E15.80005
G1 X63.032 Y30.441 E15.8307
G1 X63.95 Y30.497 E15.86128
G1 X64.861 Y30.633 E15.89192
G1 X65.579 Y30.799 E15.91643
G1 X66.803 Y31.128 E15.95859
G1 X124.159 Y47.758 E17.94482
G1 X124.931 Y47.993 E17.97166
G1 X125.8 Y48.299 E18.00231
G1 X126.638 Y48.68 E18.03292
G1 X127.44 Y49.132 E18.06354
G1 X128.2 Y49.652 E18.09417
G1 X128.912 Y50.236 E18.1248
G1 X129.57 Y50.879 E18.1554
G1 X130.303 Y51.749 E18.19324
G1 X131.012 Y52.693 E18.2325
G1 X133.485 Y56.108 E18.37274
G1 X133.88 Y56.67 E18.39559
G1 X134.376 Y57.445 E18.42619
G1 X134.803 Y58.261 E18.45682
G1 X135.158 Y59.11 E18.48743
G1 X135.438 Y59.988 E18.51808
G1 X135.64 Y60.886 E18.5487
G1 X135.764 Y61.798 E18.57931
G1 X135.808 Y62.718 E18.60994
G1 X135.772 Y63.638 E18.64057
G1 X135.656 Y64.551 E18.67118
G1 X135.462 Y65.451 E18.7018
G1 X135.19 Y66.331 E18.73243
G1 X134.843 Y67.183 E18.76303
G1 X134.424 Y68.003 E18.79366
G1 X133.934 Y68.783 E18.8243
G1 X133.379 Y69.517 E18.8549
G1 X132.853 Y70.107 E18.88119
G1 X132.265 Y70.719 E18.90942
G1 X130.43 Y72.664 E18.99836
G1 X128.752 Y74.551 E19.08234
G1 X127.115 Y76.497 E19.16692
G1 X125.554 Y78.464 E19.25044
G1 X124.041 Y80.485 E19.33441
G1 X122.576 Y82.561 E19.41892
G1 X121.184 Y84.658 E19.50264
G1 X119.83 Y86.828 E19.58771
G1 X118.571 Y88.98 E19.67063
G1 X117.35 Y91.209 E19.75516
G1 X116.198 Y93.462 E19.83933
G1 X115.107 Y95.749 E19.92361
G1 X114.089 Y98.053 E20.00738
G1 X113.121 Y100.421 E20.09247
G1 X112.244 Y102.751 E20.17527
G1 X111.413 Y105.165 E20.26019
G1 X110.664 Y107.561 E20.34368
G1 X109.977 Y109.994 E20.42777
G1 X109.347 Y112.493 E20.51349
G1 X108.812 Y114.912 E20.59589
G1 X108.332 Y117.409 E20.68046
G1 X107.927 Y119.888 E20.764
G1 X107.588 Y122.41 E20.84864
G1 X107.323 Y124.916 E20.93245
G1 X107.129 Y127.435 E21.01648
G1 X107.006 Y129.976 E21.1011
G1 X106.954 Y132.495 E21.1849
G1 X106.974 Y135.02 E21.26888
G1 X107.077 Y137.788 E21.36101
G1 X108.649 Y167.92 E22.36457
G1 X108.674 Y168.581 E22.38657
G1 X108.669 Y169.502 E22.4172
G1 X108.584 Y170.419 E22.44783
G1 X108.42 Y171.325 E22.47845
G1 X108.178 Y172.213 E22.50907
G1 X107.859 Y173.077 E22.5397
G1 X107.467 Y173.91 E22.57032
G1 X107.004 Y174.705 E22.60092
G1 X106.474 Y175.458 E22.63154
G1 X105.88 Y176.162 E22.66218
G1 X105.228 Y176.811 E22.69278
G1 X104.521 Y177.402 E22.72343
G1 X103.941 Y177.816 E22.74713
G1 X103.457 Y178.137 E22.76645
G1 X103.157 Y178.329 E22.77829
G1 X66.188 Y201.095 E24.22233
G1 X65.588 Y201.453 E24.24557
G1 X64.778 Y201.89 E24.27618
G1 X63.933 Y202.255 E24.3068
G1 X63.059 Y202.545 E24.33742
G1 X62.163 Y202.758 E24.36806
G1 X61.253 Y202.893 E24.39865
G1 X60.334 Y202.949 E24.42928
G1 X59.413 Y202.924 E24.45992
G1 X58.499 Y202.819 E24.49052
G1 X57.597 Y202.636 E24.52113
G1 X56.714 Y202.375 E24.55176
G1 X55.857 Y202.039 E24.58237
G1 X55.032 Y201.629 E24.61301
G1 X54.246 Y201.149 E24.64365
G1 X53.35 Y200.475 E24.68094
G1 X52.759 Y199.979 E24.7066
G1 X33.58 Y183.332 E25.55127
G1 X33.059 Y182.867 E25.5745
G1 X32.399 Y182.225 E25.60512
G1 X31.798 Y181.528 E25.63574
G1 X31.259 Y180.781 E25.66637
G1 X30.787 Y179.991 E25.69698
G1 X30.386 Y179.162 E25.72761
G1 X30.058 Y178.302 E25.75822
G1 X29.806 Y177.416 E25.78886
G1 X29.631 Y176.512 E25.81949
G1 X29.536 Y175.597 E25.85008
G1 X29.521 Y174.676 E25.88072
G1 X29.585 Y173.758 E25.91133
G1 X29.735 Y172.822 E25.94286
G1 X29.868 Y172.196 E25.96414
G1 X34.238 Y153.813 E26.5926
G1 X34.784 Y151.359 E26.67622
G1 X35.271 Y148.842 E26.76148
G1 X35.679 Y146.351 E26.84544
G1 X36.013 Y143.885 E26.92821
G1 X36.283 Y141.338 E27.0134
G1 X36.48 Y138.823 E27.0973
G1 X36.604 Y136.314 E27.18085
G1 X36.658 Y133.765 E27.26565
G1 X36.641 Y131.221 E27.35027
G1 X36.553 Y128.748 E27.43257
G1 X36.388 Y126.156 E27.51896
G1 X36.162 Y123.692 E27.60125
G1 X35.857 Y121.179 E27.68545
G1 X35.48 Y118.652 E27.77043
G1 X35.039 Y116.182 E27.85388
G1 X34.523 Y113.701 E27.93816
G1 X33.943 Y111.261 E28.02158
G1 X33.281 Y108.786 E28.10679
G1 X32.566 Y106.39 E28.18996
G1 X31.771 Y103.974 E28.27455
G1 X30.91 Y101.59 E28.35886
G1 X29.979 Y99.224 E28.44342
G1 X29.004 Y96.936 E28.52614
G1 X27.943 Y94.633 E28.61048
G1 X27.125 Y93.001 E28.6712
G1 X26.509 Y91.743 E28.71779
G1 X26.14 Y90.899 E28.74842
G1 X25.846 Y90.027 E28.77903
G1 X25.629 Y89.132 E28.80966
G1 X25.491 Y88.222 E28.84027
G1 X25.431 Y87.303 E28.8709
G1 X25.452 Y86.383 E28.90151
G1 X25.553 Y85.467 E28.93216
G1 X25.732 Y84.564 E28.96278
G1 X25.989 Y83.68 E28.9934
G1 X26.322 Y82.822 E29.02401
G1 X26.774 Y81.913 E29.05778
G1 X27.333 Y80.916 E29.09579
G1 X53.259 Y36.395 E30.80934
G1 X53.783 Y35.533 E30.8429
G0 F6000 X54.125 Y35.741
G1 F1200 X54.628 Y34.99 E30.87296
G1 X55.195 Y34.288 E30.90297
G1 X55.822 Y33.638 E30.93301
G1 X56.504 Y33.046 E30.96305
G1 X57.236 Y32.517 E30.99309
G1 X58.012 Y32.055 E31.02312
G1 X58.826 Y31.663 E31.05317
G1 X59.671 Y31.344 E31.08322
G1 X60.541 Y31.102 E31.11325
G1 X61.429 Y30.937 E31.14329
G1 X62.328 Y30.852 E31.17332
G1 X63.231 Y30.846 E31.20336
G1 X64.131 Y30.921 E31.2334
G1 X65.021 Y31.075 E31.26344
G1 X65.475 Y31.185 E31.27898
G1 X66.691 Y31.512 E31.32086
G1 X124.047 Y48.142 E33.30709
G1 X124.182 Y48.182 E33.31178
G1 X124.815 Y48.375 E33.33379
G1 X125.666 Y48.677 E33.36382
G1 X126.487 Y49.052 E33.39384
G1 X127.272 Y49.499 E33.42389
G1 X128.015 Y50.013 E33.45394
G1 X128.709 Y50.591 E33.48398
G1 X129.349 Y51.228 E33.51401
G1 X129.984 Y51.99 E33.547
G1 X130.689 Y52.928 E33.58603
G1 X133.158 Y56.338 E33.72605
G1 X133.553 Y56.9 E33.7489
G1 X134.039 Y57.661 E33.77893
G1 X134.456 Y58.462 E33.80897
G1 X134.8 Y59.297 E33.839
G1 X135.069 Y60.159 E33.86904
G1 X135.261 Y61.041 E33.89906
G1 X135.374 Y61.937 E33.9291
G1 X135.408 Y62.84 E33.95915
G1 X135.361 Y63.742 E33.98919
G1 X135.235 Y64.636 E34.01922
G1 X135.03 Y65.516 E34.04927
G1 X134.748 Y66.374 E34.07931
G1 X134.392 Y67.203 E34.10932
G1 X133.963 Y67.998 E34.13937
G1 X133.466 Y68.752 E34.1694
G1 X132.904 Y69.459 E34.19944
G1 X132.565 Y69.83 E34.21616
G1 X131.911 Y70.511 E34.24756
G1 X130.14 Y72.389 E34.33342
G1 X128.448 Y74.291 E34.41809
G1 X126.826 Y76.219 E34.50189
G1 X125.223 Y78.238 E34.58763
G1 X123.71 Y80.26 E34.67163
G1 X122.243 Y82.339 E34.75625
G1 X120.844 Y84.446 E34.84037
G1 X119.503 Y86.595 E34.92463
G1 X118.218 Y88.793 E35.00931
G1 X117.001 Y91.013 E35.09351
G1 X115.839 Y93.287 E35.17845
G1 X114.738 Y95.594 E35.26347
G1 X113.725 Y97.888 E35.34688
G1 X112.752 Y100.265 E35.4323
G1 X111.868 Y102.617 E35.51587
G1 X111.029 Y105.053 E35.60157
G1 X110.28 Y107.448 E35.68503
G1 X109.592 Y109.885 E35.76925
G1 X108.963 Y112.382 E35.8549
G1 X108.413 Y114.863 E35.93942
G1 X107.944 Y117.305 E36.02212
G1 X107.525 Y119.871 E36.1086
G1 X107.192 Y122.351 E36.19183
G1 X106.925 Y124.877 E36.27631
G1 X106.729 Y127.421 E36.36117
G1 X106.606 Y129.949 E36.44535
G1 X106.554 Y132.49 E36.52989
G1 X106.574 Y135.039 E36.61467
G1 X106.678 Y137.824 E36.70736
G1 X108.25 Y167.935 E37.71022
G1 X108.275 Y168.596 E37.73222
G1 X108.269 Y169.5 E37.76229
G1 X108.183 Y170.399 E37.79233
G1 X108.018 Y171.287 E37.82237
G1 X107.775 Y172.156 E37.85238
G1 X107.457 Y173.001 E37.88241
G1 X107.064 Y173.815 E37.91247
G1 X106.602 Y174.59 E37.94248
G1 X106.072 Y175.322 E37.97254
G1 X105.48 Y176.004 E38.00258
G1 X104.83 Y176.631 E38.03262
G1 X104.127 Y177.198 E38.06266
G1 X103.72 Y177.482 E38.07916
G1 X103.236 Y177.803 E38.09848
G1 X102.947 Y177.988 E38.10989
G1 X65.983 Y200.751 E39.55374
G1 X65.383 Y201.109 E39.57698
G1 X64.588 Y201.537 E39.60701
G1 X63.758 Y201.893 E39.63705
G1 X62.9 Y202.174 E39.66707
G1 X62.02 Y202.378 E39.69712
G1 X61.126 Y202.504 E39.72715
G1 X60.224 Y202.55 E39.75719
G1 X59.321 Y202.516 E39.78724
G1 X58.425 Y202.402 E39.81728
G1 X57.543 Y202.209 E39.84731
G1 X56.681 Y201.94 E39.87735
G1 X55.847 Y201.595 E39.90737
G1 X55.046 Y201.177 E39.93742
G1 X54.285 Y200.69 E39.96747
G1 X53.607 Y200.169 E39.99591
G1 X53.022 Y199.677 E40.02133
G1 X33.846 Y183.034 E40.86584
G1 X33.325 Y182.569 E40.88907
G1 X32.679 Y181.938 E40.9191
G1 X32.09 Y181.253 E40.94915
G1 X31.565 Y180.518 E40.97919
G1 X31.107 Y179.74 E41.00922
G1 X30.719 Y178.924 E41.03927
G1 X30.405 Y178.078 E41.06929
G1 X30.168 Y177.206 E41.09934
G1 X30.008 Y176.317 E41.12938
G1 X29.927 Y175.418 E41.15941
G1 X29.927 Y174.515 E41.18944
G1 X30.006 Y173.615 E41.21949
G1 X30.126 Y172.903 E41.2435
G1 X30.19 Y172.592 E41.25406
G1 X30.258 Y172.289 E41.26439
G1 X34.603 Y154.012 E41.88923
G1 X35.181 Y151.417 E41.97766
G1 X35.666 Y148.912 E42.06252
G1 X36.071 Y146.433 E42.14606
G1 X36.412 Y143.914 E42.23061
G1 X36.682 Y141.375 E42.31553
G1 X36.88 Y138.838 E42.40017
G1 X37.003 Y136.342 E42.48329
G1 X37.058 Y133.771 E42.56882
G1 X37.041 Y131.239 E42.65304
G1 X36.95 Y128.672 E42.73847
G1 X36.791 Y126.168 E42.82192
G1 X36.558 Y123.641 E42.90633
G1 X36.251 Y121.108 E42.99119
G1 X35.876 Y118.594 E43.07573
G1 X35.43 Y116.095 E43.16016
G1 X34.919 Y113.64 E43.24357
G1 X34.323 Y111.129 E43.3294
G1 X33.677 Y108.714 E43.41255
G1 X32.943 Y106.256 E43.49787
G1 X32.151 Y103.85 E43.58212
G1 X31.275 Y101.425 E43.66788
G1 X30.356 Y99.088 E43.7514
G1 X29.365 Y96.762 E43.83549
G1 X28.313 Y94.478 E43.91913
G1 X27.484 Y92.825 E43.98063
G1 X26.868 Y91.567 E44.02722
G1 X26.507 Y90.739 E44.05726
G1 X26.221 Y89.882 E44.08731
G1 X26.012 Y89.004 E44.11733
G1 X25.881 Y88.11 E44.14738
G1 X25.83 Y87.209 E44.1774
G1 X25.858 Y86.306 E44.20745
G1 X25.967 Y85.409 E44.2375
G1 X26.154 Y84.526 E44.26752
G1 X26.419 Y83.662 E44.29758
G1 X26.759 Y82.826 E44.3276
G1 X27.123 Y82.108 E44.35437
G1 X27.678 Y81.117 E44.39215
G1 X53.601 Y36.603 E46.10545
G1 X54.125 Y35.741 E46.139
G1 F2700 E41.139
;MESH:3.stl
G0 F6000 X62.096 Y40.96
G0 X63.03 Y41.503
G0 X37.423 Y86.994
G0 X45.346 Y97.614
G0 X87.606 Y99.31
;TYPE:WALL-INNER
G1 F2700 E46.139
G1 F1200 X45.256 Y97.785 E47.54848
G1 X37.211 Y87.007 E47.99581
G1 X63.306 Y42.191 E49.72067
G1 X121.252 Y58.992 E51.72734
G1 X123.913 Y62.666 E51.87822
G1 X87.606 Y99.31 E53.59393
G0 F6000 X87.767 Y99.716
G1 F1200 X45.05 Y98.178 E55.01563
G1 X36.732 Y87.034 E55.47814
G1 X63.117 Y41.72 E57.22217
