;FLAVOR:Marlin
;TIME:3748
;Filament used: 2.6693m
;Layer height: 0.25
;MINX:52.011
;MINY:52.013
;MINZ:0.2
;MAXX:167.981
;MAXY:167.987
;MAXZ:23.2
;POSTPROCESSED
;ChangeAtZ instances: 1
;Generated with Cura_SteamEngine 4.5.0
M82 ;absolute extrusion mode
M201 X500.00 Y500.00 Z100.00 E5000.00 ;Setup machine max acceleration
M203 X500.00 Y500.00 Z10.00 E50.00 ;Setup machine max feedrate
M204 P500.00 R1000.00 T500.00 ;Setup Print/Retract/Travel acceleration
M205 X8.00 Y8.00 Z0.40 E5.00 ;Setup Jerk
M220 S100 ;Reset Feedrate
M221 S100 ;Reset Flowrate
M140 S50; start preheating the bed
M104 S215 T0; start preheating hotend
G28 ;Home
G1 Z2.0 F3000 ;Move Z Axis up
M190 S50; heat to bed setting in Cura and WAIT
M109 S215 T0; heat hotend to setting in Cura and WAIT
G92 E0 ;Reset Extruder
G1 Z2.0 F3000 ;Move Z Axis up
G1 X10.1 Y20 Z0.28 F5000.0 ;Move to start position
G1 X10.1 Y200.0 Z0.28 F1500.0 E15 ;Draw the first line
G1 X10.4 Y200.0 Z0.28 F5000.0 ;Move to side a little
G1 X10.4 Y20 Z0.28 F1500.0 E30 ;Draw the second line
G92 E0 ;Reset Extruder
G1 Z2.0 F3000 ;Move Z Axis up
G92 E0
G92 E0
G1 F1500 E-6.5
;LAYER_COUNT:94
;LAYER:0
M107
M204 S500
G0 F6000 X69.127 Y68.869 Z0.2
M204 S1000
;TYPE:SKIRT
G1 F1500 E0
G1 F1200 X69.732 Y68.347 E0.02658
G1 X70.387 Y67.887 E0.0532
G1 X71.427 Y67.334 E0.09237
G1 X72.078 Y67.049 E0.11601
G1 X72.768 Y66.764 E0.14084
G1 X74.051 Y66.253 E0.18677
G1 X76.956 Y65.035 E0.29154
G1 X78.37 Y64.472 E0.34216
G1 X81.906 Y62.988 E0.46971
G1 X83.242 Y62.442 E0.51771
G1 X84.871 Y61.745 E0.57664
G1 X86.807 Y60.949 E0.64627
G1 X88.475 Y60.286 E0.70597
G1 X88.923 Y60.116 E0.7219
G1 X91.984 Y58.84 E0.8322
G1 X93.541 Y58.163 E0.88867
G1 X94.254 Y57.882 E0.91416
G1 X95.26 Y57.515 E0.94978
G1 X97.796 Y56.546 E1.04008
G1 X100.173 Y55.562 E1.12564
G1 X103.325 Y54.138 E1.24068
G1 X104.625 Y53.568 E1.28789
G1 X106.367 Y52.846 E1.35061
G1 X107.037 Y52.579 E1.3746
G1 X107.794 Y52.321 E1.4012
G1 X108.573 Y52.139 E1.42781
G1 X109.366 Y52.036 E1.4544
G1 X110.166 Y52.013 E1.48102
G1 X110.963 Y52.069 E1.5076
G1 X111.751 Y52.205 E1.53419
G1 X112.522 Y52.419 E1.56081
G1 X112.916 Y52.562 E1.57475
G1 X113.582 Y52.824 E1.59855
G1 X124.992 Y57.545 E2.00925
G1 X125.967 Y57.954 E2.04442
G1 X126.543 Y58.187 E2.06508
G1 X127.184 Y58.457 E2.08822
G1 X127.681 Y58.656 E2.10602
G1 X128.252 Y58.9 E2.12667
G1 X128.428 Y58.966 E2.13293
G1 X128.777 Y59.107 E2.14545
G1 X129.468 Y59.406 E2.17049
G1 X129.985 Y59.619 E2.18909
G1 X130.1 Y59.655 E2.19309
G1 X130.52 Y59.824 E2.20815
G1 X131.317 Y60.17 E2.23705
G1 X147.832 Y67.013 E2.83163
G1 X148.514 Y67.307 E2.85633
G1 X149.232 Y67.659 E2.88292
G1 X149.91 Y68.082 E2.9095
G1 X150.544 Y68.571 E2.93613
G1 X151.125 Y69.12 E2.96272
G1 X151.649 Y69.725 E2.98934
G1 X152.109 Y70.378 E3.01591
G1 X152.672 Y71.436 E3.05577
G1 X152.94 Y72.052 E3.07811
G1 X167.165 Y106.395 E4.31447
G1 X167.411 Y107.01 E4.3365
G1 X167.67 Y107.766 E4.36308
G1 X167.853 Y108.545 E4.3897
G1 X167.957 Y109.338 E4.4163
G1 X167.981 Y110.137 E4.44289
G1 X167.926 Y110.935 E4.46949
G1 X167.791 Y111.723 E4.49608
G1 X167.499 Y112.722 E4.5307
G1 X167.313 Y113.232 E4.54876
G1 X167.188 Y113.553 E4.56021
G1 X152.978 Y147.854 E5.79509
G1 X152.695 Y148.511 E5.81889
G1 X152.343 Y149.229 E5.84548
G1 X151.92 Y149.908 E5.87209
G1 X151.432 Y150.541 E5.89867
G1 X150.883 Y151.122 E5.92526
G1 X150.278 Y151.646 E5.95188
G1 X149.625 Y152.107 E5.97847
G1 X148.928 Y152.5 E6.00508
G1 X148.565 Y152.671 E6.01843
G1 X147.95 Y152.939 E6.04074
G1 X113.621 Y167.158 E7.27659
G1 X112.964 Y167.42 E7.30012
G1 X112.208 Y167.679 E7.3267
G1 X111.429 Y167.861 E7.35331
G1 X110.636 Y167.964 E7.3799
G1 X109.836 Y167.987 E7.40652
G1 X109.039 Y167.931 E7.43309
G1 X108.25 Y167.795 E7.45972
G1 X107.48 Y167.581 E7.4863
G1 X107.083 Y167.438 E7.50034
G1 X106.433 Y167.182 E7.52358
G1 X105.172 Y166.66 E7.56897
G1 X72.122 Y152.968 E8.75881
G1 X71.484 Y152.692 E8.78193
G1 X70.766 Y152.339 E8.80854
G1 X70.088 Y151.915 E8.83514
G1 X69.456 Y151.426 E8.86172
G1 X68.875 Y150.876 E8.88833
G1 X68.352 Y150.27 E8.91495
G1 X67.892 Y149.616 E8.94155
G1 X67.459 Y148.835 E8.97125
G1 X67.353 Y148.616 E8.97934
G1 X67.163 Y148.193 E8.99476
G1 X52.848 Y113.635 E10.23888
G1 X52.585 Y112.979 E10.26238
G1 X52.324 Y112.223 E10.28898
G1 X52.141 Y111.444 E10.3156
G1 X52.036 Y110.651 E10.3422
G1 X52.011 Y109.852 E10.36879
G1 X52.066 Y109.054 E10.3954
G1 X52.201 Y108.266 E10.42199
G1 X52.516 Y107.202 E10.4589
G1 X52.659 Y106.826 E10.47227
G1 X52.797 Y106.484 E10.48454
G1 X67.056 Y72.065 E11.72367
G1 X67.31 Y71.478 E11.74494
G1 X67.664 Y70.761 E11.77154
G1 X68.088 Y70.083 E11.79814
G1 X68.577 Y69.45 E11.82474
G1 X69.127 Y68.869 E11.85135
M204 S500
G0 F6000 X69.461 Y69.104
M204 S1000
G1 F1200 X70.056 Y68.602 E11.87724
G1 X70.701 Y68.163 E11.90319
G1 X71.588 Y67.7 E11.93647
G1 X72.231 Y67.419 E11.95981
G1 X72.916 Y67.136 E11.98446
G1 X74.148 Y66.645 E12.02857
G1 X77.104 Y65.407 E12.13516
G1 X78.509 Y64.848 E12.18546
G1 X82.057 Y63.359 E12.31343
G1 X83.344 Y62.834 E12.35966
G1 X85.023 Y62.115 E12.42041
G1 X86.955 Y61.321 E12.48989
G1 X88.616 Y60.66 E12.54935
G1 X89.075 Y60.486 E12.56567
G1 X92.189 Y59.188 E12.67788
G1 X93.689 Y58.535 E12.73229
G1 X94.391 Y58.257 E12.75741
G1 X95.473 Y57.862 E12.79572
G1 X97.943 Y56.919 E12.88365
G1 X100.337 Y55.927 E12.96984
G1 X103.486 Y54.504 E13.08478
G1 X104.778 Y53.938 E13.13169
G1 X106.516 Y53.218 E13.19426
G1 X107.186 Y52.951 E13.21825
G1 X107.923 Y52.7 E13.24415
G1 X108.683 Y52.526 E13.27008
G1 X109.457 Y52.43 E13.29602
G1 X110.236 Y52.415 E13.32193
G1 X111.013 Y52.479 E13.34786
G1 X111.779 Y52.622 E13.37378
G1 X112.77 Y52.934 E13.40834
G1 X113.428 Y53.194 E13.43187
G1 X124.838 Y57.914 E13.84256
G1 X125.865 Y58.345 E13.8796
G1 X126.388 Y58.556 E13.89836
G1 X127.032 Y58.828 E13.92161
G1 X127.524 Y59.024 E13.93922
G1 X128.094 Y59.267 E13.95983
G1 X128.287 Y59.34 E13.9667
G1 X128.618 Y59.474 E13.97857
G1 X129.284 Y59.762 E14.00271
G1 X129.858 Y59.999 E14.02336
G1 X129.98 Y60.037 E14.02761
G1 X130.361 Y60.191 E14.04128
G1 X131.183 Y60.548 E14.07109
G1 X147.674 Y67.38 E14.66479
G1 X148.356 Y67.674 E14.68949
G1 X149.055 Y68.019 E14.71541
G1 X149.715 Y68.433 E14.74133
G1 X150.329 Y68.913 E14.76725
G1 X150.89 Y69.454 E14.79317
G1 X151.394 Y70.049 E14.81911
G1 X151.834 Y70.693 E14.84505
G1 X152.306 Y71.597 E14.87897
G1 X152.57 Y72.205 E14.90101
G1 X166.793 Y106.543 E16.13719
G1 X167.039 Y107.158 E16.15922
G1 X167.291 Y107.896 E16.18516
G1 X167.467 Y108.656 E16.21111
G1 X167.563 Y109.429 E16.23702
G1 X167.58 Y110.208 E16.26293
G1 X167.516 Y110.985 E16.28886
G1 X167.374 Y111.752 E16.31481
G1 X167.123 Y112.585 E16.34374
G1 X166.937 Y113.095 E16.3618
G1 X166.818 Y113.4 E16.37269
G1 X152.611 Y147.696 E17.60738
G1 X152.328 Y148.353 E17.63117
G1 X151.983 Y149.052 E17.6571
G1 X151.569 Y149.712 E17.68301
G1 X151.089 Y150.326 E17.70893
G1 X150.549 Y150.888 E17.73485
G1 X149.954 Y151.392 E17.76079
G1 X149.31 Y151.831 E17.78671
G1 X148.404 Y152.305 E17.82072
G1 X147.796 Y152.569 E17.84276
G1 X113.473 Y166.786 E19.07841
G1 X112.816 Y167.048 E19.10194
G1 X112.078 Y167.3 E19.12787
G1 X111.319 Y167.474 E19.15377
G1 X110.545 Y167.57 E19.17971
G1 X109.766 Y167.585 E19.20563
G1 X108.989 Y167.521 E19.23156
G1 X108.223 Y167.378 E19.25748
G1 X107.229 Y167.065 E19.29214
G1 X106.586 Y166.812 E19.31512
G1 X105.325 Y166.29 E19.36051
G1 X72.28 Y152.601 E20.55016
G1 X71.642 Y152.325 E20.57328
G1 X70.944 Y151.98 E20.59918
G1 X70.284 Y151.564 E20.62513
G1 X69.671 Y151.083 E20.65105
G1 X69.11 Y150.542 E20.67697
G1 X68.607 Y149.946 E20.70291
G1 X68.168 Y149.302 E20.72883
G1 X67.819 Y148.661 E20.7531
G1 X67.713 Y148.442 E20.7612
G1 X67.533 Y148.04 E20.77585
G1 X53.219 Y113.486 E22.01982
G1 X52.956 Y112.83 E22.04333
G1 X52.703 Y112.093 E22.06925
G1 X52.528 Y111.333 E22.09519
G1 X52.431 Y110.56 E22.1211
G1 X52.413 Y109.781 E22.14701
G1 X52.476 Y109.004 E22.17294
G1 X52.618 Y108.237 E22.19889
G1 X52.891 Y107.342 E22.23001
G1 X53.03 Y106.976 E22.24303
G1 X53.167 Y106.637 E22.25519
G1 X67.423 Y72.224 E23.4941
G1 X67.677 Y71.637 E23.51537
G1 X68.023 Y70.938 E23.54131
G1 X68.438 Y70.279 E23.56721
G1 X68.919 Y69.665 E23.59316
G1 X69.461 Y69.104 E23.6191
M204 S500
G0 F6000 X69.793 Y69.342
M204 S1000
G1 F1200 X70.379 Y68.86 E23.64434
G1 X71.013 Y68.442 E23.6696
G1 X71.749 Y68.066 E23.69708
G1 X72.384 Y67.788 E23.72014
G1 X73.064 Y67.507 E23.74461
G1 X74.321 Y67.006 E23.78962
G1 X77.252 Y65.779 E23.8953
G1 X78.634 Y65.229 E23.94477
G1 X82.209 Y63.729 E24.07372
G1 X83.503 Y63.201 E24.1202
G1 X85.176 Y62.485 E24.18073
G1 X87.103 Y61.692 E24.25004
G1 X88.758 Y61.034 E24.30927
G1 X89.217 Y60.86 E24.3256
G1 X92.325 Y59.564 E24.4376
G1 X93.838 Y58.906 E24.49248
G1 X94.528 Y58.633 E24.51716
G1 X95.604 Y58.24 E24.55526
G1 X98.072 Y57.298 E24.64312
G1 X100.502 Y56.291 E24.73061
G1 X103.647 Y54.87 E24.84539
G1 X104.931 Y54.307 E24.89202
G1 X106.664 Y53.59 E24.9544
G1 X107.334 Y53.323 E24.97839
G1 X108.052 Y53.079 E25.00361
G1 X108.792 Y52.913 E25.02883
G1 X109.546 Y52.825 E25.05408
G1 X110.305 Y52.817 E25.07933
G1 X111.06 Y52.89 E25.10456
G1 X111.803 Y53.041 E25.12977
G1 X112.624 Y53.307 E25.15848
G1 X113.275 Y53.563 E25.18175
G1 X124.683 Y58.283 E25.59237
G1 X125.688 Y58.705 E25.62862
G1 X126.232 Y58.924 E25.64813
G1 X126.898 Y59.205 E25.67217
G1 X127.367 Y59.392 E25.68896
G1 X127.957 Y59.644 E25.7103
G1 X128.146 Y59.715 E25.71702
G1 X128.46 Y59.842 E25.72828
G1 X129.123 Y60.128 E25.7523
G1 X129.967 Y60.477 E25.78268
G1 X130.201 Y60.558 E25.79091
G1 X130.999 Y60.905 E25.81985
G1 X147.515 Y67.747 E26.41445
G1 X148.197 Y68.041 E26.43915
G1 X148.877 Y68.378 E26.46439
G1 X149.518 Y68.784 E26.48963
G1 X150.112 Y69.256 E26.51486
G1 X150.654 Y69.787 E26.5401
G1 X151.136 Y70.372 E26.56531
G1 X151.555 Y71.005 E26.59056
G1 X151.939 Y71.758 E26.61867
G1 X152.201 Y72.358 E26.64045
G1 X166.422 Y106.692 E27.87648
G1 X166.668 Y107.307 E27.89851
G1 X166.912 Y108.025 E27.92374
G1 X167.08 Y108.765 E27.94897
G1 X167.168 Y109.519 E27.97422
G1 X167.177 Y110.277 E27.99944
G1 X167.106 Y111.033 E28.02469
G1 X166.956 Y111.776 E28.0499
G1 X166.747 Y112.448 E28.07331
G1 X166.561 Y112.958 E28.09136
G1 X166.449 Y113.246 E28.10164
G1 X152.244 Y147.537 E29.33615
G1 X151.961 Y148.194 E29.35994
G1 X151.624 Y148.874 E29.38519
G1 X151.218 Y149.515 E29.41042
G1 X150.747 Y150.11 E29.43566
G1 X150.216 Y150.651 E29.46087
G1 X149.63 Y151.134 E29.48613
G1 X148.997 Y151.553 E29.51138
G1 X148.243 Y151.938 E29.53954
G1 X147.643 Y152.2 E29.56131
G1 X113.325 Y166.415 E30.79678
G1 X112.668 Y166.677 E30.82031
G1 X111.949 Y166.92 E30.84555
G1 X111.209 Y167.087 E30.87078
G1 X110.456 Y167.175 E30.896
G1 X109.697 Y167.183 E30.92124
G1 X108.942 Y167.111 E30.94647
G1 X108.198 Y166.96 E30.97172
G1 X107.375 Y166.693 E31.00049
G1 X106.739 Y166.443 E31.02322
G1 X105.478 Y165.921 E31.06862
G1 X72.439 Y152.234 E32.25806
G1 X71.801 Y151.958 E32.28118
G1 X71.122 Y151.621 E32.30639
G1 X70.482 Y151.214 E32.33162
G1 X69.888 Y150.741 E32.35687
G1 X69.347 Y150.209 E32.38211
G1 X68.865 Y149.623 E32.40735
G1 X68.448 Y148.99 E32.43256
G1 X68.179 Y148.487 E32.45153
G1 X68.073 Y148.268 E32.45962
G1 X67.902 Y147.887 E32.47351
G1 X53.59 Y113.337 E33.71734
G1 X53.327 Y112.681 E33.74085
G1 X53.082 Y111.963 E33.76608
G1 X52.914 Y111.223 E33.79132
G1 X52.825 Y110.47 E33.81654
G1 X52.816 Y109.711 E33.84178
G1 X52.886 Y108.956 E33.867
G1 X53.036 Y108.212 E33.89225
G1 X53.266 Y107.482 E33.9177
G1 X53.401 Y107.125 E33.9304
G1 X53.536 Y106.791 E33.94238
G1 X67.79 Y72.383 E35.18111
G1 X68.044 Y71.796 E35.20238
G1 X68.382 Y71.116 E35.22764
G1 X68.789 Y70.476 E35.25286
G1 X69.261 Y69.882 E35.2781
G1 X69.793 Y69.342 E35.30331
M204 S500
G1 F1500 E28.80331
;MESH:3D_test_V3_0.4mm.stl
G0 F6000 X118.863 Y75.39
G0 X120.577 Y71.254
M204 S1000
;TYPE:WALL-INNER
G1 F1500 E35.30331
G1 F1200 X120.81 Y71.282 E35.31112
G1 X121.017 Y71.278 E35.318
G1 X121.161 Y71.295 E35.32283
G1 X121.181 Y71.298 E35.3235
G1 X121.315 Y71.334 E35.32811
G1 X121.356 Y71.353 E35.32962
G1 X121.459 Y71.401 E35.3334
G1 X121.499 Y71.433 E35.3351
G1 X121.523 Y71.476 E35.33674
G1 X121.513 Y71.517 E35.33814
G1 X121.504 Y71.532 E35.33872
G1 X121.488 Y71.547 E35.33902
G1 X121.454 Y71.554
G1 X121.407 Y71.557 E35.33917
G1 X121.284 Y71.538 E35.34117
G1 X121.271 Y71.536
G1 X121.247 Y71.528
G1 X121.138 Y71.489 E35.3429
G1 X121.107 Y71.477
G1 X120.96 Y71.415 E35.3453
G1 X120.786 Y71.342 E35.34684
G1 X120.577 Y71.254 E35.34738
M204 S500
G0 F6000 X120.33 Y71.225
M204 S1000
G1 F1200 X120.309 Y71.275 E35.34918
G1 X119.955 Y72.121 E35.37969
G1 X119.999 Y71.209 E35.39195
G1 X120 Y71.195 E35.39221
G1 X120.07 Y69.768 E35.43973
G1 X120.093 Y69.309 E35.45501
G1 X120.351 Y69.418 E35.46433
G1 X120.561 Y69.507 E35.47192
G1 X120.778 Y69.599 E35.47975
G1 X120.881 Y69.643 E35.48348
G1 X120.961 Y69.678 E35.48638
G1 X120.866 Y69.68 E35.48673
G1 X120.739 Y69.693 E35.48778
G1 X120.593 Y69.715 E35.48893
G1 X120.201 Y69.774 E35.49957
G1 X120.13 Y71.201 E35.51509
G1 X120.33 Y71.225 E35.51899
M204 S500
G0 F6000 X118.304 Y71.803
M204 S1000
G1 F1200 X118.182 Y73.706 E35.58241
G1 X119.804 Y74.378 E35.64081
G1 X119.844 Y74.395 E35.64225
G1 X119.846 Y74.341 E35.64281
G1 X119.85 Y74.268 E35.64399
G1 X119.904 Y74.304 E35.64431
G1 X119.967 Y74.346 E35.64517
G1 X120.297 Y74.5 E35.65728
G1 X120.618 Y74.592 E35.66839
G1 X120.909 Y74.623 E35.67812
G1 X121.018 Y74.623 E35.68175
G1 X121.163 Y74.61 E35.68659
G1 X121.26 Y74.593 E35.68986
G1 X121.308 Y74.584 E35.69149
G1 X121.453 Y74.542 E35.69651
G1 X121.587 Y74.487 E35.70133
G1 X121.719 Y74.417 E35.7063
G1 X121.836 Y74.335 E35.71105
G1 X121.942 Y74.247 E35.71563
G1 X122.035 Y74.15 E35.7201
G1 X122.12 Y74.046 E35.72457
G1 X122.196 Y73.929 E35.72921
G1 X122.261 Y73.804 E35.73389
G1 X122.341 Y73.596 E35.7413
G1 X122.386 Y73.378 E35.74871
G1 X122.397 Y73.166 E35.75577
G1 X122.386 Y73.026 E35.76044
G1 X122.368 Y72.938 E35.76343
G1 X122.424 Y72.911 E35.76549
G1 X122.536 Y72.844 E35.76984
G1 X122.643 Y72.765 E35.77426
G1 X122.745 Y72.676 E35.77876
G1 X122.835 Y72.581 E35.78311
G1 X122.921 Y72.474 E35.78768
G1 X122.999 Y72.352 E35.7925
G1 X123.067 Y72.221 E35.79741
G1 X123.148 Y72.012 E35.80486
G1 X123.205 Y71.77 E35.81313
G1 X123.221 Y71.459 E35.82349
G1 X123.198 Y71.285 E35.82933
G1 X123.187 Y71.207 E35.83195
G1 X123.117 Y70.964 E35.84036
G1 X123.011 Y70.744 E35.84848
G1 X122.911 Y70.586 E35.8547
G1 X122.841 Y70.503 E35.85831
G1 X122.804 Y70.459 E35.86022
G1 X122.862 Y70.484
G1 X122.94 Y70.517 E35.86029
G1 X123.081 Y70.577 E35.86271
G1 X123.25 Y70.649 E35.86744
G1 X125.163 Y71.464 E35.9366
G1 X125.164 Y71.461 E35.93671
G1 X125.992 Y71.812 E35.96662
G1 X127.63 Y67.953 E36.10605
G1 X144.896 Y75.104 E36.72763
G1 X152.306 Y92.994 E37.37167
G1 X152.307 Y92.995 E37.37172
G1 X152.508 Y93.483 E37.38927
G1 X152.034 Y93.25 E37.39863
G1 X152.033 Y93.249 E37.39868
G1 X150.843 Y92.66 E37.44284
G1 X150.529 Y90.502 E37.51537
G1 X149.82 Y90.271 E37.54017
G1 X148.297 Y91.834 E37.61276
G1 X146.27 Y91.486 E37.68116
G1 X146.144 Y91.465 E37.68541
G1 X145.706 Y92.068 E37.7102
G1 X145.708 Y92.073 E37.71038
G1 X146.722 Y94 E37.7828
G1 X145.706 Y95.932 E37.85541
G1 X146.144 Y96.535 E37.88019
G1 X148.297 Y96.166 E37.95285
G1 X149.766 Y97.674 E38.02287
G1 X146.983 Y101.505 E38.18036
G1 X148.912 Y105.838 E38.33811
G1 X153.629 Y106.333 E38.49586
G1 X156.096 Y102.937 E38.63547
G1 X156.305 Y102.649 E38.64731
G1 X156.441 Y102.977 E38.65396
G1 X159.35 Y110 E38.90679
G1 X144.896 Y144.895 E40.16303
G1 X143.357 Y145.532 E40.21843
G1 X110 Y159.35 E41.41931
G1 X75.103 Y144.894 E42.67563
G1 X60.649 Y110.001 E43.93181
G1 X75.104 Y75.104 E45.18812
G1 X76.278 Y74.619 E45.23037
G1 X76.806 Y75.096 E45.25404
G1 X77.69 Y75.742 E45.29045
G1 X78.208 Y76.03 E45.31017
G1 X78.8 Y76.201 E45.33066
G1 X79.41 Y75.985 E45.35218
G1 X79.731 Y75.496 E45.37164
G1 X79.914 Y74.759 E45.3969
G1 X80.036 Y73.768 E45.43011
G1 X80.117 Y73.344 E45.44446
G1 X80.118 Y73.343 E45.44451
G1 X80.181 Y73.009 E45.45582
G1 X80.441 Y73.229 E45.46225
G1 X80.862 Y73.584 E45.48057
G1 X81.826 Y74.59 E45.52691
G1 X82.883 Y75.668 E45.57713
G1 X83.859 Y76.384 E45.61739
G1 X84.641 Y76.446 E45.64348
G1 X85.109 Y75.851 E45.66866
