;FLAVOR:Marlin
;TIME:6326
;Filament used: 4.49256m
;Layer height: 0.2
;MINX:73.127
;MINY:90.912
;MINZ:0.2
;MAXX:139.799
;MAXY:129.086
;MAXZ:48
;Generated with Cura_SteamEngine 4.5.0
M140 S50
M105
M190 S50
M104 S205
M105
M109 S205
M82 ;absolute extrusion mode
M201 X500.00 Y500.00 Z100.00 E5000.00 ;Setup machine max acceleration
M203 X500.00 Y500.00 Z10.00 E50.00 ;Setup machine max feedrate
M204 P500.00 R1000.00 T500.00 ;Setup Print/Retract/Travel acceleration
M205 X8.00 Y8.00 Z0.40 E5.00 ;Setup Jerk
M220 S100 ;Reset Feedrate
M221 S100 ;Reset Flowrate

G28 ;Home

G92 E0 ;Reset Extruder
G1 Z2.0 F3000 ;Move Z Axis up
G1 X10.1 Y20 Z0.28 F5000.0 ;Move to start position
G1 X10.1 Y200.0 Z0.28 F1500.0 E15 ;Draw the first line
G1 X10.4 Y200.0 Z0.28 F5000.0 ;Move to side a little
G1 X10.4 Y20 Z0.28 F1500.0 E30 ;Draw the second line
G92 E0 ;Reset Extruder
G1 Z2.0 F3000 ;Move Z Axis up

G92 E0
G92 E0
G1 F2100 E-6.25
;LAYER_COUNT:240
;LAYER:0
M107
M204 S500
M205 X20 Y20
G0 F7500 X77.752 Y95.271 Z0.2
;TYPE:SKIRT
G1 F2100 E0
G1 F1500 X78.847 Y94.46 E0.04532
G1 X79.015 Y94.351 E0.05198
G1 X80.232 Y93.667 E0.09841
G1 X80.419 Y93.577 E0.10532
G1 X81.28 Y93.207 E0.13649
G1 X82.327 Y92.868 E0.17309
G1 X82.75 Y92.754 E0.18766
G1 X83.665 Y92.549 E0.21885
G1 X84.642 Y92.418 E0.25163
G1 X85.488 Y92.348 E0.27987
G1 X108.849 Y90.956 E1.05824
G1 X109.567 Y90.923 E1.08214
G1 X110.215 Y90.912 E1.1037
G1 X110.599 Y90.917 E1.11647
G1 X111.573 Y90.955 E1.14889
G1 X111.928 Y90.978 E1.16072
G1 X112.261 Y91.005 E1.17184
G1 X112.733 Y91.05 E1.1876
G1 X113.263 Y91.113 E1.20536
G1 X114.15 Y91.246 E1.23519
G1 X115.009 Y91.395 E1.26419
G1 X115.561 Y91.503 E1.28289
G1 X116.058 Y91.616 E1.29985
G1 X116.857 Y91.821 E1.32728
G1 X117.203 Y91.917 E1.33922
G1 X117.84 Y92.115 E1.36141
G1 X118.962 Y92.501 E1.40087
G1 X119.685 Y92.779 E1.42664
G1 X120.702 Y93.211 E1.46339
G1 X121.404 Y93.538 E1.48915
G1 X122.203 Y93.946 E1.51899
G1 X122.757 Y94.25 E1.54
G1 X123.548 Y94.713 E1.57049
G1 X124.135 Y95.082 E1.59355
G1 X124.873 Y95.579 E1.62314
G1 X125.227 Y95.827 E1.63752
G1 X125.548 Y96.062 E1.65075
G1 X126.064 Y96.458 E1.67238
G1 X126.397 Y96.726 E1.6866
G1 X126.872 Y97.125 E1.70723
G1 X127.156 Y97.372 E1.71975
G1 X127.626 Y97.795 E1.74078
G1 X128.136 Y98.284 E1.76428
G1 X128.855 Y99.02 E1.7985
G1 X129.305 Y99.51 E1.82063
G1 X129.991 Y100.303 E1.85551
G1 X130.456 Y100.879 E1.88013
G1 X130.909 Y101.48 E1.90516
G1 X131.124 Y101.775 E1.9173
G1 X131.382 Y102.142 E1.93222
G1 X131.587 Y102.445 E1.94439
G1 X131.907 Y102.934 E1.96383
G1 X132.244 Y103.478 E1.98511
G1 X132.449 Y103.832 E1.99872
G1 X132.587 Y104.081 E2.00819
G1 X133.115 Y105.171 E2.04847
G1 X133.194 Y105.36 E2.05528
G1 X133.519 Y106.24 E2.08648
G1 X133.751 Y107.077 E2.11537
G1 X133.801 Y107.289 E2.12262
G1 X133.977 Y108.21 E2.1538
G1 X134.075 Y109.143 E2.185
G1 X134.095 Y109.814 E2.20733
G1 X134.095 Y110.103 E2.21694
G1 X134.055 Y111.04 E2.24814
G1 X133.893 Y112.2 E2.28709
G1 X133.826 Y112.545 E2.29878
G1 X133.608 Y113.457 E2.32997
G1 X133.314 Y114.348 E2.36118
G1 X132.944 Y115.21 E2.39238
G1 X132.661 Y115.758 E2.41289
G1 X132.333 Y116.353 E2.43549
G1 X132.007 Y116.907 E2.45687
G1 X131.806 Y117.226 E2.46941
G1 X131.54 Y117.628 E2.48544
G1 X131.208 Y118.107 E2.50483
G1 X131.005 Y118.39 E2.51641
G1 X130.573 Y118.973 E2.54054
G1 X130.183 Y119.469 E2.56153
G1 X129.556 Y120.213 E2.59389
G1 X129.107 Y120.719 E2.61639
G1 X128.765 Y121.086 E2.63307
G1 X128.378 Y121.484 E2.65154
G1 X128.041 Y121.816 E2.66727
G1 X127.775 Y122.067 E2.67944
G1 X127.453 Y122.359 E2.69389
G1 X126.419 Y123.254 E2.73938
G1 X126.136 Y123.485 E2.75153
G1 X125.611 Y123.893 E2.77364
G1 X125.248 Y124.159 E2.78861
G1 X124.505 Y124.675 E2.8187
G1 X123.961 Y125.032 E2.84034
G1 X123.379 Y125.388 E2.86303
G1 X122.468 Y125.908 E2.89792
G1 X122.13 Y126.093 E2.91074
G1 X121.715 Y126.311 E2.92633
G1 X121.173 Y126.577 E2.94641
G1 X120.364 Y126.943 E2.97594
G1 X119.78 Y127.191 E2.99705
G1 X119.208 Y127.415 E3.01748
G1 X118.625 Y127.625 E3.03809
G1 X118.097 Y127.802 E3.05661
G1 X117.755 Y127.907 E3.06851
G1 X116.684 Y128.217 E3.10559
G1 X116.058 Y128.379 E3.1271
G1 X115.37 Y128.535 E3.15056
G1 X114.98 Y128.616 E3.16381
G1 X114.324 Y128.735 E3.18599
G1 X113.336 Y128.876 E3.21918
G1 X112.627 Y128.957 E3.24291
G1 X111.939 Y129.014 E3.26588
G1 X110.98 Y129.063 E3.29781
G1 X110.624 Y129.075 E3.30966
G1 X110.033 Y129.086 E3.32932
G1 X109.607 Y129.086 E3.34349
G1 X109.16 Y129.077 E3.35836
G1 X108.818 Y129.065 E3.36974
G1 X107.912 Y129.018 E3.39992
G1 X85.55 Y127.653 E4.14506
G1 X84.828 Y127.598 E4.16915
G1 X83.822 Y127.475 E4.20286
G1 X83.61 Y127.439 E4.21001
G1 X82.693 Y127.242 E4.2412
G1 X82.152 Y127.087 E4.25992
G1 X81.904 Y127.009 E4.26857
G1 X81.022 Y126.69 E4.29976
G1 X80.254 Y126.34 E4.32783
G1 X79.994 Y126.209 E4.33752
G1 X79.176 Y125.751 E4.3687
G1 X78.546 Y125.333 E4.39385
G1 X78.353 Y125.195 E4.40174
G1 X77.614 Y124.617 E4.43294
G1 X77.14 Y124.189 E4.45418
G1 X76.972 Y124.028 E4.46192
G1 X76.323 Y123.351 E4.49311
G1 X75.89 Y122.826 E4.51575
G1 X75.745 Y122.639 E4.52362
G1 X75.203 Y121.874 E4.5548
G1 X74.731 Y121.074 E4.5857
G1 X74.578 Y120.787 E4.59651
G1 X74.173 Y119.941 E4.62771
G1 X73.725 Y118.693 E4.67181
G1 X73.608 Y118.292 E4.6857
G1 X73.384 Y117.381 E4.71691
G1 X73.239 Y116.455 E4.74808
G1 X73.192 Y115.939 E4.76531
G1 X73.156 Y115.396 E4.78341
G1 X73.132 Y114.768 E4.80432
G1 X73.127 Y114.111 E4.82617
G1 X73.134 Y105.515 E5.11207
G1 X73.142 Y105.012 E5.12881
G1 X73.174 Y104.331 E5.15148
G1 X73.205 Y103.934 E5.16473
G1 X73.318 Y103.003 E5.19592
G1 X73.535 Y101.988 E5.23044
G1 X73.628 Y101.635 E5.24258
G1 X73.905 Y100.739 E5.27377
G1 X74.324 Y99.728 E5.31017
G1 X74.423 Y99.519 E5.31787
G1 X74.86 Y98.689 E5.34906
G1 X75.211 Y98.126 E5.37113
G1 X75.369 Y97.889 E5.3806
G1 X75.922 Y97.132 E5.41178
G1 X76.333 Y96.646 E5.43295
G1 X76.481 Y96.481 E5.44033
G1 X77.137 Y95.81 E5.47154
G1 X77.15 Y95.798 E5.47213
G0 F1350 X77.588 Y95.409
G0 X77.752 Y95.271
G0 F7500 X78.009 Y95.577
G1 F1500 X79.065 Y94.796 E5.51581
G1 X79.233 Y94.687 E5.52247
G1 X80.405 Y94.028 E5.56719
G1 X80.592 Y93.938 E5.57409
G1 X81.438 Y93.575 E5.60471
G1 X82.431 Y93.254 E5.63942
G1 X82.854 Y93.14 E5.65399
G1 X83.752 Y92.939 E5.6846
G1 X84.677 Y92.816 E5.71564
G1 X85.512 Y92.747 E5.7435
G1 X108.867 Y91.355 E6.52167
G1 X109.585 Y91.322 E6.54558
G1 X110.21 Y91.312 E6.56637
G1 X110.594 Y91.317 E6.57914
G1 X111.279 Y91.34 E6.60194
G1 X111.902 Y91.377 E6.6227
G1 X112.223 Y91.403 E6.63341
G1 X112.695 Y91.448 E6.64918
G1 X113.206 Y91.509 E6.66629
G1 X114.082 Y91.64 E6.69575
G1 X114.941 Y91.789 E6.72475
G1 X115.481 Y91.895 E6.74305
G1 X115.96 Y92.004 E6.75939
G1 X116.75 Y92.207 E6.78652
G1 X117.096 Y92.303 E6.79847
G1 X117.71 Y92.494 E6.81985
G1 X118.832 Y92.88 E6.85932
G1 X119.528 Y93.147 E6.88411
G1 X120.545 Y93.579 E6.92086
G1 X121.222 Y93.895 E6.94571
G1 X122.021 Y94.303 E6.97555
G1 X122.555 Y94.595 E6.99579
G1 X123.346 Y95.058 E7.02628
G1 X123.912 Y95.414 E7.04852
G1 X124.65 Y95.911 E7.07811
G1 X124.991 Y96.15 E7.09196
G1 X125.547 Y96.563 E7.115
G1 X125.819 Y96.774 E7.12645
G1 X126.14 Y97.033 E7.14016
G1 X126.615 Y97.432 E7.1608
G1 X126.888 Y97.669 E7.17282
G1 X127.358 Y98.092 E7.19385
G1 X127.849 Y98.564 E7.2165
G1 X128.568 Y99.3 E7.25073
G1 X129.003 Y99.772 E7.27208
G1 X129.689 Y100.565 E7.30695
G1 X130.137 Y101.12 E7.33067
G1 X130.59 Y101.721 E7.3557
G1 X130.797 Y102.005 E7.36739
G1 X131.055 Y102.372 E7.38231
G1 X131.253 Y102.664 E7.39405
G1 X131.573 Y103.153 E7.41349
G1 X131.902 Y103.685 E7.43429
G1 X132.099 Y104.026 E7.44739
G1 X132.237 Y104.275 E7.45686
G1 X132.746 Y105.325 E7.49567
G1 X132.825 Y105.514 E7.50248
G1 X133.143 Y106.378 E7.5331
G1 X133.362 Y107.169 E7.5604
G1 X133.412 Y107.381 E7.56764
G1 X133.584 Y108.285 E7.59825
G1 X133.677 Y109.201 E7.62887
G1 X133.695 Y109.814 E7.64927
G1 X133.695 Y110.103 E7.65888
G1 X133.655 Y111.023 E7.68951
G1 X133.501 Y112.124 E7.72649
G1 X133.434 Y112.469 E7.73818
G1 X133.219 Y113.364 E7.76879
G1 X132.928 Y114.237 E7.7994
G1 X132.561 Y115.082 E7.83004
G1 X132.311 Y115.565 E7.84813
G1 X131.983 Y116.16 E7.87073
G1 X131.668 Y116.694 E7.89135
G1 X131.467 Y117.013 E7.90389
G1 X131.211 Y117.4 E7.91932
G1 X130.684 Y118.152 E7.94986
G1 X130.252 Y118.735 E7.974
G1 X129.875 Y119.213 E7.99424
G1 X129.257 Y119.947 E8.02616
G1 X128.808 Y120.453 E8.04866
G1 X128.479 Y120.808 E8.06476
G1 X128.092 Y121.206 E8.08322
G1 X127.767 Y121.526 E8.09839
G1 X127.501 Y121.777 E8.11055
G1 X127.191 Y122.058 E8.12447
G1 X126.428 Y122.723 E8.15813
G1 X126.166 Y122.944 E8.16953
G1 X125.883 Y123.175 E8.18168
G1 X125.368 Y123.575 E8.20337
G1 X125.018 Y123.832 E8.21782
G1 X124.564 Y124.151 E8.23627
G1 X124.286 Y124.34 E8.24745
G1 X123.742 Y124.697 E8.26909
G1 X123.181 Y125.041 E8.29098
G1 X122.27 Y125.561 E8.32587
G1 X121.944 Y125.739 E8.33822
G1 X121.529 Y125.957 E8.35381
G1 X121.007 Y126.214 E8.37317
G1 X120.207 Y126.575 E8.40236
G1 X119.623 Y126.823 E8.42346
G1 X119.072 Y127.039 E8.44315
G1 X118.489 Y127.249 E8.46376
G1 X117.973 Y127.422 E8.48186
G1 X117.644 Y127.523 E8.4933
G1 X116.573 Y127.833 E8.53039
G1 X115.97 Y127.989 E8.5511
G1 X115.282 Y128.145 E8.57457
G1 X114.906 Y128.223 E8.58734
G1 X114.261 Y128.34 E8.60914
G1 X113.505 Y128.452 E8.63456
G1 X112.581 Y128.559 E8.6655
G1 X111.919 Y128.614 E8.68759
G1 X110.96 Y128.663 E8.71953
G1 X110.616 Y128.675 E8.73098
G1 X110.025 Y128.686 E8.75064
G1 X109.615 Y128.686 E8.76428
G1 X109.168 Y128.677 E8.77915
G1 X108.838 Y128.665 E8.79013
G1 X107.936 Y128.618 E8.82017
G1 X85.581 Y127.254 E9.56508
G1 X84.859 Y127.199 E9.58917
G1 X83.889 Y127.08 E9.62167
G1 X83.677 Y127.044 E9.62882
G1 X82.777 Y126.851 E9.65944
G1 X82.272 Y126.706 E9.67691
G1 X82.024 Y126.628 E9.68556
G1 X81.158 Y126.314 E9.7162
G1 X80.434 Y125.982 E9.74269
G1 X80.174 Y125.851 E9.75237
G1 X79.371 Y125.402 E9.78297
G1 X78.779 Y125.008 E9.80662
G1 X78.586 Y124.87 E9.81452
G1 X77.861 Y124.302 E9.84515
G1 X77.417 Y123.9 E9.86507
G1 X77.249 Y123.739 E9.87281
G1 X76.612 Y123.074 E9.90344
G1 X76.206 Y122.581 E9.92468
G1 X76.061 Y122.394 E9.93255
G1 X75.529 Y121.643 E9.96316
G1 X75.084 Y120.886 E9.99237
G1 X74.931 Y120.599 E10.00318
G1 X74.534 Y119.768 E10.03381
G1 X74.109 Y118.581 E10.07575
G1 X73.992 Y118.18 E10.08964
G1 X73.773 Y117.286 E10.12026
G1 X73.632 Y116.376 E10.15088
G1 X73.591 Y115.912 E10.16638
G1 X73.555 Y115.369 E10.18448
G1 X73.532 Y114.765 E10.20458
G1 X73.527 Y114.111 E10.22633
G1 X73.534 Y105.521 E10.51204
G1 X73.542 Y105.018 E10.52877
G1 X73.573 Y104.362 E10.55061
G1 X73.604 Y103.965 E10.56386
G1 X73.716 Y103.051 E10.59448
G1 X73.922 Y102.09 E10.62717
G1 X74.015 Y101.737 E10.63931
G1 X74.288 Y100.857 E10.66996
G1 X74.685 Y99.899 E10.70445
G1 X74.784 Y99.69 E10.71214
G1 X75.214 Y98.876 E10.74276
G1 X75.544 Y98.348 E10.76347
G1 X75.702 Y98.111 E10.77294
G1 X76.246 Y97.368 E10.80357
G1 X76.631 Y96.913 E10.8234
G1 X76.779 Y96.748 E10.83077
G1 X77.408 Y96.105 E10.86069
G0 F1350 X77.423 Y96.09
G0 X77.845 Y95.715
G0 X78.009 Y95.577
G0 F7500 X78.267 Y95.883
G1 F1500 X79.282 Y95.131 E10.9027
G1 X79.45 Y95.022 E10.90936
G1 X80.579 Y94.388 E10.95243
G1 X80.766 Y94.298 E10.95933
G1 X81.596 Y93.943 E10.98936
G1 X82.535 Y93.64 E11.02217
G1 X82.958 Y93.526 E11.03674
G1 X83.839 Y93.33 E11.06676
G1 X84.713 Y93.215 E11.09608
G1 X85.536 Y93.146 E11.12355
G1 X108.886 Y91.755 E11.90155
G1 X109.604 Y91.722 E11.92546
G1 X110.205 Y91.712 E11.94545
G1 X110.589 Y91.717 E11.95822
G1 X111.521 Y91.753 E11.98924
G1 X112.185 Y91.801 E12.01139
G1 X112.657 Y91.846 E12.02716
G1 X113.149 Y91.905 E12.04364
G1 X114.013 Y92.034 E12.07269
G1 X114.872 Y92.183 E12.10169
G1 X115.401 Y92.287 E12.11962
G1 X115.862 Y92.392 E12.13535
G1 X116.643 Y92.592 E12.16216
G1 X116.989 Y92.688 E12.1741
G1 X117.58 Y92.872 E12.19469
G1 X118.702 Y93.258 E12.23416
G1 X119.372 Y93.515 E12.25802
G1 X120.389 Y93.947 E12.29477
G1 X121.04 Y94.251 E12.31867
G1 X121.839 Y94.659 E12.34851
G1 X122.353 Y94.94 E12.36799
G1 X123.144 Y95.403 E12.39848
G1 X123.689 Y95.746 E12.4199
G1 X124.427 Y96.243 E12.44949
G1 X124.754 Y96.473 E12.46279
G1 X125.302 Y96.879 E12.48547
G1 X125.574 Y97.09 E12.49692
G1 X125.883 Y97.339 E12.51012
G1 X126.358 Y97.738 E12.53075
G1 X126.62 Y97.966 E12.5423
G1 X127.09 Y98.389 E12.56333
G1 X127.563 Y98.843 E12.58514
G1 X128.282 Y99.579 E12.61936
G1 X128.7 Y100.034 E12.63991
G1 X129.386 Y100.827 E12.67479
G1 X129.817 Y101.361 E12.69761
G1 X130.27 Y101.962 E12.72264
G1 X130.469 Y102.235 E12.73388
G1 X130.727 Y102.602 E12.7488
G1 X130.918 Y102.883 E12.7601
G1 X131.238 Y103.372 E12.77954
G1 X131.56 Y103.891 E12.79985
G1 X131.887 Y104.469 E12.82194
G1 X132.377 Y105.479 E12.85928
G1 X132.456 Y105.668 E12.86609
G1 X132.767 Y106.516 E12.89613
G1 X132.973 Y107.261 E12.92184
G1 X133.023 Y107.473 E12.92909
G1 X133.191 Y108.36 E12.95911
G1 X133.28 Y109.259 E12.98916
G1 X133.295 Y109.814 E13.00763
G1 X133.295 Y110.103 E13.01724
G1 X133.255 Y111.005 E13.04727
G1 X133.108 Y112.048 E13.0823
G1 X133.041 Y112.393 E13.09399
G1 X132.83 Y113.271 E13.12402
G1 X132.542 Y114.127 E13.15406
G1 X132.179 Y114.954 E13.1841
G1 X131.961 Y115.372 E13.19978
G1 X131.633 Y115.967 E13.22238
G1 X131.33 Y116.481 E13.24222
G1 X131.129 Y116.8 E13.25476
G1 X130.882 Y117.172 E13.26962
G1 X130.362 Y117.914 E13.29975
G1 X129.93 Y118.497 E13.32389
G1 X129.568 Y118.957 E13.34336
G1 X128.957 Y119.682 E13.37489
G1 X128.508 Y120.188 E13.39739
G1 X128.192 Y120.529 E13.41285
G1 X127.805 Y120.927 E13.43132
G1 X127.492 Y121.235 E13.44592
G1 X127.226 Y121.486 E13.45809
G1 X126.928 Y121.756 E13.47146
G1 X126.165 Y122.421 E13.50512
G1 X125.913 Y122.634 E13.5161
G1 X125.381 Y123.062 E13.53881
G1 X125.125 Y123.258 E13.54953
G1 X124.788 Y123.505 E13.56343
G1 X124.334 Y123.824 E13.58188
G1 X124.066 Y124.006 E13.59266
G1 X123.522 Y124.363 E13.6143
G1 X122.982 Y124.693 E13.63535
G1 X122.071 Y125.213 E13.67024
G1 X121.758 Y125.385 E13.68212
G1 X121.343 Y125.603 E13.69771
G1 X120.84 Y125.85 E13.71635
G1 X120.051 Y126.207 E13.74515
G1 X119.467 Y126.455 E13.76625
G1 X118.937 Y126.662 E13.78518
G1 X118.05 Y126.977 E13.81648
G1 X117.85 Y127.042 E13.82348
G1 X117.533 Y127.139 E13.83451
G1 X116.462 Y127.449 E13.87159
G1 X115.882 Y127.598 E13.89151
G1 X115.194 Y127.754 E13.91497
G1 X114.832 Y127.83 E13.92727
G1 X114.198 Y127.945 E13.9487
G1 X113.245 Y128.081 E13.98072
G1 X112.536 Y128.162 E14.00446
G1 X111.898 Y128.215 E14.02575
G1 X110.939 Y128.264 E14.05769
G1 X110.609 Y128.275 E14.06867
G1 X110.018 Y128.286 E14.08833
G1 X109.623 Y128.286 E14.10147
G1 X108.859 Y128.266 E14.12689
G1 X107.96 Y128.219 E14.15683
G1 X85.611 Y126.856 E14.90154
G1 X84.889 Y126.801 E14.92562
G1 X83.956 Y126.686 E14.95689
G1 X83.744 Y126.65 E14.96404
G1 X82.862 Y126.46 E14.99405
G1 X82.392 Y126.324 E15.01032
G1 X82.144 Y126.246 E15.01897
G1 X81.295 Y125.937 E15.04902
G1 X80.614 Y125.625 E15.07394
G1 X80.354 Y125.494 E15.08362
G1 X79.567 Y125.052 E15.11364
G1 X79.011 Y124.682 E15.13585
G1 X78.818 Y124.544 E15.14374
G1 X78.108 Y123.987 E15.17376
G1 X77.694 Y123.611 E15.19236
G1 X77.526 Y123.45 E15.2001
G1 X76.902 Y122.797 E15.23014
G1 X76.522 Y122.336 E15.25001
G1 X76.377 Y122.149 E15.25788
G1 X75.856 Y121.412 E15.2879
G1 X75.437 Y120.697 E15.31546
G1 X75.284 Y120.41 E15.32628
G1 X74.895 Y119.595 E15.35632
G1 X74.493 Y118.469 E15.39608
G1 X74.376 Y118.068 E15.40998
G1 X74.162 Y117.191 E15.44
G1 X73.99 Y115.886 E15.48378
G1 X73.954 Y115.343 E15.50188
G1 X73.932 Y114.761 E15.52125
G1 X73.927 Y114.112 E15.54284
G1 X73.934 Y105.528 E15.82834
G1 X73.942 Y105.025 E15.84508
G1 X73.972 Y104.393 E15.86612
G1 X74.003 Y103.996 E15.87937
G1 X74.113 Y103.1 E15.90939
G1 X74.309 Y102.191 E15.94032
G1 X74.402 Y101.838 E15.95246
G1 X74.67 Y100.976 E15.98248
G1 X75.047 Y100.071 E16.01509
G1 X75.146 Y99.862 E16.02278
G1 X75.568 Y99.063 E16.05284
G1 X75.877 Y98.57 E16.07219
G1 X76.035 Y98.333 E16.08166
G1 X76.569 Y97.605 E16.11169
G1 X76.929 Y97.18 E16.13022
G1 X77.077 Y97.015 E16.13759
G1 X77.668 Y96.412 E16.16567
G0 F1350 X77.709 Y96.37
G0 X78.103 Y96.021
G0 X78.267 Y95.883
G1 F2100 E9.91567
;MESH:3DBenchy.stl
G0 F7500 X116.209 Y112.347
;TYPE:WALL-INNER
G1 F2100 E16.16567
