;FLAVOR:Marlin
;TIME:700
;Filament used: 0.272477m
;Layer height: 0.2
;MINX:94.3
;MINY:94.3
;MINZ:0.2
;MAXX:126.1
;MAXY:126.1
;MAXZ:19.2
;Generated with Cura_SteamEngine 4.5.0
M140 S60
M105
M190 S60
M104 S205
M105
M109 S205
M82 ;absolute extrusion mode
M201 X500.00 Y500.00 Z100.00 E5000.00 ;Setup machine max acceleration
M203 X500.00 Y500.00 Z10.00 E50.00 ;Setup machine max feedrate
M204 P500.00 R1000.00 T500.00 ;Setup Print/Retract/Travel acceleration
M205 X8.00 Y8.00 Z0.40 E5.00 ;Setup Jerk
M220 S100 ;Reset Feedrate
M221 S100 ;Reset Flowrate

G28 ;Home

G92 E0 ;Reset Extruder
G1 Z2.0 F3000 ;Move Z Axis up
G1 X10.1 Y20 Z0.28 F5000.0 ;Move to start position
G1 X10.1 Y200.0 Z0.28 F1500.0 E15 ;Draw the first line
G1 X10.4 Y200.0 Z0.28 F5000.0 ;Move to side a little
G1 X10.4 Y20 Z0.28 F1500.0 E30 ;Draw the second line
G92 E0 ;Reset Extruder
G1 Z2.0 F3000 ;Move Z Axis up

G92 E0
G92 E0
G1 F4500 E-5
;LAYER_COUNT:100
;LAYER:0
M107
M204 S500
M205 X20 Y20
G0 F7500 X96.225 Y95.97 Z0.2
;TYPE:SKIRT
G1 F4500 E0
G1 F1500 X96.76 Y95.521 E0.02555
G1 X97.343 Y95.136 E0.05111
G1 X97.966 Y94.82 E0.07667
G1 X98.62 Y94.577 E0.1022
G1 X99.299 Y94.411 E0.12777
G1 X100.228 Y94.312 E0.16195
G1 X100.713 Y94.3 E0.1797
G1 X119.378 Y94.3 E0.86258
G1 X120.077 Y94.31 E0.88816
G1 X120.774 Y94.36 E0.91372
G1 X121.46 Y94.489 E0.93926
G1 X122.127 Y94.696 E0.96481
G1 X122.766 Y94.977 E0.99035
G1 X123.368 Y95.33 E1.01589
G1 X123.927 Y95.749 E1.04144
G1 X124.434 Y96.23 E1.06701
G1 X124.882 Y96.765 E1.09254
G1 X125.266 Y97.348 E1.11808
G1 X125.582 Y97.971 E1.14364
G1 X125.824 Y98.626 E1.16919
G1 X125.989 Y99.305 E1.19475
G1 X126.087 Y100.226 E1.22864
G1 X126.099 Y100.709 E1.24632
G1 X126.1 Y119.34 E1.92795
G1 X126.091 Y120.067 E1.95455
G1 X126.042 Y120.763 E1.98008
G1 X125.914 Y121.45 E2.00565
G1 X125.709 Y122.117 E2.03118
G1 X125.428 Y122.756 E2.05672
G1 X125.076 Y123.36 E2.08229
G1 X124.658 Y123.919 E2.10783
G1 X124.179 Y124.426 E2.13335
G1 X123.644 Y124.876 E2.15893
G1 X123.062 Y125.262 E2.18448
G1 X122.44 Y125.578 E2.21
G1 X121.785 Y125.821 E2.23556
G1 X121.107 Y125.988 E2.26111
G1 X120.162 Y126.089 E2.29588
G1 X119.67 Y126.1 E2.31388
G1 X101.028 Y126.099 E2.99592
G1 X100.33 Y126.09 E3.02146
G1 X99.634 Y126.042 E3.04699
G1 X98.947 Y125.913 E3.07256
G1 X98.28 Y125.707 E3.0981
G1 X97.641 Y125.427 E3.12362
G1 X97.038 Y125.075 E3.14917
G1 X96.479 Y124.656 E3.17473
G1 X95.971 Y124.176 E3.2003
G1 X95.522 Y123.642 E3.22582
G1 X95.137 Y123.059 E3.25139
G1 X94.821 Y122.437 E3.27691
G1 X94.578 Y121.782 E3.30247
G1 X94.411 Y121.104 E3.32802
G1 X94.311 Y120.156 E3.36289
G1 X94.3 Y119.658 E3.38112
G1 X94.301 Y101.004 E4.0636
G1 X94.31 Y100.328 E4.08833
G1 X94.359 Y99.631 E4.11389
G1 X94.487 Y98.945 E4.13942
G1 X94.693 Y98.278 E4.16497
G1 X94.974 Y97.638 E4.19054
G1 X95.327 Y97.036 E4.21607
G1 X95.728 Y96.501 E4.24053
G0 F1350 X95.746 Y96.477
G0 X96.225 Y95.97
G0 F7500 X96.655 Y96.173
G1 F1500 X97.184 Y95.758 E4.26513
G1 X97.759 Y95.408 E4.28976
G1 X98.371 Y95.129 E4.31437
G1 X99.011 Y94.924 E4.33895
G1 X99.672 Y94.797 E4.36358
G1 X100.242 Y94.751 E4.3845
G1 X100.713 Y94.74 E4.40174
G1 X119.372 Y94.74 E5.0844
G1 X120.071 Y94.75 E5.10997
G1 X120.742 Y94.799 E5.13459
G1 X121.402 Y94.928 E5.15919
G1 X122.042 Y95.134 E5.18379
G1 X122.653 Y95.415 E5.2084
G1 X123.227 Y95.766 E5.23301
G1 X123.755 Y96.183 E5.25763
G1 X124.23 Y96.659 E5.28223
G1 X124.645 Y97.189 E5.30686
G1 X124.994 Y97.764 E5.33147
G1 X125.272 Y98.376 E5.35606
G1 X125.476 Y99.017 E5.38067
G1 X125.603 Y99.677 E5.40526
G1 X125.647 Y100.239 E5.42588
G1 X125.659 Y100.709 E5.44309
G1 X125.66 Y119.334 E6.1245
G1 X125.651 Y120.061 E6.1511
G1 X125.602 Y120.732 E6.17572
G1 X125.475 Y121.392 E6.20031
G1 X125.27 Y122.033 E6.22493
G1 X124.99 Y122.645 E6.24955
G1 X124.64 Y123.219 E6.27415
G1 X124.224 Y123.748 E6.29877
G1 X123.749 Y124.223 E6.32335
G1 X123.22 Y124.639 E6.34797
G1 X122.646 Y124.99 E6.37258
G1 X122.034 Y125.269 E6.39719
G1 X121.394 Y125.474 E6.42178
G1 X120.733 Y125.602 E6.44641
G1 X120.15 Y125.649 E6.46781
G1 X119.67 Y125.66 E6.48538
G1 X101.034 Y125.66 E7.1672
G1 X100.336 Y125.651 E7.19273
G1 X99.665 Y125.602 E7.21735
G1 X99.005 Y125.474 E7.24195
G1 X98.364 Y125.269 E7.26657
G1 X97.753 Y124.989 E7.29116
G1 X97.179 Y124.639 E7.31575
G1 X96.65 Y124.223 E7.34038
G1 X96.175 Y123.747 E7.36498
G1 X95.759 Y123.218 E7.3896
G1 X95.409 Y122.644 E7.4142
G1 X95.13 Y122.032 E7.4388
G1 X94.925 Y121.391 E7.46343
G1 X94.798 Y120.731 E7.48802
G1 X94.751 Y120.144 E7.50956
G1 X94.74 Y119.658 E7.52735
G1 X94.741 Y101.01 E8.2096
G1 X94.75 Y100.334 E8.23434
G1 X94.798 Y99.663 E8.25895
G1 X94.927 Y99.003 E8.28355
G1 X95.132 Y98.362 E8.30818
G1 X95.412 Y97.751 E8.33277
G1 X95.763 Y97.177 E8.35738
G1 X96.145 Y96.691 E8.38
G0 F1350 X96.179 Y96.648
G0 X96.655 Y96.173
G0 F7500 X96.612 Y96.827
G1 F1500 X97.083 Y96.386 E8.4036
G1 X97.606 Y96.006 E8.42726
G1 X98.171 Y95.693 E8.45089
G1 X98.77 Y95.453 E8.4745
G1 X99.395 Y95.288 E8.49815
G1 X100.255 Y95.191 E8.52981
G1 X100.713 Y95.18 E8.54657
G1 X119.366 Y95.18 E9.22901
G1 X120.065 Y95.19 E9.25459
G1 X120.709 Y95.239 E9.27822
G1 X121.342 Y95.367 E9.30185
G1 X121.954 Y95.573 E9.32547
G1 X122.536 Y95.852 E9.34908
G1 X123.08 Y96.202 E9.37275
G1 X123.576 Y96.615 E9.39637
G1 X124.017 Y97.087 E9.42
G1 X124.396 Y97.61 E9.44363
G1 X124.708 Y98.175 E9.46724
G1 X124.948 Y98.775 E9.49089
G1 X125.112 Y99.4 E9.51453
G1 X125.208 Y100.252 E9.54589
G1 X125.219 Y100.709 E9.56262
G1 X125.22 Y119.329 E10.24385
G1 X125.211 Y120.056 E10.27045
G1 X125.163 Y120.7 E10.29408
G1 X125.036 Y121.333 E10.3177
G1 X124.831 Y121.946 E10.34135
G1 X124.553 Y122.529 E10.36498
G1 X124.204 Y123.073 E10.38863
G1 X123.792 Y123.569 E10.41222
G1 X123.321 Y124.011 E10.43585
G1 X122.799 Y124.392 E10.45949
G1 X122.234 Y124.705 E10.48312
G1 X121.634 Y124.946 E10.50678
G1 X121.01 Y125.111 E10.53039
G1 X120.137 Y125.209 E10.56253
G1 X119.67 Y125.22 E10.57962
G1 X101.04 Y125.22 E11.26122
G1 X100.342 Y125.211 E11.28676
G1 X99.698 Y125.162 E11.31039
G1 X99.064 Y125.035 E11.33405
G1 X98.452 Y124.83 E11.35766
G1 X97.869 Y124.551 E11.38131
G1 X97.325 Y124.203 E11.40494
G1 X96.829 Y123.79 E11.42855
G1 X96.387 Y123.318 E11.45221
G1 X96.007 Y122.796 E11.47583
G1 X95.694 Y122.231 E11.49946
G1 X95.454 Y121.632 E11.52307
G1 X95.289 Y121.007 E11.54672
G1 X95.191 Y120.132 E11.57893
G1 X95.18 Y119.658 E11.59628
G1 X95.18 Y101.016 E12.27832
G1 X95.189 Y100.34 E12.30305
G1 X95.238 Y99.695 E12.32672
G1 X95.366 Y99.062 E12.35035
G1 X95.571 Y98.45 E12.37396
G1 X95.85 Y97.867 E12.39761
G1 X96.155 Y97.392 E12.41826
G0 F1350 X96.198 Y97.324
G0 X96.612 Y96.827
G1 F4500 E7.41826
;MESH:four_square_cons.stl
G0 F7500 X118.899 Y99.735
G0 X118.9 Y101.499
;TYPE:WALL-INNER
G1 F4500 E12.41826
G1 F1500 X118.9 Y118.9 E13.0549
G1 X101.5 Y118.9 E13.69149
G1 X101.5 Y101.5 E14.32809
G1 X118.173 Y101.499 E14.93809
G0 F1350 X118.9 Y101.499
G0 F7500 X119.34 Y101.059
G1 F1500 X119.34 Y119.34 E15.60693
G1 X101.06 Y119.34 E16.27572
G1 X101.06 Y101.06 E16.94452
G1 X118.613 Y101.059 E17.58671
G0 F1350 X119.34 Y101.059
G0 F7500 X119.78 Y100.619
;TYPE:WALL-OUTER
G1 F1500 X119.78 Y119.78 E18.25269
G1 X100.62 Y119.78 E18.91863
G1 X100.62 Y100.62 E19.58457
G1 X119.053 Y100.619 E20.22524
G0 F1350 X119.78 Y100.619
G0 F7500 X119.78 Y101.019
G0 X119.295 Y101.104
G0 X118.47 Y101.929
;TYPE:SKIN
G1 F1500 X118.47 Y118.47 E20.83041
G1 X101.93 Y118.47 E21.43555
G1 X101.93 Y101.93 E22.04068
G1 X117.743 Y101.929 E22.61922
G0 F1350 X118.47 Y101.929
G0 F7500 X118.293 Y102.736
G1 F1500 X117.661 Y102.105 E22.6519
G0 F7500 X117.039 Y102.105
G1 F1500 X118.293 Y103.359 E22.71678
G0 F7500 X118.293 Y103.981
G1 F1500 X116.417 Y102.105 E22.81384
G0 F7500 X115.795 Y102.105
G1 F1500 X118.293 Y104.603 E22.94309
G0 F7500 X118.293 Y105.225
G1 F1500 X115.172 Y102.105 E23.10455
G0 F7500 X114.55 Y102.105
G1 F1500 X118.293 Y105.848 E23.29821
G0 F7500 X118.293 Y106.47
G1 F1500 X113.928 Y102.105 E23.52406
G0 F7500 X113.306 Y102.105
G1 F1500 X118.293 Y107.092 E23.78209
G0 F7500 X118.293 Y107.714
G1 F1500 X112.683 Y102.105 E24.07233
G0 F7500 X112.061 Y102.105
G1 F1500 X118.293 Y108.337 E24.39478
G0 F7500 X118.293 Y108.959
G1 F1500 X111.439 Y102.105 E24.74941
G0 F7500 X110.817 Y102.105
G1 F1500 X118.293 Y109.581 E25.13622
G0 F7500 X118.293 Y110.204
G1 F1500 X110.194 Y102.105 E25.55527
G0 F7500 X109.572 Y102.105
G1 F1500 X118.293 Y110.826 E26.0065
G0 F7500 X118.293 Y111.448
G1 F1500 X108.95 Y102.105 E26.48991
G0 F7500 X108.328 Y102.105
G1 F1500 X118.293 Y112.07 E27.00551
G0 F7500 X118.293 Y112.693
G1 F1500 X107.705 Y102.105 E27.55334
G0 F7500 X107.083 Y102.105
G1 F1500 X118.293 Y113.315 E28.13335
G0 F7500 X118.293 Y113.937
G1 F1500 X106.461 Y102.105 E28.74554
G0 F7500 X105.839 Y102.105
G1 F1500 X118.293 Y114.559 E29.38992
G0 F7500 X118.293 Y115.182
G1 F1500 X105.216 Y102.105 E30.06653
G0 F7500 X104.594 Y102.105
G1 F1500 X118.293 Y115.804 E30.77533
G0 F7500 X118.293 Y116.426
G1 F1500 X103.972 Y102.105 E31.51631
G0 F7500 X103.35 Y102.105
G1 F1500 X118.293 Y117.048 E32.28947
G0 F7500 X118.293 Y117.671
G1 F1500 X102.727 Y102.105 E33.09486
G0 F7500 X102.105 Y102.105
G1 F1500 X118.293 Y118.293 E33.93244
G0 F7500 X117.671 Y118.293
G1 F1500 X102.105 Y102.727 E34.73783
G0 F7500 X102.105 Y103.35
G1 F1500 X117.048 Y118.293 E35.51099
G0 F7500 X116.426 Y118.293
G1 F1500 X102.105 Y103.972 E36.25197
G0 F7500 X102.105 Y104.594
G1 F1500 X115.804 Y118.293 E36.96077
G0 F7500 X115.182 Y118.293
G1 F1500 X102.105 Y105.216 E37.63738
G0 F7500 X102.105 Y105.839
G1 F1500 X114.559 Y118.293 E38.28176
G0 F7500 X113.937 Y118.293
G1 F1500 X102.105 Y106.461 E38.89395
G0 F7500 X102.105 Y107.083
G1 F1500 X113.315 Y118.293 E39.47396
G0 F7500 X112.693 Y118.293
G1 F1500 X102.105 Y107.705 E40.02179
G0 F7500 X102.105 Y108.328
G1 F1500 X112.07 Y118.293 E40.53739
G0 F7500 X111.448 Y118.293
G1 F1500 X102.105 Y108.95 E41.0208
G0 F7500 X102.105 Y109.572
G1 F1500 X110.826 Y118.293 E41.47203
G0 F7500 X110.204 Y118.293
G1 F1500 X102.105 Y110.194 E41.89108
G0 F7500 X102.105 Y110.817
G1 F1500 X109.581 Y118.293 E42.27789
G0 F7500 X108.959 Y118.293
G1 F1500 X102.105 Y111.439 E42.63252
G0 F7500 X102.105 Y112.061
G1 F1500 X108.337 Y118.293 E42.95497
G0 F7500 X107.714 Y118.293
G1 F1500 X102.105 Y112.683 E43.24521
G0 F7500 X102.105 Y113.306
G1 F1500 X107.092 Y118.293 E43.50324
G0 F7500 X106.47 Y118.293
G1 F1500 X102.105 Y113.928 E43.72909
G0 F7500 X102.105 Y114.55
G1 F1500 X105.848 Y118.293 E43.92275
G0 F7500 X105.225 Y118.293
G1 F1500 X102.105 Y115.172 E44.08421
G0 F7500 X102.105 Y115.795
G1 F1500 X104.603 Y118.293 E44.21346
G0 F7500 X103.981 Y118.293
G1 F1500 X102.105 Y116.417 E44.31052
G0 F7500 X102.105 Y117.039
G1 F1500 X103.359 Y118.293 E44.3754
G0 F7500 X102.736 Y118.293
G1 F1500 X102.105 Y117.661 E44.40808
G1 F4500 E39.40808
;MESH:NONMESH
G0 F300 X102.105 Y117.661 Z0.4
G0 F7500 X99.735 Y117.661
G0 X99.747 Y99.747
G0 X118.459 Y99.735
G0 X118.46 Y101.739
;TIME_ELAPSED:58.978311
;LAYER:1
M140 S60
M106 S85
;TYPE:WALL-INNER
;MESH:four_square_cons.stl
G1 F4500 E44.40808
G1 F1725 X118.46 Y118.46 E45.01984
G1 X101.74 Y118.46 E45.63156
G1 X101.74 Y101.74 E46.24328
G1 X117.733 Y101.739 E46.8284
G0 F1552.5 X118.46 Y101.739
G0 F8625 X118.9 Y101.299
G1 F1725 X118.9 Y118.9 E47.47235
G1 X101.3 Y118.9 E48.11627
G1 X101.3 Y101.3 E48.76018
G1 X118.173 Y101.299 E49.3775
G0 F1552.5 X118.9 Y101.299
G0 F8625 X119.34 Y100.859
G1 F1725 X119.34 Y119.34 E50.05365
G1 X100.86 Y119.34 E50.72976
G1 X100.86 Y100.86 E51.40587
G1 X118.613 Y100.859 E52.05539
G0 F1552.5 X119.34 Y100.859
G0 F8625 X119.78 Y100.419
;TYPE:WALL-OUTER
G1 F1725 X119.78 Y119.78 E52.72832
G1 X100.42 Y119.78 E53.40121
G1 X100.42 Y100.42 E54.0741
G1 X119.053 Y100.419 E54.72172
G0 F1552.5 X119.78 Y100.419
G0 F8625 X119.78 Y100.819
G0 X119.295 Y100.904
G0 X118.03 Y102.169
;TYPE:SKIN
G1 F1725 X118.03 Y118.03 E55.30202
G1 X102.17 Y118.03 E55.88227
G1 X102.17 Y102.17 E56.46253
G1 X117.303 Y102.169 E57.01619
G0 F1552.5 X118.03 Y102.169
G1 F4500 E52.01619
G0 F8625 X118.029 Y99.535
G0 X99.547 Y99.547
G0 X99.535 Y102.997
G0 X102.345 Y102.997
G1 F4500 E57.01619
G1 F1725 X102.998 Y102.345 E57.04995
G0 F8625 X103.62 Y102.345
G1 F1725 X102.345 Y103.62 E57.11592
G0 F8625 X102.345 Y104.242
G1 F1725 X104.243 Y102.345 E57.2141
G0 F8625 X104.865 Y102.345
G1 F1725 X102.345 Y104.864 E57.34446
G0 F8625 X102.345 Y105.486
G1 F1725 X105.487 Y102.345 E57.507
G0 F8625 X106.109 Y102.345
G1 F1725 X102.345 Y106.109 E57.70175
G0 F8625 X102.345 Y106.731
G1 F1725 X106.732 Y102.345 E57.92871
G0 F8625 X107.354 Y102.345
G1 F1725 X102.345 Y107.353 E58.18786
G0 F8625 X102.345 Y107.975
G1 F1725 X107.976 Y102.345 E58.47918
G0 F8625 X108.598 Y102.345
G1 F1725 X102.345 Y108.598 E58.80271
G0 F8625 X102.345 Y109.22
G1 F1725 X109.221 Y102.345 E59.15846
G0 F8625 X109.843 Y102.345
G1 F1725 X102.345 Y109.842 E59.54638
G0 F8625 X102.345 Y110.464
G1 F1725 X110.465 Y102.345 E59.96649
G0 F8625 X111.087 Y102.345
G1 F1725 X102.345 Y111.087 E60.41881
G0 F8625 X102.345 Y111.709
G1 F1725 X111.71 Y102.345 E60.90333
G0 F8625 X112.332 Y102.345
G1 F1725 X102.345 Y112.331 E61.42004
G0 F8625 X102.345 Y112.953
G1 F1725 X112.954 Y102.345 E61.96893
G0 F8625 X113.576 Y102.345
G1 F1725 X102.345 Y113.576 E62.55003
G0 F8625 X102.345 Y114.198
G1 F1725 X114.199 Y102.345 E63.16334
G0 F8625 X114.821 Y102.345
G1 F1725 X102.345 Y114.82 E63.80883
G0 F8625 X102.345 Y115.442
G1 F1725 X115.443 Y102.345 E64.4865
G0 F8625 X116.065 Y102.345
G1 F1725 X102.345 Y116.065 E65.19638
G0 F8625 X102.345 Y116.687
G1 F1725 X116.688 Y102.345 E65.93847
G0 F8625 X117.31 Y102.345
G1 F1725 X102.345 Y117.309 E66.71274
G0 F8625 X102.424 Y117.853
G1 F1725 X117.853 Y102.424 E67.51105
G0 F8625 X117.853 Y103.046
G1 F1725 X103.046 Y117.853 E68.27717
G0 F8625 X103.668 Y117.853
G1 F1725 X117.853 Y103.668 E69.01111
G0 F8625 X117.853 Y104.291
G1 F1725 X104.291 Y117.853 E69.71282
G0 F8625 X104.913 Y117.853
G1 F1725 X117.853 Y104.913 E70.38234
G0 F8625 X117.853 Y105.535
G1 F1725 X105.535 Y117.853 E71.01969
G0 F8625 X106.157 Y117.853
G1 F1725 X117.853 Y106.157 E71.62484
G0 F8625 X117.853 Y106.78
G1 F1725 X106.78 Y117.853 E72.19777
G0 F8625 X107.402 Y117.853
G1 F1725 X117.853 Y107.402 E72.73851
G0 F8625 X117.853 Y108.024
G1 F1725 X108.024 Y117.853 E73.24707
G0 F8625 X108.646 Y117.853
G1 F1725 X117.853 Y108.646 E73.72344
G0 F8625 X117.853 Y109.269
G1 F1725 X109.269 Y117.853 E74.16759
G0 F8625 X109.891 Y117.853
G1 F1725 X117.853 Y109.891 E74.57954
G0 F8625 X117.853 Y110.513
G1 F1725 X110.513 Y117.853 E74.95932
G0 F8625 X111.135 Y117.853
G1 F1725 X117.853 Y111.135 E75.30691
G0 F8625 X117.853 Y111.758
G1 F1725 X111.758 Y117.853 E75.62227
G0 F8625 X112.38 Y117.853
G1 F1725 X117.853 Y112.38 E75.90545
G0 F8625 X117.853 Y113.002
G1 F1725 X113.002 Y117.853 E76.15644
G0 F8625 X113.624 Y117.853
G1 F1725 X117.853 Y113.624 E76.37525
G0 F8625 X117.853 Y114.247
G1 F1725 X114.247 Y117.853 E76.56183
G0 F8625 X114.869 Y117.853
G1 F1725 X117.853 Y114.869 E76.71623
G0 F8625 X117.853 Y115.491
G1 F1725 X115.491 Y117.853 E76.83844
G0 F8625 X116.114 Y117.853
G1 F1725 X117.853 Y116.114 E76.92841
G0 F8625 X117.853 Y116.736
G1 F1725 X116.736 Y117.853 E76.98621
G0 F8625 X117.358 Y117.853
G1 F1725 X117.853 Y117.358 E77.01182
G1 F4500 E72.01182
;MESH:NONMESH
G0 F300 X117.853 Y117.358 Z0.6
G0 F8625 X120.665 Y117.358
G0 X120.653 Y120.653
G0 X101.1 Y120.665
G0 X101.1 Y118.9
;TIME_ELAPSED:96.252941
;LAYER:2
M106 S170
;TYPE:WALL-INNER
;MESH:four_square_cons.stl
G1 F4500 E77.01182
G1 F1950 X101.1 Y101.1 E77.66305
G1 X118.9 Y101.1 E78.31429
G1 X118.9 Y118.9 E78.96552
G1 X101.827 Y118.9 E79.59016
G0 F1755 X101.1 Y118.9
G0 F9750 X100.66 Y119.34
G1 F1950 X100.66 Y100.66 E80.27358
G1 X119.34 Y100.66 E80.95701
G1 X119.34 Y119.34 E81.64044
G1 X101.387 Y119.34 E82.29727
G0 F1755 X100.66 Y119.34
G0 F9750 X100.22 Y119.78
;TYPE:WALL-OUTER
G1 F1950 X100.22 Y100.22 E82.97712
G1 X119.78 Y100.22 E83.65696
G1 X119.78 Y119.78 E84.33681
G1 X100.947 Y119.78 E84.99138
G0 F1755 X100.22 Y119.78
G0 F9750 X100.22 Y119.38
G0 X100.704 Y119.296
G0 X101.53 Y118.47
;TYPE:SKIN
G1 F1950 X101.53 Y101.53 E85.61115
G1 X118.47 Y101.53 E86.23092
G1 X118.47 Y118.47 E86.85069
