;FLAVOR:Marlin
;TIME:5409
;Filament used: 1.75813m
;Layer height: 0.12
;MINX:77.218
;MINY:86.176
;MINZ:0.12
;MAXX:142.779
;MAXY:130.816
;MAXZ:30.72
;Generated with Cura_SteamEngine 4.5.0
M140 S50
M105
M190 S50
M104 S205
M105
M109 S205
M82 ;absolute extrusion mode
M201 X500.00 Y500.00 Z100.00 E5000.00 ;Setup machine max acceleration
M203 X500.00 Y500.00 Z10.00 E50.00 ;Setup machine max feedrate
M204 P500.00 R1000.00 T500.00 ;Setup Print/Retract/Travel acceleration
M205 X8.00 Y8.00 Z0.40 E5.00 ;Setup Jerk
M220 S100 ;Reset Feedrate
M221 S100 ;Reset Flowrate

G28 ;Home

G92 E0 ;Reset Extruder
G1 Z2.0 F3000 ;Move Z Axis up
G1 X10.1 Y20 Z0.28 F5000.0 ;Move to start position
G1 X10.1 Y200.0 Z0.28 F1500.0 E15 ;Draw the first line
G1 X10.4 Y200.0 Z0.28 F5000.0 ;Move to side a little
G1 X10.4 Y20 Z0.28 F1500.0 E30 ;Draw the second line
G92 E0 ;Reset Extruder
G1 Z2.0 F3000 ;Move Z Axis up

G92 E0
G92 E0
G1 F1500 E-6
;LAYER_COUNT:256
;LAYER:0
M107
M205 X20 Y20
G0 F7500 X81.264 Y104.975 Z0.12
;TYPE:SKIRT
G1 F1500 E0
G1 X82.01 Y104.407 E0.01871
G1 X82.544 Y104.057 E0.03145
G1 X83.359 Y103.592 E0.05018
G1 X84.21 Y103.198 E0.06889
G1 X85.092 Y102.879 E0.08761
G1 X85.568 Y102.74 E0.09751
G1 X86.454 Y102.506 E0.11579
G1 X87.559 Y102.231 E0.13852
G1 X89.979 Y101.555 E0.18866
G1 X92.36 Y100.818 E0.2384
G1 X94.791 Y99.988 E0.28966
G1 X97.107 Y99.125 E0.33898
G1 X99.442 Y98.178 E0.38927
G1 X101.769 Y97.156 E0.43999
G1 X104.024 Y96.089 E0.48977
G1 X106.305 Y94.931 E0.54082
G1 X108.47 Y93.752 E0.59002
G1 X110.666 Y92.475 E0.64071
G1 X112.809 Y91.147 E0.69102
G1 X114.92 Y89.753 E0.74151
G1 X117.005 Y88.292 E0.79231
G1 X118.179 Y87.574 E0.81978
G1 X118.389 Y87.463 E0.82452
G1 X119.236 Y87.06 E0.84324
G1 X120.114 Y86.732 E0.86194
G1 X121.017 Y86.479 E0.88065
G1 X121.939 Y86.304 E0.89938
G1 X122.871 Y86.208 E0.91808
G1 X123.356 Y86.189 E0.92777
G1 X124.111 Y86.179 E0.94283
G1 X125.501 Y86.181 E0.97057
G1 X126.246 Y86.192 E0.98544
G1 X128.853 Y86.176 E1.03747
G1 X129.2 Y86.18 E1.04439
G1 X131.113 Y86.188 E1.08257
G1 X131.751 Y86.201 E1.0953
G1 X132.687 Y86.26 E1.11402
G1 X133.615 Y86.399 E1.13275
G1 X134.527 Y86.616 E1.15145
G1 X135.418 Y86.91 E1.17018
G1 X136.179 Y87.231 E1.18666
G1 X136.374 Y87.322 E1.19095
G1 X137.206 Y87.754 E1.20966
G1 X137.998 Y88.256 E1.22838
G1 X138.745 Y88.824 E1.2471
G1 X139.441 Y89.453 E1.26582
G1 X140.08 Y90.139 E1.28453
G1 X140.659 Y90.877 E1.30325
G1 X141.107 Y91.551 E1.3194
G1 X141.567 Y92.369 E1.33813
G1 X141.957 Y93.222 E1.35685
G1 X142.272 Y94.105 E1.37556
G1 X142.51 Y95.012 E1.39427
G1 X142.671 Y95.936 E1.41299
G1 X142.757 Y96.993 E1.43415
G1 X142.768 Y97.326 E1.4408
G1 X142.774 Y97.684 E1.44794
G1 X142.779 Y111.579 E1.72523
G1 X142.771 Y112.113 E1.73589
G1 X142.742 Y112.764 E1.7489
G1 X142.669 Y113.745 E1.76853
G1 X142.636 Y114.1 E1.77564
G1 X142.571 Y114.707 E1.78783
G1 X142.432 Y115.635 E1.80655
G1 X142.147 Y116.772 E1.82994
G1 X141.919 Y117.51 E1.84536
G1 X141.703 Y118.171 E1.85924
G1 X141.452 Y118.908 E1.87477
G1 X141.112 Y119.782 E1.89349
G1 X140.699 Y120.624 E1.9122
G1 X140.45 Y121.058 E1.92219
G1 X140.008 Y121.782 E1.93912
G1 X139.593 Y122.435 E1.95456
G1 X139.21 Y123.02 E1.96851
G1 X138.663 Y123.782 E1.98723
G1 X138.054 Y124.495 E2.00594
G1 X137.693 Y124.864 E2.01624
G1 X137.058 Y125.482 E2.03393
G1 X136.523 Y125.982 E2.04854
G1 X136.019 Y126.443 E2.06217
G1 X135.301 Y127.046 E2.08088
G1 X134.534 Y127.585 E2.09959
G1 X134.054 Y127.876 E2.11079
G1 X133.33 Y128.288 E2.12741
G1 X132.691 Y128.638 E2.14195
G1 X132.057 Y128.975 E2.15628
G1 X131.211 Y129.38 E2.175
G1 X130.333 Y129.711 E2.19373
G1 X129.827 Y129.864 E2.20427
G1 X129.041 Y130.079 E2.22054
G1 X128.344 Y130.257 E2.23489
G1 X127.621 Y130.433 E2.24974
G1 X126.701 Y130.616 E2.26846
G1 X126.114 Y130.69 E2.28027
G1 X125.884 Y130.713 E2.28488
G1 X125.349 Y130.754 E2.29559
G1 X124.76 Y130.784 E2.30736
G1 X124.394 Y130.796 E2.31467
G1 X123.177 Y130.816 E2.33896
G1 X97.919 Y130.809 E2.84301
G1 X97.258 Y130.8 E2.8562
G1 X96.322 Y130.747 E2.87491
G1 X95.393 Y130.615 E2.89363
G1 X94.48 Y130.404 E2.91233
G1 X93.587 Y130.116 E2.93106
G1 X93.14 Y129.939 E2.94065
G1 X92.465 Y129.651 E2.9553
G1 X90.756 Y128.878 E2.99273
G1 X88.438 Y127.909 E3.04287
G1 X86.084 Y127.001 E3.09322
G1 X85.367 Y126.749 E3.10838
G1 X84.418 Y126.398 E3.12857
G1 X83.553 Y126.035 E3.14729
G1 X82.722 Y125.6 E3.16601
G1 X81.931 Y125.096 E3.18473
G1 X81.186 Y124.527 E3.20344
G1 X80.493 Y123.896 E3.22214
G1 X79.855 Y123.208 E3.24087
G1 X79.278 Y122.468 E3.25959
G1 X78.767 Y121.682 E3.2783
G1 X78.324 Y120.855 E3.29702
G1 X77.953 Y119.994 E3.31573
G1 X77.657 Y119.104 E3.33445
G1 X77.438 Y118.192 E3.35317
G1 X77.26 Y116.838 E3.38042
G1 X77.246 Y116.635 E3.38448
G1 X77.22 Y115.94 E3.39836
G1 X77.218 Y115.485 E3.40744
G1 X77.224 Y114.125 E3.43458
G1 X77.236 Y113.406 E3.44893
G1 X77.291 Y112.47 E3.46764
G1 X77.426 Y111.542 E3.48636
G1 X77.64 Y110.629 E3.50507
G1 X77.962 Y109.655 E3.52554
G1 X78.021 Y109.501 E3.52883
G1 X78.394 Y108.64 E3.54756
G1 X78.838 Y107.814 E3.56627
G1 X79.351 Y107.029 E3.58499
G1 X79.93 Y106.291 E3.60371
G1 X80.3 Y105.893 E3.61455
G0 F1350 X80.569 Y105.604
G0 X81.264 Y104.975
G0 F7500 X81.598 Y105.218
G1 F1500 X82.652 Y104.462 E3.64044
G1 X82.757 Y104.396 E3.64291
G1 X83.557 Y103.94 E3.66129
G1 X84.393 Y103.556 E3.67965
G1 X85.671 Y103.127 E3.70655
G1 X86.551 Y102.894 E3.72471
G1 X87.659 Y102.619 E3.7475
G1 X90.09 Y101.939 E3.79787
G1 X92.502 Y101.192 E3.84826
G1 X94.88 Y100.381 E3.8984
G1 X97.29 Y99.483 E3.94973
G1 X99.617 Y98.539 E3.99984
G1 X101.923 Y97.527 E4.05009
G1 X104.198 Y96.45 E4.10032
G1 X106.47 Y95.296 E4.15118
G1 X108.683 Y94.092 E4.20145
G1 X110.872 Y92.818 E4.252
G1 X113.035 Y91.477 E4.30279
G1 X115.125 Y90.098 E4.35275
G1 X117.235 Y88.619 E4.40418
G1 X118.366 Y87.928 E4.43063
G1 X118.576 Y87.817 E4.43537
G1 X119.407 Y87.422 E4.45373
G1 X120.27 Y87.101 E4.4721
G1 X121.158 Y86.857 E4.49048
G1 X122.063 Y86.69 E4.50885
G1 X123.363 Y86.589 E4.53487
G1 X124.111 Y86.579 E4.54979
G1 X125.495 Y86.581 E4.57741
G1 X126.243 Y86.592 E4.59234
G1 X128.856 Y86.576 E4.64449
G1 X129.19 Y86.579 E4.65115
G1 X131.105 Y86.588 E4.68937
G1 X131.743 Y86.601 E4.70211
G1 X132.662 Y86.66 E4.72048
G1 X133.572 Y86.798 E4.73885
G1 X134.467 Y87.015 E4.75723
G1 X135.339 Y87.308 E4.77559
G1 X136.01 Y87.593 E4.79013
G1 X136.205 Y87.684 E4.79443
G1 X137.021 Y88.11 E4.8128
G1 X137.798 Y88.604 E4.83117
G1 X138.529 Y89.164 E4.84955
G1 X139.208 Y89.785 E4.86791
G1 X139.831 Y90.463 E4.88629
G1 X140.393 Y91.193 E4.90467
G1 X140.767 Y91.763 E4.91828
G1 X141.218 Y92.565 E4.93664
G1 X141.599 Y93.403 E4.95501
G1 X141.904 Y94.272 E4.97339
G1 X142.134 Y95.163 E4.99175
G1 X142.285 Y96.072 E5.01014
G1 X142.357 Y97.006 E5.02884
G1 X142.368 Y97.339 E5.03548
G1 X142.374 Y97.684 E5.04237
G1 X142.379 Y111.573 E5.31954
G1 X142.371 Y112.107 E5.3302
G1 X142.343 Y112.735 E5.34274
G1 X142.27 Y113.716 E5.36237
G1 X142.239 Y114.058 E5.36923
G1 X142.174 Y114.665 E5.38141
G1 X142.036 Y115.575 E5.39978
G1 X141.765 Y116.655 E5.422
G1 X141.538 Y117.386 E5.43727
G1 X141.324 Y118.042 E5.45104
G1 X141.073 Y118.779 E5.46658
G1 X140.739 Y119.637 E5.48495
G1 X140.107 Y120.851 E5.51227
G1 X139.671 Y121.568 E5.52901
G1 X139.258 Y122.216 E5.54435
G1 X138.875 Y122.801 E5.5583
G1 X138.338 Y123.549 E5.57668
G1 X137.738 Y124.247 E5.59505
G1 X137.414 Y124.578 E5.60429
G1 X136.784 Y125.19 E5.62182
G1 X136.253 Y125.687 E5.63633
G1 X135.749 Y126.148 E5.64996
G1 X135.044 Y126.739 E5.66832
G1 X134.289 Y127.267 E5.68671
G1 X133.856 Y127.528 E5.6968
G1 X133.137 Y127.938 E5.71331
G1 X132.503 Y128.285 E5.72774
G1 X131.869 Y128.622 E5.74206
G1 X131.038 Y129.018 E5.76043
G1 X130.176 Y129.341 E5.7788
G1 X129.72 Y129.478 E5.78831
G1 X128.942 Y129.692 E5.80441
G1 X128.249 Y129.868 E5.81868
G1 X127.526 Y130.044 E5.83353
G1 X126.623 Y130.223 E5.8519
G1 X126.074 Y130.292 E5.86294
G1 X125.844 Y130.315 E5.86755
G1 X125.328 Y130.354 E5.87788
G1 X124.739 Y130.384 E5.88965
G1 X124.387 Y130.396 E5.89668
G1 X123.177 Y130.416 E5.92083
G1 X97.925 Y130.409 E6.42476
G1 X97.264 Y130.4 E6.43795
G1 X96.345 Y130.348 E6.45632
G1 X95.433 Y130.215 E6.47471
G1 X94.537 Y130.005 E6.49308
G1 X93.296 Y129.571 E6.51931
G1 X92.63 Y129.287 E6.53376
G1 X90.909 Y128.509 E6.57145
G1 X88.587 Y127.538 E6.62168
G1 X86.216 Y126.623 E6.6724
G1 X85.506 Y126.374 E6.68741
G1 X84.557 Y126.023 E6.7076
G1 X83.708 Y125.666 E6.72598
G1 X82.893 Y125.237 E6.74436
G1 X82.119 Y124.739 E6.76273
G1 X81.391 Y124.176 E6.7811
G1 X80.714 Y123.552 E6.79947
G1 X80.094 Y122.871 E6.81785
G1 X79.536 Y122.139 E6.83622
G1 X79.043 Y121.362 E6.85458
G1 X78.619 Y120.544 E6.87297
G1 X78.268 Y119.693 E6.89134
G1 X77.993 Y118.815 E6.9097
G1 X77.794 Y117.916 E6.92807
G1 X77.659 Y116.81 E6.95031
G1 X77.645 Y116.607 E6.95437
G1 X77.62 Y115.937 E6.96775
G1 X77.618 Y115.486 E6.97675
G1 X77.623 Y114.132 E7.00377
G1 X77.635 Y113.413 E7.01812
G1 X77.691 Y112.494 E7.03649
G1 X77.826 Y111.583 E7.05487
G1 X78.039 Y110.688 E7.07323
G1 X78.336 Y109.798 E7.09196
G1 X78.395 Y109.644 E7.09525
G1 X78.761 Y108.799 E7.11362
G1 X79.199 Y107.99 E7.13198
G1 X79.706 Y107.221 E7.15036
G1 X80.278 Y106.499 E7.16875
G1 X80.627 Y106.129 E7.1789
G0 F1350 X80.91 Y105.83
G0 X81.598 Y105.218
G0 F7500 X81.931 Y105.463
G1 F1500 X82.865 Y104.8 E7.20175
G1 X82.97 Y104.734 E7.20423
G1 X83.755 Y104.288 E7.22225
G1 X84.577 Y103.913 E7.24028
G1 X85.774 Y103.513 E7.26546
G1 X86.647 Y103.282 E7.28348
G1 X87.766 Y103.004 E7.30649
G1 X90.211 Y102.321 E7.35715
G1 X92.603 Y101.58 E7.40713
G1 X95.044 Y100.747 E7.4586
G1 X97.414 Y99.864 E7.50907
G1 X99.779 Y98.905 E7.56
G1 X102.076 Y97.896 E7.61006
G1 X104.4 Y96.797 E7.66137
G1 X106.635 Y95.66 E7.71141
G1 X108.895 Y94.431 E7.76275
G1 X111.062 Y93.17 E7.81278
G1 X113.26 Y91.808 E7.86438
G1 X115.352 Y90.427 E7.91441
G1 X117.464 Y88.947 E7.96587
G1 X118.552 Y88.281 E7.99133
G1 X118.762 Y88.17 E7.99607
G1 X119.579 Y87.784 E8.0141
G1 X120.426 Y87.471 E8.03212
G1 X121.298 Y87.235 E8.05015
G1 X122.187 Y87.077 E8.06817
G1 X123.369 Y86.989 E8.09182
G1 X124.11 Y86.979 E8.10661
G1 X125.489 Y86.981 E8.13413
G1 X126.239 Y86.992 E8.1491
G1 X129.18 Y86.979 E8.20779
G1 X131.097 Y86.988 E8.24605
G1 X131.735 Y87.001 E8.25878
G1 X132.636 Y87.059 E8.2768
G1 X133.529 Y87.197 E8.29483
G1 X134.405 Y87.414 E8.31284
G1 X135.26 Y87.707 E8.33088
G1 X135.84 Y87.956 E8.34347
G1 X136.035 Y88.047 E8.34777
G1 X136.836 Y88.465 E8.3658
G1 X137.597 Y88.952 E8.38383
G1 X138.311 Y89.504 E8.40184
G1 X138.974 Y90.117 E8.41986
G1 X139.58 Y90.787 E8.43789
G1 X140.125 Y91.507 E8.45591
G1 X140.427 Y91.974 E8.46701
G1 X140.869 Y92.761 E8.48502
G1 X141.24 Y93.585 E8.50305
G1 X141.537 Y94.438 E8.52108
G1 X141.756 Y95.314 E8.5391
G1 X141.898 Y96.206 E8.55712
G1 X141.957 Y97.019 E8.57339
G1 X141.974 Y97.685 E8.58668
G1 X141.979 Y111.567 E8.86371
G1 X141.971 Y112.101 E8.87437
G1 X141.944 Y112.705 E8.88644
G1 X141.871 Y113.686 E8.90607
G1 X141.841 Y114.015 E8.91266
G1 X141.776 Y114.622 E8.92484
G1 X141.64 Y115.515 E8.94287
G1 X141.383 Y116.537 E8.9639
G1 X141.158 Y117.263 E8.97907
G1 X140.945 Y117.913 E8.99272
G1 X140.694 Y118.65 E9.00825
G1 X140.366 Y119.491 E9.02627
G1 X139.765 Y120.644 E9.05222
G1 X139.333 Y121.354 E9.0688
G1 X138.924 Y121.997 E9.08401
G1 X138.541 Y122.582 E9.09796
G1 X138.013 Y123.315 E9.11599
G1 X137.134 Y124.292 E9.14222
G1 X136.51 Y124.898 E9.15958
G1 X135.983 Y125.391 E9.17398
G1 X135.479 Y125.852 E9.18761
G1 X134.787 Y126.432 E9.20563
G1 X134.045 Y126.948 E9.22366
G1 X133.657 Y127.181 E9.23269
G1 X132.944 Y127.587 E9.24907
G1 X132.315 Y127.932 E9.26339
G1 X131.681 Y128.269 E9.27771
G1 X130.866 Y128.657 E9.29573
G1 X129.614 Y129.093 E9.32218
G1 X128.843 Y129.304 E9.33814
G1 X128.155 Y129.48 E9.35231
G1 X127.432 Y129.656 E9.36716
G1 X126.545 Y129.83 E9.3852
G1 X126.034 Y129.894 E9.39547
G1 X125.804 Y129.917 E9.40009
G1 X125.308 Y129.955 E9.41001
G1 X124.719 Y129.985 E9.42178
G1 X124.38 Y129.996 E9.42855
G1 X123.178 Y130.016 E9.45254
G1 X97.93 Y130.009 E9.95639
G1 X97.269 Y130 E9.96958
G1 X96.368 Y129.948 E9.98759
G1 X95.474 Y129.816 E10.00563
G1 X94.596 Y129.606 E10.02364
G1 X93.451 Y129.202 E10.04787
G1 X92.795 Y128.922 E10.06211
G1 X91.092 Y128.152 E10.09941
G1 X88.737 Y127.168 E10.15034
G1 X86.338 Y126.242 E10.20166
G1 X85.645 Y125.999 E10.21631
G1 X84.696 Y125.648 E10.23651
G1 X83.863 Y125.297 E10.25454
G1 X83.065 Y124.874 E10.27257
G1 X82.308 Y124.383 E10.29057
G1 X81.597 Y123.826 E10.3086
G1 X80.938 Y123.209 E10.32661
G1 X80.336 Y122.535 E10.34465
G1 X79.796 Y121.811 E10.36267
G1 X79.322 Y121.042 E10.3807
G1 X78.918 Y120.235 E10.39871
G1 X78.587 Y119.394 E10.41675
G1 X78.332 Y118.528 E10.43476
G1 X78.154 Y117.643 E10.45278
G1 X78.058 Y116.783 E10.47005
G1 X78.044 Y116.58 E10.47411
G1 X78.02 Y115.935 E10.48699
G1 X78.018 Y115.487 E10.49593
G1 X78.023 Y114.139 E10.52283
G1 X78.035 Y113.42 E10.53718
G1 X78.09 Y112.518 E10.55521
G1 X78.225 Y111.625 E10.57324
G1 X78.438 Y110.748 E10.59125
G1 X78.709 Y109.941 E10.60823
G1 X78.768 Y109.787 E10.61153
G1 X79.128 Y108.959 E10.62954
G1 X79.56 Y108.166 E10.64756
G1 X80.061 Y107.414 E10.6656
G1 X80.626 Y106.709 E10.68363
G1 X80.954 Y106.367 E10.69308
G0 F1350 X81.251 Y106.057
G0 X81.931 Y105.463
G1 F1500 E4.69308
;MESH:Ender-5_Bed_Strain_Relief-V2.stl
G0 F7500 X130.037 Y108.664
;TYPE:WALL-INNER
G1 F1500 E10.69308
G1 X130.037 Y104.055 E10.78506
G1 X125.037 Y104.055 E10.88484
G1 X125.037 Y109.575 E10.995
G1 X129.55 Y109.594 E11.08506
G0 F1350 X129.788 Y109.595
G0 X130.037 Y108.664
G0 F7500 X129.637 Y108.611
G1 F1500 X129.637 Y104.455 E11.168
G1 X125.437 Y104.455 E11.25181
G1 X125.437 Y109.177 E11.34605
G1 X129.08 Y109.193 E11.41875
G0 F1350 X129.481 Y109.194
G0 X129.637 Y108.611
G0 F7500 X129.237 Y108.558
;TYPE:WALL-OUTER
G1 F1500 X129.237 Y104.855 E11.48895
G1 X125.837 Y104.855 E11.55341
G1 X125.837 Y108.779 E11.6278
G1 X128.611 Y108.791 E11.68039
G0 F1350 X129.174 Y108.793
G0 X129.237 Y108.558
G0 F7500 X129.237 Y108.158
G0 X129.677 Y108.158
G1 F1500 E5.68039
G0 F7500 X114.635 Y112.44
;TYPE:WALL-INNER
G1 F1500 E11.68039
G1 X116.596 Y110.702 E11.73268
G1 X118.082 Y108.547 E11.78492
G1 X118.993 Y106.149 E11.83611
G1 X119.02 Y106.03 E11.83855
G1 X119.644 Y104.588 E11.8699
G1 X120.671 Y103.526 E11.89939
G1 X122.023 Y102.891 E11.92919
G1 X124.314 Y102.636 E11.9752
G1 X124.321 Y98.18 E12.06412
G1 X125.047 Y98.18 E12.07861
G1 X125.05 Y102.585 E12.16651
G1 X130.05 Y102.585 E12.26629
G1 X130.053 Y98.183 E12.35414
G1 X130.775 Y98.188 E12.36855
G1 X130.78 Y112.045 E12.64508
G1 X130.659 Y113.332 E12.67088
G1 X130.135 Y114.945 E12.70472
G1 X129.232 Y116.368 E12.73836
G1 X127.996 Y117.529 E12.7722
G1 X126.526 Y118.337 E12.80567
G1 X124.867 Y118.762 E12.83985
G1 X124.019 Y118.816 E12.85681
G1 X98.221 Y118.81 E13.37163
G1 X98.217 Y115.085 E13.44597
G1 X89.221 Y115.085 E13.62549
G1 X89.224 Y114.36 E13.63996
G1 X108.495 Y114.355 E14.02454
G1 X109.804 Y114.275 E14.05071
G1 X112.315 Y113.656 E14.10232
G1 X113.456 Y113.058 E14.12802
G0 F1350 X114.635 Y112.44
G0 F7500 X114.406 Y112.108
G1 F1500 X116.294 Y110.435 E14.17837
G1 X117.725 Y108.36 E14.22867
G1 X118.609 Y106.033 E14.27834
G1 X118.638 Y105.906 E14.28094
G1 X119.305 Y104.363 E14.31449
G1 X120.435 Y103.195 E14.34692
G1 X121.914 Y102.5 E14.37953
G1 X123.915 Y102.278 E14.41971
G1 X123.922 Y97.779 E14.50949
G1 X125.447 Y97.781 E14.53992
G1 X125.45 Y102.185 E14.62781
G1 X129.65 Y102.185 E14.71163
G1 X129.653 Y97.78 E14.79953
G1 X131.175 Y97.791 E14.82991
G1 X131.18 Y112.061 E15.11468
G1 X131.053 Y113.413 E15.14178
G1 X130.499 Y115.118 E15.17756
G1 X129.542 Y116.626 E15.2132
G1 X128.235 Y117.853 E15.24897
G1 X126.675 Y118.711 E15.2845
G1 X124.928 Y119.159 E15.32049
G1 X124.028 Y119.216 E15.33849
G1 X97.821 Y119.21 E15.86148
G1 X97.817 Y115.485 E15.93582
G1 X88.819 Y115.485 E16.11538
G1 X88.826 Y113.96 E16.14581
G1 X108.483 Y113.955 E16.53809
G1 X109.743 Y113.878 E16.56328
G1 X112.172 Y113.279 E16.61321
G1 X113.227 Y112.726 E16.63698
G0 F1350 X114.406 Y112.108
G0 F7500 X114.177 Y111.776
;TYPE:WALL-OUTER
G1 F1500 X115.992 Y110.168 E16.68295
G1 X117.368 Y108.173 E16.72889
G1 X118.225 Y105.916 E16.77466
G1 X118.256 Y105.782 E16.77727
