;FLAVOR:Marlin
;TIME:3636
;Filament used: 3.12717m
;Layer height: 0.2
;MINX:57.039
;MINY:84
;MINZ:0.2
;MAXX:162.942
;MAXY:135.399
;MAXZ:20
;POSTPROCESSED
;ChangeAtZ instances: 1
;Generated with Cura_SteamEngine 4.5.0
M82 ;absolute extrusion mode
M201 X500.00 Y500.00 Z100.00 E5000.00 ;Setup machine max acceleration
M203 X500.00 Y500.00 Z10.00 E50.00 ;Setup machine max feedrate
M204 P500.00 R1000.00 T500.00 ;Setup Print/Retract/Travel acceleration
M205 X8.00 Y8.00 Z0.40 E5.00 ;Setup Jerk
M220 S100 ;Reset Feedrate
M221 S100 ;Reset Flowrate
M140 S50; start preheating the bed
M104 S200 T0; start preheating hotend
G28 ;Home
G1 Z2.0 F3000 ;Move Z Axis up
M190 S50; heat to bed setting in Cura and WAIT
M109 S200 T0; heat hotend to setting in Cura and WAIT
G92 E0 ;Reset Extruder
G1 Z2.0 F3000 ;Move Z Axis up
G1 X210 Y20 Z0.28 F5000.0 ;Move to start position
G1 X210 Y200.0 Z0.28 F1500.0 E15 ;Draw the first line
G1 X210 Y200.0 Z0.28 F5000.0 ;Move to side a little
G1 X210 Y20 Z0.28 F1500.0 E30 ;Draw the second line
G92 E0 ;Reset Extruder
G1 Z2.0 F3000 ;Move Z Axis up
G92 E0
G92 E0
G1 F2700 E-5
;LAYER_COUNT:100
;LAYER:0
M107
G0 F6000 X64.755 Y85.93 Z0.2
;TYPE:SKIRT
G1 F2700 E0
G1 F1200 X65.551 Y85.434 E0.03119
G1 X66.387 Y85.008 E0.0624
G1 X67.255 Y84.654 E0.09358
G1 X68.151 Y84.376 E0.12478
G1 X69.067 Y84.175 E0.15597
G1 X69.997 Y84.053 E0.18717
G1 X70.777 Y84.012 E0.21315
G1 X71.552 Y84 E0.23893
G1 X121.683 Y84.001 E1.90629
G1 X122.361 Y84.011 E1.92885
G1 X123.298 Y84.065 E1.96006
G1 X124.226 Y84.198 E1.99124
G1 X125.139 Y84.41 E2.02242
G1 X126.032 Y84.699 E2.05364
G1 X126.896 Y85.063 E2.08482
G1 X127.478 Y85.359 E2.10654
G1 X128.626 Y85.99 E2.15011
G1 X129.461 Y86.471 E2.18216
G1 X132.146 Y88.034 E2.28549
G1 X156.329 Y102.002 E3.21435
G1 X156.899 Y102.342 E3.23642
G1 X157.683 Y102.856 E3.2676
G1 X158.217 Y103.265 E3.28997
G1 X158.548 Y103.535 E3.30418
G1 X159.249 Y104.158 E3.33537
G1 X159.894 Y104.839 E3.36657
G1 X160.553 Y105.675 E3.40198
G1 X160.734 Y105.929 E3.41235
G1 X161.245 Y106.716 E3.44356
G1 X161.688 Y107.543 E3.47476
G1 X161.981 Y108.207 E3.4989
G1 X162.121 Y108.555 E3.51138
G1 X162.434 Y109.44 E3.5426
G1 X162.67 Y110.347 E3.57377
G1 X162.826 Y111.258 E3.60451
G1 X162.862 Y111.538 E3.6139
G1 X162.942 Y112.473 E3.64512
G1 X162.942 Y113.411 E3.67631
G1 X162.899 Y114.022 E3.69669
G1 X162.858 Y114.437 E3.71056
G1 X162.726 Y115.366 E3.74176
G1 X162.515 Y116.28 E3.77296
G1 X162.2 Y117.247 E3.80679
G1 X162.096 Y117.522 E3.81657
G1 X161.727 Y118.384 E3.84776
G1 X161.286 Y119.212 E3.87896
G1 X160.955 Y119.74 E3.89968
G1 X160.758 Y120.035 E3.91148
G1 X160.204 Y120.792 E3.94268
G1 X159.588 Y121.499 E3.97387
G1 X158.973 Y122.099 E4.00245
G1 X158.751 Y122.299 E4.01239
G1 X158.028 Y122.896 E4.04357
G1 X157.257 Y123.43 E4.07477
G1 X156.735 Y123.739 E4.09494
G1 X156.379 Y123.937 E4.10849
G1 X155.54 Y124.358 E4.13971
G1 X154.669 Y124.705 E4.1709
G1 X153.666 Y125.004 E4.20571
G1 X153.366 Y125.078 E4.21598
G1 X152.447 Y125.263 E4.24716
G1 X151.515 Y125.37 E4.27836
G1 X150.764 Y125.398 E4.30336
G1 X150.418 Y125.399 E4.31487
G1 X149.481 Y125.362 E4.34606
G1 X148.55 Y125.245 E4.37727
G1 X147.782 Y125.086 E4.40335
G1 X147.429 Y125 E4.41544
G1 X146.95 Y124.872 E4.43193
G1 X146.441 Y124.723 E4.44957
G1 X143.888 Y124.016 E4.53767
G1 X141.454 Y123.415 E4.62106
G1 X138.998 Y122.879 E4.70467
G1 X136.531 Y122.419 E4.78814
G1 X134.021 Y122.021 E4.87266
G1 X131.56 Y121.702 E4.9552
G1 X129.032 Y121.446 E5.03971
G1 X126.534 Y121.265 E5.12302
G1 X124.038 Y121.155 E5.20611
G1 X121.479 Y121.114 E5.29124
G1 X118.991 Y121.145 E5.37399
G1 X116.472 Y121.247 E5.45785
G1 X113.953 Y121.422 E5.54183
G1 X111.432 Y121.668 E5.62608
G1 X108.981 Y121.977 E5.70824
G1 X106.446 Y122.371 E5.79357
G1 X103.991 Y122.822 E5.87659
G1 X101.537 Y123.347 E5.96006
G1 X99.113 Y123.937 E6.04303
G1 X96.65 Y124.61 E6.12796
G1 X94.255 Y125.338 E6.21121
G1 X91.858 Y126.142 E6.2953
G1 X89.498 Y127.008 E6.37891
G1 X87.15 Y127.947 E6.46302
G1 X84.857 Y128.94 E6.54613
G1 X82.551 Y130.015 E6.63075
G1 X80.319 Y131.135 E6.71381
G1 X78.132 Y132.311 E6.7964
G1 X76.054 Y133.506 E6.87613
G1 X75.248 Y133.951 E6.90675
G1 X74.408 Y134.369 E6.93796
G1 X73.536 Y134.714 E6.96915
G1 X72.599 Y134.993 E7.00167
G1 X72.291 Y135.07 E7.01223
G1 X71.372 Y135.258 E7.04342
G1 X70.441 Y135.368 E7.07461
G1 X69.655 Y135.398 E7.10077
G1 X69.31 Y135.399 E7.11224
G1 X68.373 Y135.362 E7.14343
G1 X67.442 Y135.245 E7.17464
G1 X66.708 Y135.095 E7.19956
G1 X66.375 Y135.015 E7.21095
G1 X65.474 Y134.757 E7.24212
G1 X64.597 Y134.423 E7.27333
G1 X63.878 Y134.083 E7.29979
G1 X63.614 Y133.946 E7.30968
G1 X62.801 Y133.479 E7.34086
G1 X62.03 Y132.944 E7.37207
G1 X61.584 Y132.587 E7.39108
G1 X61.282 Y132.332 E7.40422
G1 X60.592 Y131.697 E7.43541
G1 X59.959 Y131.005 E7.4666
G1 X59.3 Y130.137 E7.50285
G1 X59.116 Y129.868 E7.51369
G1 X58.62 Y129.072 E7.54489
G1 X58.193 Y128.237 E7.57608
G1 X57.914 Y127.569 E7.60016
G1 X57.809 Y127.293 E7.60998
G1 X57.513 Y126.403 E7.64117
G1 X57.294 Y125.491 E7.67237
G1 X57.203 Y124.954 E7.69048
G1 X57.148 Y124.573 E7.70329
G1 X57.054 Y123.64 E7.73448
G1 X57.039 Y122.702 E7.76568
G1 X57.075 Y122.061 E7.78703
G1 X57.182 Y120.837 E7.8279
G1 X57.288 Y119.818 E7.86197
G1 X59.958 Y94.412 E8.71163
G1 X60.041 Y93.713 E8.73504
G1 X60.191 Y92.787 E8.76625
G1 X60.419 Y91.878 E8.79742
G1 X60.725 Y90.991 E8.82862
G1 X61.104 Y90.133 E8.85982
G1 X61.555 Y89.311 E8.89101
G1 X62.075 Y88.53 E8.92221
G1 X62.659 Y87.797 E8.95338
G1 X63.304 Y87.115 E8.9846
G1 X64.004 Y86.492 E9.01577
G1 X64.755 Y85.93 E9.04697
G0 F6000 X65.121 Y86.166
G1 F1200 X65.911 Y85.692 E9.07761
G1 X66.738 Y85.289 E9.10821
G1 X67.598 Y84.959 E9.13885
G1 X68.483 Y84.704 E9.16948
G1 X69.386 Y84.528 E9.20008
G1 X70.302 Y84.431 E9.23072
G1 X70.784 Y84.412 E9.24676
G1 X71.552 Y84.4 E9.27231
G1 X121.677 Y84.401 E10.93947
G1 X122.355 Y84.411 E10.96202
G1 X123.274 Y84.465 E10.99264
G1 X124.185 Y84.598 E11.02326
G1 X125.081 Y84.809 E11.05388
G1 X125.956 Y85.098 E11.08453
G1 X126.802 Y85.461 E11.11515
G1 X127.286 Y85.71 E11.13325
G1 X128.426 Y86.337 E11.17652
G1 X129.261 Y86.818 E11.20858
G1 X131.946 Y88.381 E11.31191
G1 X156.124 Y102.346 E12.24057
G1 X156.694 Y102.686 E12.26265
G1 X157.464 Y103.191 E12.29327
G1 X157.964 Y103.575 E12.31424
G1 X158.295 Y103.845 E12.32845
G1 X158.983 Y104.457 E12.35908
G1 X159.614 Y105.127 E12.38969
G1 X160.227 Y105.908 E12.42271
G1 X160.408 Y106.162 E12.43308
G1 X160.91 Y106.934 E12.46371
G1 X161.342 Y107.747 E12.49433
G1 X161.61 Y108.357 E12.51649
G1 X161.75 Y108.705 E12.52897
G1 X162.056 Y109.573 E12.55958
G1 X162.286 Y110.465 E12.59022
G1 X162.429 Y111.309 E12.61869
G1 X162.465 Y111.589 E12.62808
G1 X162.543 Y112.507 E12.65872
G1 X162.541 Y113.427 E12.68932
G1 X162.501 Y113.983 E12.70786
G1 X162.46 Y114.398 E12.72173
G1 X162.329 Y115.31 E12.75238
G1 X162.121 Y116.206 E12.78297
G1 X161.826 Y117.106 E12.81447
G1 X161.722 Y117.381 E12.82425
G1 X161.359 Y118.227 E12.85487
G1 X160.924 Y119.038 E12.88548
G1 X160.622 Y119.518 E12.90434
G1 X160.425 Y119.813 E12.91614
G1 X159.881 Y120.555 E12.94674
G1 X159.275 Y121.248 E12.97736
G1 X158.705 Y121.801 E13.00377
G1 X158.483 Y122.001 E13.01371
G1 X157.773 Y122.587 E13.04433
G1 X157.015 Y123.109 E13.07494
G1 X156.54 Y123.39 E13.0933
G1 X156.184 Y123.588 E13.10685
G1 X155.361 Y124 E13.13746
G1 X154.505 Y124.339 E13.16808
G1 X153.571 Y124.616 E13.20048
G1 X153.271 Y124.69 E13.21076
G1 X152.368 Y124.871 E13.24139
G1 X151.453 Y124.973 E13.27201
G1 X150.763 Y124.998 E13.29498
G1 X150.417 Y124.999 E13.30648
G1 X149.497 Y124.962 E13.33711
G1 X148.584 Y124.845 E13.36772
G1 X147.877 Y124.698 E13.39174
G1 X147.524 Y124.612 E13.40383
G1 X147.062 Y124.488 E13.41974
G1 X146.512 Y124.327 E13.4388
G1 X144.019 Y123.637 E13.52483
G1 X141.564 Y123.031 E13.60894
G1 X139.053 Y122.483 E13.69442
G1 X136.596 Y122.024 E13.77755
G1 X134.104 Y121.63 E13.86147
G1 X131.58 Y121.302 E13.94612
G1 X129.065 Y121.047 E14.0302
G1 X126.58 Y120.868 E14.11306
G1 X124.028 Y120.755 E14.19803
G1 X121.48 Y120.714 E14.28278
G1 X118.971 Y120.745 E14.36624
G1 X116.462 Y120.847 E14.44976
G1 X113.922 Y121.023 E14.53444
G1 X111.415 Y121.268 E14.61822
G1 X108.867 Y121.589 E14.70364
G1 X106.424 Y121.968 E14.78587
G1 X103.907 Y122.432 E14.87099
G1 X101.431 Y122.961 E14.9552
G1 X99.01 Y123.55 E15.03807
G1 X96.533 Y124.227 E15.12348
G1 X94.127 Y124.959 E15.20713
G1 X91.73 Y125.762 E15.29121
G1 X89.348 Y126.637 E15.37561
G1 X87.021 Y127.567 E15.45896
G1 X84.678 Y128.581 E15.54387
G1 X82.396 Y129.646 E15.62763
G1 X80.143 Y130.776 E15.71146
G1 X77.908 Y131.978 E15.79587
G1 X75.86 Y133.156 E15.87445
G1 X75.054 Y133.601 E15.90507
G1 X74.23 Y134.01 E15.93567
G1 X73.373 Y134.347 E15.96629
G1 X72.502 Y134.605 E15.99651
G1 X72.194 Y134.682 E16.00707
G1 X71.292 Y134.866 E16.03769
G1 X70.377 Y134.971 E16.06832
G1 X69.654 Y134.998 E16.09238
G1 X69.309 Y134.999 E16.10386
G1 X68.389 Y134.962 E16.13448
G1 X67.476 Y134.845 E16.1651
G1 X66.802 Y134.706 E16.18799
G1 X66.469 Y134.626 E16.19938
G1 X65.584 Y134.372 E16.23
G1 X64.724 Y134.042 E16.26064
G1 X64.063 Y133.728 E16.28498
G1 X63.799 Y133.591 E16.29487
G1 X63.001 Y133.131 E16.3255
G1 X62.245 Y132.605 E16.35614
G1 X61.842 Y132.281 E16.37333
G1 X61.54 Y132.026 E16.38648
G1 X60.863 Y131.402 E16.4171
G1 X60.243 Y130.722 E16.44771
G1 X59.63 Y129.911 E16.48152
G1 X59.446 Y129.642 E16.49236
G1 X58.96 Y128.861 E16.52296
G1 X58.543 Y128.04 E16.55358
G1 X58.288 Y127.427 E16.57567
G1 X58.183 Y127.151 E16.58549
G1 X57.893 Y126.277 E16.61612
G1 X57.68 Y125.381 E16.64675
G1 X57.599 Y124.896 E16.6631
G1 X57.544 Y124.515 E16.67591
G1 X57.452 Y123.599 E16.70653
G1 X57.44 Y122.679 E16.73713
G1 X57.474 Y122.095 E16.75658
G1 X57.58 Y120.878 E16.79722
G1 X57.686 Y119.859 E16.83129
G1 X60.355 Y94.459 E17.68075
G1 X60.438 Y93.76 E17.70416
G1 X60.586 Y92.851 E17.73479
G1 X60.813 Y91.959 E17.76541
G1 X61.116 Y91.09 E17.79602
G1 X61.493 Y90.25 E17.82664
G1 X61.942 Y89.446 E17.85727
G1 X62.458 Y88.684 E17.88788
G1 X63.039 Y87.97 E17.91849
G1 X63.68 Y87.309 E17.94912
G1 X64.376 Y86.706 E17.97975
G1 X65.121 Y86.166 E18.01035
G0 F6000 X65.486 Y86.406
G1 F1200 X66.269 Y85.955 E18.0404
G1 X67.088 Y85.575 E18.07043
G1 X67.938 Y85.269 E18.10048
G1 X68.811 Y85.04 E18.1305
G1 X69.702 Y84.888 E18.16056
G1 X70.791 Y84.811 E18.19687
G1 X71.552 Y84.8 E18.22219
G1 X121.671 Y84.801 E19.88915
G1 X122.349 Y84.811 E19.9117
G1 X123.251 Y84.864 E19.94176
G1 X124.144 Y84.997 E19.97178
G1 X125.022 Y85.209 E20.00183
G1 X125.878 Y85.497 E20.03186
G1 X127.094 Y86.061 E20.07645
G1 X128.226 Y86.684 E20.11942
G1 X129.061 Y87.165 E20.15147
G1 X131.746 Y88.727 E20.25479
G1 X155.919 Y102.689 E21.18326
G1 X156.489 Y103.029 E21.20534
G1 X157.244 Y103.526 E21.2354
G1 X157.711 Y103.885 E21.25499
G1 X158.042 Y104.155 E21.2692
G1 X158.716 Y104.756 E21.29923
G1 X159.334 Y105.415 E21.32928
G1 X159.902 Y106.14 E21.35991
G1 X160.083 Y106.394 E21.37029
G1 X160.574 Y107.152 E21.40033
G1 X160.996 Y107.95 E21.43035
G1 X161.239 Y108.506 E21.45053
G1 X161.379 Y108.854 E21.46301
G1 X161.679 Y109.706 E21.49305
G1 X161.902 Y110.581 E21.52308
G1 X162.033 Y111.36 E21.54936
G1 X162.069 Y111.64 E21.55875
G1 X162.144 Y112.54 E21.58879
G1 X162.14 Y113.443 E21.61882
G1 X162.103 Y113.944 E21.63553
G1 X162.062 Y114.359 E21.6494
G1 X161.933 Y115.253 E21.67944
G1 X161.726 Y116.132 E21.70948
G1 X161.452 Y116.964 E21.73861
G1 X161.348 Y117.239 E21.74839
G1 X160.991 Y118.069 E21.77844
G1 X160.562 Y118.864 E21.80849
G1 X160.289 Y119.296 E21.82548
G1 X160.092 Y119.591 E21.83728
G1 X159.558 Y120.319 E21.86731
G1 X158.962 Y120.997 E21.89734
G1 X158.437 Y121.504 E21.92161
G1 X158.215 Y121.704 E21.93155
G1 X157.518 Y122.278 E21.96158
G1 X156.773 Y122.789 E21.99163
G1 X156.346 Y123.04 E22.0081
G1 X155.99 Y123.238 E22.02165
G1 X155.182 Y123.642 E22.0517
G1 X154.341 Y123.972 E22.08174
G1 X153.475 Y124.227 E22.11177
G1 X153.175 Y124.301 E22.12205
G1 X152.289 Y124.478 E22.1521
G1 X151.391 Y124.577 E22.18215
G1 X150.761 Y124.598 E22.20311
G1 X150.415 Y124.599 E22.21462
G1 X149.513 Y124.562 E22.24465
G1 X148.618 Y124.445 E22.27467
G1 X147.972 Y124.309 E22.29662
G1 X147.619 Y124.223 E22.30871
G1 X147.174 Y124.104 E22.32403
G1 X146.649 Y123.951 E22.34222
G1 X144.117 Y123.249 E22.42961
G1 X141.632 Y122.636 E22.51474
G1 X139.12 Y122.088 E22.60025
G1 X136.695 Y121.635 E22.6823
G1 X134.141 Y121.231 E22.76831
G1 X131.636 Y120.905 E22.85233
G1 X129.102 Y120.649 E22.93704
G1 X126.592 Y120.467 E23.02074
G1 X124.05 Y120.355 E23.10537
G1 X121.482 Y120.314 E23.19079
G1 X118.985 Y120.345 E23.27385
G1 X116.419 Y120.449 E23.35926
G1 X113.889 Y120.624 E23.44361
G1 X111.362 Y120.871 E23.52806
G1 X108.827 Y121.191 E23.61304
G1 X106.356 Y121.575 E23.69622
G1 X103.822 Y122.041 E23.78191
G1 X101.358 Y122.567 E23.86571
G1 X98.891 Y123.168 E23.95016
G1 X96.449 Y123.835 E24.03436
G1 X93.989 Y124.583 E24.11988
G1 X91.601 Y125.384 E24.20365
G1 X89.21 Y126.262 E24.28837
G1 X86.85 Y127.205 E24.3729
G1 X84.529 Y128.21 E24.45702
G1 X82.198 Y129.297 E24.54257
G1 X79.966 Y130.417 E24.62562
G1 X77.724 Y131.623 E24.7103
G1 X75.667 Y132.805 E24.7892
G1 X74.861 Y133.25 E24.81983
G1 X74.052 Y133.652 E24.84987
G1 X73.21 Y133.979 E24.87992
G1 X72.405 Y134.216 E24.90783
G1 X72.097 Y134.293 E24.91839
G1 X71.212 Y134.473 E24.94842
G1 X70.314 Y134.575 E24.97848
G1 X69.653 Y134.598 E25.00048
G1 X69.308 Y134.599 E25.01196
G1 X68.405 Y134.562 E25.04202
G1 X67.51 Y134.445 E25.07204
G1 X66.895 Y134.317 E25.09293
G1 X66.562 Y134.237 E25.10432
G1 X65.694 Y133.987 E25.13436
G1 X64.852 Y133.662 E25.16438
G1 X64.247 Y133.373 E25.18668
G1 X63.983 Y133.236 E25.19658
G1 X63.2 Y132.784 E25.22665
G1 X62.461 Y132.266 E25.25666
G1 X62.1 Y131.975 E25.27208
G1 X61.798 Y131.72 E25.28523
G1 X61.135 Y131.108 E25.31524
G1 X60.528 Y130.439 E25.34529
G1 X59.96 Y129.686 E25.37666
G1 X59.776 Y129.417 E25.3875
G1 X59.3 Y128.649 E25.41755
G1 X58.893 Y127.843 E25.44758
G1 X58.662 Y127.285 E25.46767
G1 X58.557 Y127.009 E25.47749
G1 X58.273 Y126.151 E25.50755
G1 X57.995 Y124.839 E25.55215
G1 X57.94 Y124.458 E25.56496
G1 X57.85 Y123.56 E25.59498
G1 X57.841 Y122.657 E25.62501
G1 X57.872 Y122.129 E25.6426
G1 X57.978 Y120.92 E25.68297
G1 X58.084 Y119.901 E25.71704
G1 X60.752 Y94.506 E26.56633
G1 X60.835 Y93.807 E26.58974
G1 X60.981 Y92.916 E26.61977
G1 X61.206 Y92.041 E26.64982
G1 X61.506 Y91.19 E26.67984
G1 X61.881 Y90.368 E26.70989
G1 X62.328 Y89.583 E26.73993
G1 X62.841 Y88.84 E26.76996
G1 X63.419 Y88.146 E26.8
G1 X64.056 Y87.506 E26.83003
G1 X64.747 Y86.924 E26.86008
G1 X65.486 Y86.406 E26.8901
G1 F2700 E21.8901
;MESH:CE5_Bowden_Tube_Protector_V3.3mf
G0 F6000 X71.329 Y94.335
G0 X71.329 Y95.414
G0 X69.207 Y123.057
G0 X69.249 Y123.104
G0 X69.582 Y123.387
;TYPE:WALL-INNER
G1 F2700 E26.8901
G1 F1200 X69.494 Y123.409 E26.89312
G1 X69.386 Y123.409 E26.89671
G1 X69.297 Y123.387 E26.89976
G1 X69.206 Y123.339 E26.90318
G1 X69.132 Y123.274 E26.90646
G1 X69.076 Y123.193 E26.90973
G1 X69.04 Y123.098 E26.91311
G1 X69.025 Y122.977 E26.91717
G1 X69.224 Y121.059 E26.9813
G1 X71.856 Y96 E27.81935
G1 X121.959 Y96 E29.48578
G1 X123.47 Y96.87 E29.54377
G1 X126.025 Y98.358 E29.64212
G1 X147.492 Y110.751 E30.46655
G1 X150.743 Y112.633 E30.59149
G1 X150.863 Y112.734 E30.59671
G1 X150.913 Y112.807 E30.59965
G1 X150.949 Y112.902 E30.60303
G1 X150.96 Y113 E30.60631
G1 X150.949 Y113.098 E30.60959
G1 X150.913 Y113.193 E30.61297
G1 X150.858 Y113.272 E30.61617
G1 X150.782 Y113.339 E30.61954
G1 X150.691 Y113.387 E30.62296
G1 X150.603 Y113.409 E30.62598
G1 X150.498 Y113.409 E30.62947
G1 X150.384 Y113.38 E30.63338
G1 X150.295 Y113.339 E30.63664
G1 X130.452 Y101.879 E31.39878
G1 X130.02 Y101.67 E31.41474
G1 X129.446 Y101.497 E31.43468
G1 X128.879 Y101.423 E31.4537
G1 X128.746 Y101.419 E31.45813
G1 X75.321 Y101.418 E33.23505
G1 X74.887 Y101.447 E33.24952
G1 X74.304 Y101.572 E33.26935
G1 X73.741 Y101.801 E33.28956
G1 X73.225 Y102.117 E33.30969
G1 X72.766 Y102.519 E33.32998
G1 X72.386 Y102.993 E33.35019
G1 X72.087 Y103.522 E33.3704
G1 X71.886 Y104.093 E33.39053
G1 X71.797 Y104.59 E33.40733
G1 X69.849 Y123.075 E34.02554
G1 X69.804 Y123.192 E34.02971
G1 X69.747 Y123.275 E34.03306
