;FLAVOR:Marlin
;TIME:5878
;Filament used: 4.11101m
;Layer height: 0.2
;MINX:67.951
;MINY:75.639
;MINZ:0.25
;MAXX:154.199
;MAXY:144.204
;MAXZ:38.45
;Generated with Cura_SteamEngine 4.5.0
M82 ;absolute extrusion mode
M201 X500.00 Y500.00 Z100.00 E5000.00 ;Setup machine max acceleration
M203 X500.00 Y500.00 Z10.00 E50.00 ;Setup machine max feedrate
M204 P500.00 R1000.00 T500.00 ;Setup Print/Retract/Travel acceleration
M205 X8.00 Y8.00 Z0.40 E5.00 ;Setup Jerk
M220 S100 ;Reset Feedrate
M221 S100 ;Reset Flowrate

M140 S50; start preheating the bed
M104 S220 T0; start preheating hotend
G28 ;Home
G1 Z2.0 F3000 ;Move Z Axis up
M190 S50; heat to bed setting in Cura and WAIT
M109 S220 T0; heat hotend to setting in Cura and WAIT


G92 E0 ;Reset Extruder
G1 Z2.0 F3000 ;Move Z Axis up
G1 X210 Y20 Z0.28 F5000.0 ;Move to start position
G1 X210 Y200.0 Z0.28 F1500.0 E15 ;Draw the first line
G1 X210 Y200.0 Z0.28 F5000.0 ;Move to side a little
G1 X210 Y20 Z0.28 F1500.0 E30 ;Draw the second line
G92 E0 ;Reset Extruder
G1 Z2.0 F3000 ;Move Z Axis up
G92 E0
G92 E0
G1 F3000 E-7.5
;LAYER_COUNT:192
;LAYER:0
M107
M204 S500
G0 F6000 X72.427 Y79.03 Z0.25
;TYPE:SKIRT
G1 F2700 E0
G1 F2400 X72.929 Y78.623 E0.02687
G1 X73.11 Y78.485 E0.03633
G1 X74.237 Y77.734 E0.09264
G1 X74.625 Y77.51 E0.11126
G1 X75.513 Y77.052 E0.1528
G1 X75.714 Y76.96 E0.16199
G1 X76.567 Y76.613 E0.20028
G1 X77.509 Y76.326 E0.24122
G1 X77.976 Y76.207 E0.26126
G1 X79.005 Y75.999 E0.3049
G1 X79.203 Y75.969 E0.31323
G1 X79.574 Y75.919 E0.32879
G1 X80.847 Y75.773 E0.38206
G1 X81.528 Y75.704 E0.41052
G1 X82.444 Y75.651 E0.44867
G1 X83.358 Y75.639 E0.48667
G1 X88.995 Y75.64 E0.72103
G1 X89.693 Y75.65 E0.75005
G1 X90.612 Y75.703 E0.78832
G1 X91.586 Y75.848 E0.82926
G1 X92.064 Y75.942 E0.84952
G1 X92.959 Y76.159 E0.88781
G1 X93.71 Y76.406 E0.92067
G1 X93.99 Y76.51 E0.93309
G1 X95.014 Y76.953 E0.97948
G1 X95.314 Y77.102 E0.9934
G1 X96.122 Y77.549 E1.0318
G1 X96.294 Y77.654 E1.04017
G1 X97.324 Y78.369 E1.0923
G1 X97.516 Y78.52 E1.10246
G1 X98.376 Y79.275 E1.15004
G1 X98.608 Y79.502 E1.16353
G1 X99.071 Y79.985 E1.19135
G1 X99.638 Y80.615 E1.22659
G1 X100.585 Y81.654 E1.28503
G1 X102.363 Y83.516 E1.39207
G1 X104.166 Y85.301 E1.49755
G1 X106.033 Y87.049 E1.60388
G1 X107.889 Y88.688 E1.70683
G1 X109.843 Y90.319 E1.81265
G1 X111.834 Y91.887 E1.91801
G1 X113.877 Y93.404 E2.0238
G1 X115.92 Y94.833 E2.12746
G1 X118.036 Y96.228 E2.23283
G1 X120.225 Y97.581 E2.33982
G1 X122.36 Y98.818 E2.4424
G1 X124.612 Y100.042 E2.54897
G1 X126.85 Y101.176 E2.65327
G1 X129.166 Y102.269 E2.75975
G1 X131.439 Y103.265 E2.86292
G1 X133.829 Y104.231 E2.97009
G1 X136.189 Y105.109 E3.07478
G1 X138.543 Y105.909 E3.17815
G1 X140.967 Y106.658 E3.28363
G1 X144.396 Y107.592 E3.43138
G1 X145.986 Y107.993 E3.49956
G1 X146.869 Y108.257 E3.53787
G1 X147.724 Y108.596 E3.57611
G1 X148.548 Y109.008 E3.61441
G1 X149.332 Y109.489 E3.65265
G1 X150.072 Y110.038 E3.69096
G1 X150.941 Y110.826 E3.73973
G1 X151.093 Y110.98 E3.74873
G1 X151.711 Y111.663 E3.78702
G1 X152.267 Y112.396 E3.82527
G1 X152.757 Y113.175 E3.86353
G1 X153.178 Y113.994 E3.90182
G1 X153.526 Y114.847 E3.94012
G1 X153.799 Y115.726 E3.97839
G1 X153.995 Y116.625 E4.01664
G1 X154.14 Y117.983 E4.07342
G1 X154.19 Y119.179 E4.12319
G1 X154.199 Y119.622 E4.14161
G1 X154.198 Y132.686 E4.68475
G1 X154.189 Y133.362 E4.71286
G1 X154.137 Y134.281 E4.75112
G1 X154.005 Y135.192 E4.7894
G1 X153.834 Y135.945 E4.8215
G1 X153.784 Y136.133 E4.82959
G1 X153.509 Y137.012 E4.86788
G1 X153.159 Y137.863 E4.90613
G1 X152.736 Y138.681 E4.94442
G1 X152.244 Y139.459 E4.98269
G1 X151.686 Y140.192 E5.02099
G1 X151.067 Y140.873 E5.05925
G1 X150.39 Y141.498 E5.09756
G1 X149.663 Y142.062 E5.13581
G1 X149.046 Y142.467 E5.1665
G1 X148.768 Y142.636 E5.18002
G1 X147.962 Y143.079 E5.21826
G1 X147.119 Y143.451 E5.25657
G1 X146.248 Y143.749 E5.29484
G1 X145.354 Y143.969 E5.33312
G1 X144.445 Y144.112 E5.37138
G1 X143.906 Y144.158 E5.39387
G1 X143.512 Y144.182 E5.41028
G1 X142.869 Y144.202 E5.43702
G1 X94.578 Y144.204 E7.44473
G1 X93.885 Y144.194 E7.47354
G1 X92.966 Y144.141 E7.51182
G1 X92.055 Y144.008 E7.55009
G1 X90.901 Y143.72 E7.59954
G1 X90.688 Y143.654 E7.60881
G1 X89.821 Y143.344 E7.64709
G1 X88.984 Y142.959 E7.6854
G1 X88.445 Y142.662 E7.71098
G1 X87.945 Y142.366 E7.73514
G1 X87.031 Y141.809 E7.77964
G1 X86.604 Y141.556 E7.80027
G1 X85.833 Y141.052 E7.83857
G1 X85.109 Y140.484 E7.87683
G1 X84.437 Y139.855 E7.91509
G1 X83.822 Y139.17 E7.95337
G1 X83.269 Y138.434 E7.99164
G1 X82.778 Y137.647 E8.03021
G1 X81.768 Y135.857 E8.11566
G1 X73.27 Y121.001 E8.82721
G1 X71.93 Y118.733 E8.93673
G1 X71.47 Y118.001 E8.97267
G1 X71.113 Y117.414 E9.00123
G1 X70.786 Y116.835 E9.02888
G1 X70.225 Y115.767 E9.07904
G1 X70.053 Y115.426 E9.09491
G1 X69.533 Y114.343 E9.14486
G1 X69.171 Y113.497 E9.18312
G1 X68.884 Y112.622 E9.2214
G1 X68.637 Y111.519 E9.2684
G1 X68.463 Y110.478 E9.31228
G1 X68.078 Y107.911 E9.42019
G1 X68.051 Y107.691 E9.42941
G1 X67.992 Y107.058 E9.45584
G1 X67.978 Y106.833 E9.46521
G1 X67.956 Y106.256 E9.48922
G1 X67.951 Y105.941 E9.50232
G1 X67.951 Y89.367 E10.19138
G1 X67.962 Y88.607 E10.22298
G1 X68.027 Y87.575 E10.26597
G1 X68.062 Y87.264 E10.27899
G1 X68.252 Y86.132 E10.32671
G1 X68.321 Y85.824 E10.33983
G1 X68.561 Y84.935 E10.37811
G1 X68.746 Y84.402 E10.40157
G1 X68.867 Y84.081 E10.41583
G1 X69.229 Y83.235 E10.45409
G1 X69.661 Y82.427 E10.49218
G1 X69.911 Y82.004 E10.51261
G1 X70.413 Y81.232 E10.5509
G1 X71.135 Y80.33 E10.59893
G1 X71.313 Y80.131 E10.61003
G1 X71.757 Y79.661 E10.63691
G1 X71.961 Y79.468 E10.64859
G0 F2160 X72.427 Y79.03
G0 F6000 X72.702 Y79.321
G1 F2400 X73.172 Y78.941 E10.67372
G1 X73.353 Y78.803 E10.68318
G1 X74.437 Y78.08 E10.73735
G1 X74.825 Y77.856 E10.75598
G1 X75.68 Y77.415 E10.79597
G1 X75.881 Y77.323 E10.80516
G1 X76.718 Y76.984 E10.84271
G1 X77.607 Y76.714 E10.88134
G1 X78.074 Y76.595 E10.90137
G1 X79.065 Y76.394 E10.94341
G1 X79.263 Y76.364 E10.95174
G1 X79.62 Y76.316 E10.96671
G1 X80.888 Y76.171 E11.01977
G1 X81.569 Y76.102 E11.04823
G1 X82.45 Y76.051 E11.08492
G1 X83.358 Y76.039 E11.12267
G1 X88.989 Y76.04 E11.35678
G1 X89.687 Y76.05 E11.38581
G1 X90.589 Y76.103 E11.42337
G1 X91.509 Y76.241 E11.46205
G1 X91.987 Y76.335 E11.4823
G1 X92.865 Y76.548 E11.51986
G1 X93.571 Y76.781 E11.55077
G1 X93.851 Y76.885 E11.56319
G1 X94.836 Y77.312 E11.60783
G1 X95.136 Y77.461 E11.62175
G1 X95.914 Y77.89 E11.65869
G1 X96.086 Y77.995 E11.66707
G1 X97.076 Y78.683 E11.71719
G1 X97.268 Y78.834 E11.72734
G1 X98.096 Y79.561 E11.77315
G1 X98.328 Y79.788 E11.78665
G1 X98.774 Y80.252 E11.81341
G1 X99.382 Y80.927 E11.85118
G1 X100.282 Y81.916 E11.90677
G1 X102.11 Y83.83 E12.01681
G1 X103.875 Y85.577 E12.12005
G1 X105.724 Y87.308 E12.22536
G1 X107.652 Y89.011 E12.33231
G1 X109.602 Y90.638 E12.43789
G1 X111.593 Y92.206 E12.54326
G1 X113.615 Y93.708 E12.64798
G1 X115.717 Y95.179 E12.75464
G1 X117.851 Y96.585 E12.86089
G1 X119.978 Y97.9 E12.96485
G1 X122.19 Y99.182 E13.07115
G1 X124.419 Y100.393 E13.17661
G1 X126.677 Y101.537 E13.28185
G1 X128.971 Y102.62 E13.38732
G1 X131.308 Y103.643 E13.49338
G1 X133.676 Y104.601 E13.59958
G1 X136.027 Y105.475 E13.70386
G1 X138.444 Y106.297 E13.81
G1 X140.861 Y107.043 E13.91516
G1 X144.29 Y107.978 E14.06293
G1 X145.889 Y108.381 E14.13149
G1 X146.754 Y108.64 E14.16903
G1 X147.593 Y108.975 E14.20659
G1 X148.399 Y109.382 E14.24413
G1 X149.165 Y109.86 E14.28166
G1 X149.887 Y110.403 E14.31922
G1 X150.656 Y111.107 E14.36257
G1 X150.808 Y111.261 E14.37157
G1 X151.414 Y111.931 E14.40912
G1 X151.957 Y112.652 E14.44665
G1 X152.435 Y113.419 E14.48422
G1 X152.843 Y114.224 E14.52174
G1 X153.179 Y115.063 E14.55932
G1 X153.438 Y115.928 E14.59686
G1 X153.621 Y116.812 E14.63439
G1 X153.74 Y118 E14.68403
G1 X153.79 Y119.196 E14.7338
G1 X153.799 Y119.622 E14.75151
G1 X153.798 Y132.681 E15.29444
G1 X153.789 Y133.357 E15.32255
G1 X153.737 Y134.258 E15.36007
G1 X153.606 Y135.152 E15.39764
G1 X153.447 Y135.843 E15.42712
G1 X153.397 Y136.031 E15.4352
G1 X153.127 Y136.892 E15.47272
G1 X152.781 Y137.727 E15.5103
G1 X152.363 Y138.527 E15.54782
G1 X151.876 Y139.287 E15.58535
G1 X151.323 Y140.002 E15.62293
G1 X150.709 Y140.664 E15.66047
G1 X150.04 Y141.27 E15.698
G1 X149.319 Y141.814 E15.73555
G1 X148.838 Y142.125 E15.75936
G1 X148.56 Y142.294 E15.77289
G1 X147.769 Y142.728 E15.8104
G1 X146.942 Y143.091 E15.84795
G1 X146.086 Y143.379 E15.8855
G1 X145.208 Y143.591 E15.92305
G1 X143.882 Y143.759 E15.97862
G1 X143.488 Y143.783 E15.99503
G1 X142.869 Y143.802 E16.02078
G1 X94.584 Y143.804 E18.02823
G1 X93.891 Y143.794 E18.05705
G1 X92.989 Y143.741 E18.09461
G1 X92.096 Y143.608 E18.13215
G1 X91.019 Y143.338 E18.17831
G1 X90.806 Y143.272 E18.18758
G1 X89.956 Y142.967 E18.22513
G1 X89.136 Y142.588 E18.26268
G1 X88.648 Y142.318 E18.28587
G1 X88.153 Y142.025 E18.30979
G1 X87.201 Y141.445 E18.35613
G1 X86.808 Y141.212 E18.37513
G1 X86.052 Y140.717 E18.4127
G1 X85.343 Y140.158 E18.45023
G1 X84.687 Y139.538 E18.48776
G1 X84.087 Y138.862 E18.52534
G1 X83.55 Y138.136 E18.56288
G1 X83.127 Y137.45 E18.59639
G1 X82.147 Y135.713 E18.6793
G1 X73.562 Y120.707 E19.39806
G1 X72.28 Y118.538 E19.50281
G1 X71.812 Y117.793 E19.53939
G1 X71.455 Y117.206 E19.56796
G1 X71.14 Y116.649 E19.59456
G1 X70.579 Y115.581 E19.64472
G1 X70.414 Y115.253 E19.65998
G1 X69.894 Y114.17 E19.70993
G1 X69.54 Y113.339 E19.74748
G1 X69.26 Y112.481 E19.785
G1 X69.031 Y111.453 E19.82879
G1 X68.858 Y110.418 E19.87242
G1 X68.475 Y107.862 E19.97987
G1 X68.448 Y107.642 E19.98909
G1 X68.392 Y107.033 E20.01451
G1 X68.378 Y106.808 E20.02388
G1 X68.356 Y106.244 E20.04735
G1 X68.351 Y105.941 E20.05995
G1 X68.351 Y89.372 E20.74881
G1 X68.362 Y88.612 E20.78041
G1 X68.425 Y87.619 E20.82178
G1 X68.46 Y87.308 E20.83479
G1 X68.643 Y86.219 E20.8807
G1 X68.712 Y85.911 E20.89382
G1 X68.948 Y85.04 E20.93134
G1 X69.121 Y84.543 E20.95322
G1 X69.242 Y84.222 E20.96748
G1 X69.597 Y83.392 E21.00501
G1 X70.005 Y82.63 E21.04095
G1 X70.255 Y82.207 E21.06137
G1 X70.748 Y81.451 E21.0989
G1 X71.434 Y80.597 E21.14444
G1 X71.612 Y80.398 E21.15554
G1 X72.044 Y79.94 E21.18171
G1 X72.236 Y79.759 E21.19269
G0 F2160 X72.702 Y79.321
G0 F6000 X79.518 Y87.162
G1 F2400 X79.716 Y87.016 E21.20291
G1 X79.82 Y86.949 E21.20806
G1 X80.022 Y86.846 E21.21748
G1 X80.171 Y86.782 E21.22423
G1 X80.387 Y86.717 E21.2336
G1 X80.574 Y86.674 E21.24158
G1 X82.625 Y86.439 E21.32741
G1 X89.539 Y86.439 E21.61486
G1 X89.719 Y86.462 E21.6224
G1 X89.871 Y86.497 E21.62889
G1 X90.08 Y86.562 E21.63799
G1 X90.285 Y86.646 E21.6472
G1 X90.501 Y86.758 E21.65732
G1 X90.671 Y86.862 E21.6656
G1 X90.799 Y86.962 E21.67235
G1 X90.957 Y87.107 E21.68127
G1 X91.096 Y87.264 E21.68999
G1 X91.258 Y87.462 E21.70062
G1 X91.374 Y87.647 E21.7097
G1 X91.448 Y87.788 E21.71632
G1 X91.538 Y88.011 E21.72632
G1 X91.585 Y88.151 E21.73246
G1 X91.649 Y88.424 E21.74412
G1 X91.683 Y88.702 E21.75576
G1 X91.681 Y101.175 E22.27433
G1 X91.62 Y101.55 E22.29012
G1 X91.62 Y107.054 E22.51895
G1 X91.679 Y107.195 E22.52531
G1 X91.961 Y107.477 E22.54189
G1 X92.102 Y107.536 E22.54824
G1 X95.808 Y107.536 E22.70232
G1 X96.197 Y107.471 E22.71872
G1 X96.443 Y107.531 E22.72925
G1 X112.387 Y107.536 E23.39212
G1 X112.686 Y107.553 E23.40457
G1 X112.838 Y107.568 E23.41092
G1 X112.974 Y107.599 E23.41672
G1 X113.221 Y107.673 E23.42744
G1 X113.427 Y107.758 E23.43671
G1 X113.651 Y107.883 E23.44737
G1 X113.764 Y107.954 E23.45292
G1 X113.937 Y108.083 E23.46189
G1 X114.104 Y108.244 E23.47153
G1 X114.209 Y108.356 E23.47792
G1 X114.324 Y108.512 E23.48598
G1 X114.432 Y108.677 E23.49417
G1 X114.555 Y108.903 E23.50487
G1 X114.603 Y109.022 E23.51021
G1 X114.694 Y109.287 E23.52185
G1 X114.728 Y109.452 E23.52886
G1 X114.755 Y109.674 E23.53816
G1 X114.764 Y109.855 E23.54569
G1 X114.764 Y116.355 E23.81593
G1 X114.82 Y116.494 E23.82216
G1 X115.514 Y117.216 E23.8638
G1 X92.572 Y117.214 E24.81761
G1 X92.431 Y117.273 E24.82397
G1 X91.845 Y117.859 E24.85842
G1 X91.786 Y118 E24.86478
G1 X91.785 Y131.619 E25.43099
G1 X80.53 Y111.944 E26.37336
G1 X80.497 Y111.901 E26.37562
G1 X80.231 Y111.636 E26.39123
G1 X79.33 Y109.825 E26.47532
G1 X79.864 Y109.53 E26.50069
G1 X79.961 Y109.405 E26.50726
G1 X80.061 Y109.019 E26.52384
G1 X80.036 Y108.862 E26.53045
G1 X79.012 Y107.235 E26.61038
G1 X78.931 Y107.068 E26.61809
G1 X78.871 Y106.928 E26.62443
G1 X78.839 Y106.821 E26.62907
G1 X78.792 Y106.606 E26.63822
G1 X78.755 Y106.329 E26.64984
G1 X78.751 Y106.252 E26.65304
G1 X78.75 Y88.82 E27.37778
G1 X78.761 Y88.61 E27.38652
G1 X78.784 Y88.448 E27.39333
G1 X78.832 Y88.249 E27.40184
G1 X78.894 Y88.047 E27.41062
G1 X78.952 Y87.912 E27.41673
G1 X79.063 Y87.701 E27.42664
G1 X79.101 Y87.646 E27.42942
G0 F2160 X79.214 Y87.479
G0 X79.431 Y87.243
G0 X79.518 Y87.162
G0 F6000 X79.768 Y87.475
G1 F2400 X79.951 Y87.341 E27.43885
G1 X80.023 Y87.295 E27.4424
G1 X80.192 Y87.208 E27.45031
G1 X80.309 Y87.158 E27.4556
G1 X80.486 Y87.105 E27.46328
G1 X80.644 Y87.069 E27.47002
G1 X82.644 Y86.839 E27.55371
G1 X89.512 Y86.839 E27.83925
G1 X89.651 Y86.857 E27.84508
G1 X89.766 Y86.883 E27.84998
G1 X89.95 Y86.941 E27.858
G1 X90.11 Y87.006 E27.86518
G1 X90.31 Y87.11 E27.87455
G1 X90.443 Y87.192 E27.88105
G1 X90.54 Y87.267 E27.88615
G1 X90.668 Y87.385 E27.89339
G1 X90.801 Y87.535 E27.90172
G1 X90.931 Y87.695 E27.91029
G1 X91.034 Y87.858 E27.91831
G1 X91.081 Y87.948 E27.92253
G1 X91.164 Y88.154 E27.93176
G1 X91.2 Y88.26 E27.93642
G1 X91.253 Y88.484 E27.94599
G1 X91.281 Y88.697 E27.95492
G1 X91.283 Y88.904 E27.96353
G1 X91.281 Y101.116 E28.47124
G1 X91.225 Y101.486 E28.4868
G1 X91.217 Y101.582 E28.4908
G1 X91.22 Y107.054 E28.7183
G1 X91.26 Y107.269 E28.7274
G1 X91.396 Y107.478 E28.73776
G1 X91.678 Y107.76 E28.75434
G1 X91.857 Y107.884 E28.7634
G1 X92.102 Y107.936 E28.77381
G1 X95.808 Y107.936 E28.92789
G1 X95.911 Y107.927 E28.93219
G1 X96.182 Y107.88 E28.94362
G1 X96.348 Y107.92 E28.95072
G1 X96.49 Y107.937 E28.95667
G1 X112.382 Y107.936 E29.61738
G1 X112.652 Y107.951 E29.62862
G1 X112.775 Y107.964 E29.63376
G1 X112.863 Y107.983 E29.63751
G1 X113.08 Y108.049 E29.64694
G1 X113.17 Y108.089 E29.65103
G1 X113.26 Y108.122 E29.65502
G1 X113.535 Y108.282 E29.66824
G1 X113.681 Y108.391 E29.67582
G1 X113.811 Y108.517 E29.68334
G1 X113.904 Y108.617 E29.68902
G1 X113.994 Y108.738 E29.69529
G1 X114.095 Y108.893 E29.70298
G1 X114.187 Y109.064 E29.71106
G1 X114.236 Y109.183 E29.71641
G1 X114.307 Y109.392 E29.72558
G1 X114.333 Y109.519 E29.73097
G1 X114.356 Y109.709 E29.73893
G1 X114.364 Y109.857 E29.74509
G1 X114.364 Y116.355 E30.01525
G1 X114.404 Y116.57 E30.02434
G1 X114.532 Y116.771 E30.03425
G1 X114.575 Y116.816 E30.03683
G1 X92.572 Y116.814 E30.95161
G1 X92.358 Y116.854 E30.96066
G1 X92.148 Y116.99 E30.97107
G1 X91.562 Y117.576 E31.00552
G1 X91.438 Y117.755 E31.01457
G1 X91.386 Y118 E31.02499
G1 X91.385 Y130.115 E31.52867
G1 X80.877 Y111.745 E32.40853
G1 X80.78 Y111.618 E32.41517
G1 X80.56 Y111.399 E32.42808
G1 X79.857 Y109.99 E32.49354
G1 X80.057 Y109.88 E32.50303
G1 X80.226 Y109.741 E32.51213
G1 X80.348 Y109.505 E32.52318
G1 X80.448 Y109.119 E32.53975
G1 X80.463 Y108.902 E32.5488
G1 X80.375 Y108.649 E32.55993
G1 X79.36 Y107.037 E32.63913
G1 X79.293 Y106.899 E32.64551
G1 X79.247 Y106.792 E32.65035
G1 X79.228 Y106.728 E32.65313
G1 X79.188 Y106.541 E32.66108
G1 X79.152 Y106.281 E32.67199
G1 X79.15 Y88.82 E33.39793
G1 X79.158 Y88.655 E33.4048
G1 X79.177 Y88.528 E33.41014
G1 X79.216 Y88.364 E33.41715
G1 X79.27 Y88.185 E33.42492
G1 X79.313 Y88.086 E33.42941
G1 X79.372 Y87.974 E33.43467
G0 F2160 X79.409 Y87.903
G0 X79.501 Y87.762
G0 X79.715 Y87.525
G0 X79.768 Y87.475
G0 F6000 X80 Y87.806
G1 F2400 X80.222 Y87.642 E33.44615
G1 X80.366 Y87.568 E33.45288
G1 X80.443 Y87.535 E33.45636
G1 X80.586 Y87.492 E33.46257
G1 X80.714 Y87.463 E33.46803
G1 X82.673 Y87.239 E33.55
G1 X89.484 Y87.239 E33.83317
G1 X89.667 Y87.271 E33.8409
G1 X89.813 Y87.317 E33.84726
G1 X89.938 Y87.368 E33.85287
G1 X90.111 Y87.458 E33.86098
G1 X90.22 Y87.525 E33.8663
G1 X90.275 Y87.568 E33.8692
G1 X90.384 Y87.668 E33.87535
G1 X90.494 Y87.792 E33.88224
G1 X90.604 Y87.927 E33.88948
G1 X90.684 Y88.054 E33.89572
G1 X90.72 Y88.123 E33.89896
