;FLAVOR:Marlin
;TIME:10537
;Filament used: 8.23936m
;Layer height: 0.2
;MINX:0.625
;MINY:-0.965
;MINZ:0.25
;MAXX:219.722
;MAXY:220.594
;MAXZ:1.65
;Generated with Cura_SteamEngine 4.6.0
M82 ;absolute extrusion mode
M201 X500.00 Y500.00 Z100.00 E5000.00 ;Setup machine max acceleration
M203 X500.00 Y500.00 Z10.00 E50.00 ;Setup machine max feedrate
M204 P500.00 R1000.00 T500.00 ;Setup Print/Retract/Travel acceleration
M205 X8.00 Y8.00 Z0.40 E5.00 ;Setup Jerk
M220 S100 ;Reset Feedrate
M221 S100 ;Reset Flowrate

M140 S50; start preheating the bed
M104 S220 T0; start preheating hotend
G28 ;Home
G1 Z2.0 F3000 ;Move Z Axis up
M190 S50; heat to bed setting in Cura and WAIT
M109 S220 T0; heat hotend to setting in Cura and WAIT


G92 E0 ;Reset Extruder
G1 Z2.0 F3000 ;Move Z Axis up
G1 X210 Y20 Z0.28 F5000.0 ;Move to start position
G1 X210 Y200.0 Z0.28 F1500.0 E15 ;Draw the first line
G1 X210 Y200.0 Z0.28 F5000.0 ;Move to side a little
G1 X210 Y20 Z0.28 F1500.0 E30 ;Draw the second line
G92 E0 ;Reset Extruder
G1 Z2.0 F3000 ;Move Z Axis up
G92 E0
G92 E0
G1 F3000 E-6.5
;LAYER_COUNT:8
;LAYER:0
M107
M204 S500
G0 F9000 X198.481 Y1.468 Z0.25
;TYPE:SKIRT
G1 F2700 E0
G1 F2400 X199.004 Y1.508 E0.06542
G1 X199.688 Y1.573 E0.15112
G1 X200.285 Y1.646 E0.22613
G1 X201.013 Y1.768 E0.3182
G1 X201.233 Y1.81 E0.34614
G1 X201.875 Y1.939 E0.42781
G1 X202.541 Y2.095 E0.51313
G1 X203.197 Y2.28 E0.59814
G1 X203.431 Y2.352 E0.62867
G1 X204.077 Y2.557 E0.71321
G1 X204.797 Y2.813 E0.80852
G1 X205.319 Y3.023 E0.87869
G1 X205.567 Y3.129 E0.91233
G1 X206.186 Y3.402 E0.99671
G1 X206.836 Y3.714 E1.08664
G1 X207.577 Y4.113 E1.19161
G1 X208.166 Y4.451 E1.27631
G1 X208.801 Y4.845 E1.36952
G1 X209.255 Y5.151 E1.4378
G1 X209.486 Y5.314 E1.47306
G1 X210.023 Y5.703 E1.55577
G1 X210.587 Y6.139 E1.64468
G1 X211.082 Y6.558 E1.72557
G1 X211.081 Y6.559 E1.72575
G1 X211.259 Y6.712 E1.75502
G1 X211.737 Y7.142 E1.83521
G1 X212.251 Y7.636 E1.92413
G1 X212.467 Y7.857 E1.96268
G1 X212.881 Y8.301 E2.03839
G1 X213.315 Y8.785 E2.11947
G1 X213.786 Y9.348 E2.21103
G1 X214.296 Y10.017 E2.31595
G1 X214.675 Y10.541 E2.39661
G1 X215.014 Y11.039 E2.47175
G1 X215.245 Y11.405 E2.52573
G1 X215.547 Y11.91 E2.59912
G1 X215.856 Y12.45 E2.67672
G1 X216.278 Y13.269 E2.79163
G1 X216.702 Y14.333 E2.93449
G1 X216.77 Y14.535 E2.96107
G1 X217.026 Y15.42 E3.07598
G1 X217.203 Y16.323 E3.19075
G1 X217.302 Y17.238 E3.30554
G1 X217.322 Y18.125 E3.4162
G1 X217.318 Y18.329 E3.44165
G1 X217.21 Y19.647 E3.60659
G1 X217.171 Y19.915 E3.64037
G1 X216.837 Y22.426 E3.95631
G1 X216.574 Y24.953 E4.27319
G1 X216.382 Y27.489 E4.5904
G1 X216.265 Y29.982 E4.90169
G1 X216.216 Y32.511 E5.21718
G1 X216.241 Y35.06 E5.53512
G1 X216.335 Y37.579 E5.84952
G1 X216.536 Y40.54 E6.21968
G1 X216.602 Y41.315 E6.31669
G1 X216.638 Y41.916 E6.39179
G1 X216.632 Y43.065 E6.5351
G1 X216.577 Y43.923 E6.64233
G1 X216.439 Y46.473 E6.96085
G1 X216.375 Y48.984 E7.27414
G1 X216.39 Y50.995 E7.52497
G1 X216.387 Y51.97 E7.64657
G1 X216.344 Y52.896 E7.76219
G1 X216.305 Y53.297 E7.81245
G1 X216.213 Y54.071 E7.90966
G1 X216.027 Y55.466 E8.08519
G1 X215.762 Y57.997 E8.4026
G1 X215.57 Y60.533 E8.71981
G1 X215.451 Y63.039 E9.03272
G1 X215.403 Y65.551 E9.34609
G1 X215.427 Y68.097 E9.66366
G1 X215.522 Y70.642 E9.9813
G1 X215.688 Y73.159 E10.29592
G1 X215.924 Y75.67 E10.61049
G1 X216.095 Y77.128 E10.79358
G1 X216.251 Y78.387 E10.95181
G1 X216.424 Y79.963 E11.14956
G1 X216.572 Y81.527 E11.3455
G1 X216.687 Y82.956 E11.52431
G1 X216.809 Y84.751 E11.74871
G1 X216.889 Y86.213 E11.93133
G1 X216.992 Y88.676 E12.2388
G1 X217.027 Y89.822 E12.3818
G1 X217.084 Y92.42 E12.70592
G1 X217.097 Y93.478 E12.83789
G1 X217.108 Y96.951 E13.27106
G1 X217.104 Y97.815 E13.37882
G1 X217.05 Y102.759 E13.9955
G1 X216.912 Y109.857 E14.88097
G1 X216.89 Y110.644 E14.97917
G1 X216.732 Y115.141 E15.54041
G1 X216.435 Y122.211 E16.42299
G1 X216.242 Y125.748 E16.8648
G1 X216.18 Y126.739 E16.98865
G1 X215.978 Y129.587 E17.34476
G1 X215.88 Y130.789 E17.49518
G1 X215.662 Y133.171 E17.79351
G1 X215.527 Y134.472 E17.95665
G1 X215.304 Y136.415 E18.20059
G1 X215.11 Y137.92 E18.38985
G1 X214.892 Y139.44 E18.58137
G1 X214.632 Y141.102 E18.79119
G1 X214.417 Y142.352 E18.94939
G1 X214.333 Y142.799 E19.00611
G1 X213.894 Y145.348 E19.32872
G1 X213.539 Y147.832 E19.64169
G1 X213.25 Y150.356 E19.95855
G1 X213.035 Y152.857 E20.27164
G1 X212.89 Y155.398 E20.58908
G1 X212.816 Y157.942 E20.90652
G1 X212.814 Y160.456 E21.22008
G1 X212.883 Y162.953 E21.53164
G1 X213.131 Y166.907 E22.02577
G1 X213.165 Y167.755 E22.13162
G1 X213.165 Y167.803 E22.13761
G1 X213.146 Y168.431 E22.21597
G1 X213.064 Y169.813 E22.38865
G1 X213.062 Y169.813 E22.3889
G1 X213.058 Y169.925 E22.40287
G1 X213.022 Y170.439 E22.46714
G1 X212.917 Y172.977 E22.78396
G1 X212.884 Y175.509 E23.0998
G1 X212.902 Y176.966 E23.28153
G1 X212.901 Y177.335 E23.32756
G1 X212.881 Y177.958 E23.4053
G1 X212.798 Y178.842 E23.51604
G1 X212.616 Y180.168 E23.68298
G1 X212.309 Y182.678 E23.99838
G1 X212.073 Y185.186 E24.31257
G1 X211.907 Y187.705 E24.62743
G1 X211.813 Y190.24 E24.94383
G1 X211.789 Y192.789 E25.26177
G1 X211.838 Y195.305 E25.57564
G1 X211.958 Y197.828 E25.89068
G1 X212.089 Y199.65 E26.11851
G1 X212.186 Y200.843 E26.2678
G1 X212.221 Y201.763 E26.38263
G1 X212.176 Y202.683 E26.49752
G1 X212.038 Y203.665 E26.6212
G1 X211.997 Y203.883 E26.64887
G1 X211.788 Y204.78 E26.76374
G1 X211.636 Y205.276 E26.82845
G1 X211.634 Y205.282 E26.82924
G1 X211.305 Y206.142 E26.94408
G1 X210.903 Y206.97 E27.05888
G1 X210.518 Y207.625 E27.15364
G1 X210.053 Y208.355 E27.2616
G1 X209.85 Y208.663 E27.30761
G1 X209.648 Y208.957 E27.3521
G1 X209.188 Y209.577 E27.44839
G1 X208.847 Y210.001 E27.51625
G1 X208.678 Y210.203 E27.5491
G1 X208.234 Y210.72 E27.6341
G1 X207.728 Y211.271 E27.7274
G1 X207.323 Y211.677 E27.79893
G1 X207.133 Y211.849 E27.83089
G1 X207.138 Y211.854 E27.83178
G1 X206.658 Y212.307 E27.9141
G1 X206.089 Y212.809 E28.00874
G1 X205.426 Y213.339 E28.1146
G1 X204.918 Y213.725 E28.19418
G1 X204.399 Y214.095 E28.27368
G1 X203.814 Y214.476 E28.36075
G1 X203.581 Y214.621 E28.39498
G1 X203.034 Y214.951 E28.47466
G1 X202.448 Y215.282 E28.5586
G1 X202.128 Y215.448 E28.60357
G1 X201.589 Y215.712 E28.67843
G1 X201.019 Y215.977 E28.75683
G1 X200.374 Y216.253 E28.84433
G1 X200.037 Y216.384 E28.88943
G1 X199.533 Y216.567 E28.9563
G1 X198.923 Y216.776 E29.03673
G1 X198.296 Y216.97 E29.11859
G1 X197.924 Y217.071 E29.16667
G1 X197.363 Y217.21 E29.23875
G1 X196.745 Y217.352 E29.31784
G1 X196.071 Y217.484 E29.4035
G1 X195.424 Y217.581 E29.4851
G1 X195.176 Y217.613 E29.51629
G1 X194.497 Y217.693 E29.60157
G1 X193.744 Y217.756 E29.69581
G1 X193.196 Y217.781 E29.76423
G1 X192.916 Y217.787 E29.79916
G1 X192.269 Y217.794 E29.87987
G1 X191.521 Y217.777 E29.97319
G1 X191.269 Y217.763 E30.00467
G1 X190.352 Y217.694 E30.11936
G1 X190.171 Y217.687 E30.14195
G1 X188.212 Y217.539 E30.38699
G1 X185.714 Y217.422 E30.69889
G1 X183.196 Y217.375 E31.01301
G1 X180.623 Y217.4 E31.33394
G1 X178.138 Y217.495 E31.64411
G1 X175.604 Y217.663 E31.96086
G1 X173.037 Y217.906 E32.28246
G1 X171.564 Y218.084 E32.46752
G1 X170.969 Y218.144 E32.54211
G1 X170.049 Y218.196 E32.65704
G1 X169.129 Y218.169 E32.77183
G1 X168.209 Y218.06 E32.88738
G1 X166.848 Y217.838 E33.05938
G1 X165.562 Y217.604 E33.22241
G1 X163.059 Y217.221 E33.53823
G1 X160.569 Y216.911 E33.85119
G1 X157.145 Y216.6 E34.28001
G1 X156.419 Y216.509 E34.37127
G1 X154.891 Y216.261 E34.56435
G1 X153.586 Y216.023 E34.7298
G1 X151.1 Y215.645 E35.04343
G1 X148.612 Y215.337 E35.35611
G1 X145.246 Y215.033 E35.77765
G1 X144.507 Y214.94 E35.87055
G1 X142.995 Y214.693 E36.06163
G1 X141.699 Y214.457 E36.22594
G1 X139.193 Y214.076 E36.54209
G1 X136.705 Y213.768 E36.85478
G1 X133.339 Y213.464 E37.27631
G1 X132.6 Y213.371 E37.36921
G1 X131.84 Y213.248 E37.46523
G1 X131.263 Y213.141 E37.53843
G1 X130.368 Y212.926 E37.65323
G1 X129.249 Y212.535 E37.80108
G1 X128.897 Y212.39 E37.84856
G1 X126.445 Y211.419 E38.17749
G1 X124.085 Y210.561 E38.49069
G1 X121.66 Y209.757 E38.80934
G1 X119.235 Y209.027 E39.12521
G1 X116.783 Y208.364 E39.44202
G1 X114.388 Y207.788 E39.74925
G1 X111.865 Y207.258 E40.07081
G1 X109.405 Y206.812 E40.38263
G1 X106.851 Y206.424 E40.70484
G1 X104.387 Y206.12 E41.01449
G1 X101.854 Y205.881 E41.33182
G1 X99.349 Y205.716 E41.64494
G1 X96.806 Y205.621 E41.96234
G1 X94.257 Y205.596 E42.28028
G1 X91.742 Y205.644 E42.59402
G1 X89.246 Y205.762 E42.90568
G1 X86.69 Y205.956 E43.2254
G1 X84.188 Y206.216 E43.53914
G1 X81.692 Y206.547 E43.85318
G1 X79.155 Y206.958 E44.17373
G1 X76.708 Y207.425 E44.48444
G1 X74.181 Y207.982 E44.80719
G1 X71.795 Y208.58 E45.11399
G1 X69.352 Y209.265 E45.43045
G1 X66.916 Y210.024 E45.74868
G1 X64.539 Y210.839 E46.0621
G1 X62.193 Y211.717 E46.37453
G1 X61.041 Y212.188 E46.52976
G1 X60.074 Y212.57 E46.65944
G1 X59.203 Y212.87 E46.77433
G1 X58.282 Y213.1 E46.89273
G1 X57.047 Y213.34 E47.04965
G1 X56.101 Y213.459 E47.16857
G1 X55.312 Y213.522 E47.26729
G1 X52.683 Y213.772 E47.59668
G1 X50.172 Y214.082 E47.91224
G1 X47.711 Y214.457 E48.22273
G1 X46.223 Y214.728 E48.41138
G1 X45.103 Y214.915 E48.553
G1 X44.194 Y215.028 E48.66725
G1 X43.405 Y215.091 E48.76597
G1 X40.776 Y215.341 E49.09536
G1 X38.265 Y215.651 E49.41092
G1 X35.785 Y216.029 E49.72381
G1 X34.384 Y216.285 E49.90144
G1 X33.187 Y216.485 E50.05281
G1 X32.484 Y216.579 E50.14127
G1 X32.277 Y216.598 E50.1672
G1 X31.418 Y216.668 E50.27469
G1 X28.834 Y216.914 E50.59844
G1 X26.356 Y217.221 E50.90987
G1 X23.822 Y217.608 E51.22959
G1 X22.479 Y217.853 E51.39986
G1 X21.32 Y218.047 E51.54643
G1 X20.406 Y218.16 E51.6613
G1 X19.486 Y218.194 E51.77613
G1 X18.557 Y218.146 E51.89215
G1 X17.382 Y218.023 E52.0395
G1 X16.474 Y217.869 E52.15437
G1 X15.583 Y217.637 E52.26921
G1 X14.681 Y217.313 E52.38875
G1 X14.008 Y217.037 E52.47947
G1 X13.451 Y216.791 E52.55542
G1 X12.633 Y216.37 E52.67016
G1 X11.854 Y215.879 E52.78501
G1 X11.218 Y215.403 E52.8841
G1 X10.687 Y214.973 E52.96932
G1 X10.217 Y214.571 E53.04646
G1 X9.553 Y213.933 E53.16131
G1 X8.946 Y213.241 E53.27612
G1 X8.424 Y212.531 E53.38603
G1 X8.014 Y211.922 E53.4776
G1 X7.727 Y211.474 E53.54396
G1 X7.275 Y210.672 E53.65878
G1 X6.895 Y209.833 E53.77366
G1 X6.593 Y208.98 E53.88652
G1 X6.396 Y208.337 E53.9704
G1 X6.254 Y207.834 E54.03559
G1 X5.996 Y206.608 E54.19185
G1 X5.837 Y205.531 E54.32763
G1 X3.276 Y186.088 E56.77362
G1 X3.199 Y185.429 E56.85637
G1 X3.127 Y184.218 E57.00768
G1 X3.126 Y183.646 E57.07902
G1 X3.131 Y183.293 E57.12306
G1 X3.155 Y182.656 E57.20256
G1 X3.156 Y182.639 E57.20469
G1 X3.208 Y182.048 E57.27869
G1 X3.343 Y180.882 E57.42509
G1 X3.437 Y180.157 E57.51627
G1 X3.691 Y177.613 E57.83515
G1 X3.871 Y175.1 E58.14939
G1 X3.98 Y172.579 E58.46411
G1 X4.018 Y170.04 E58.78083
G1 X3.984 Y167.522 E59.09491
G1 X3.879 Y164.99 E59.41099
G1 X3.702 Y162.468 E59.72632
G1 X3.454 Y159.941 E60.04302
G1 X3.18 Y157.743 E60.31929
G1 X3.097 Y157.032 E60.40857
G1 X3.026 Y155.822 E60.55975
G1 X3.025 Y155.251 E60.63096
G1 X3.03 Y154.897 E60.67512
G1 X3.041 Y154.549 E60.71855
G1 X3.11 Y153.631 E60.83337
G1 X3.2 Y153.025 E60.90978
G1 X3.613 Y150.425 E61.23813
G1 X3.938 Y147.926 E61.55245
G1 X4.195 Y145.39 E61.87037
G1 X4.378 Y142.872 E62.18526
G1 X4.489 Y140.389 E62.49526
G1 X4.531 Y137.778 E62.82096
G1 X4.501 Y135.303 E63.12968
G1 X4.399 Y132.804 E63.44163
G1 X4.168 Y129.587 E63.8439
G1 X4.133 Y129.193 E63.89324
G1 X4.092 Y128.28 E64.00723
G1 X4.091 Y127.693 E64.08044
G1 X4.096 Y127.341 E64.12435
G1 X4.107 Y126.992 E64.1679
G1 X4.125 Y126.621 E64.21423
G1 X4.126 Y126.606 E64.2161
G1 X4.228 Y125.691 E64.33093
G1 X4.381 Y124.898 E64.43167
G1 X4.653 Y123.741 E64.57991
G1 X4.765 Y123.287 E64.63823
G1 X5.31 Y120.788 E64.95725
G1 X5.767 Y118.366 E65.26466
G1 X6.175 Y115.795 E65.58934
G1 X6.496 Y113.332 E65.89914
G1 X6.754 Y110.784 E66.21857
G1 X6.94 Y108.246 E66.53597
G1 X7.05 Y105.776 E66.84435
G1 X7.092 Y103.193 E67.16655
G1 X7.062 Y100.707 E67.47664
G1 X6.936 Y97.743 E67.84666
G1 X6.931 Y97.406 E67.8887
G1 X6.931 Y96.649 E67.98312
G1 X6.945 Y96.053 E68.05748
G1 X6.972 Y95.575 E68.11719
G1 X7 Y95.254 E68.15738
G1 X7.27 Y92.607 E68.48924
G1 X7.456 Y90.06 E68.80776
G1 X7.569 Y87.563 E69.11952
G1 X7.612 Y84.989 E69.44061
G1 X7.583 Y82.513 E69.74945
G1 X7.48 Y79.936 E70.07112
G1 X7.31 Y77.45 E70.38192
G1 X7.064 Y74.908 E70.70045
G1 X6.834 Y73.011 E70.93879
G1 X6.345 Y69.29 E71.40688
G1 X6.268 Y68.632 E71.48951
G1 X6.196 Y67.419 E71.64107
G1 X6.195 Y66.848 E71.71229
G1 X6.2 Y66.495 E71.75632
G1 X6.211 Y66.146 E71.79987
G1 X6.233 Y65.725 E71.85245
G1 X6.234 Y65.711 E71.8542
G1 X6.315 Y64.955 E71.94903
G1 X6.556 Y63.328 E72.15418
G1 X6.885 Y60.788 E72.47363
G1 X7.137 Y58.297 E72.7859
G1 X7.318 Y55.793 E73.09903
G1 X7.429 Y53.25 E73.41651
G1 X7.47 Y50.7 E73.7346
G1 X7.438 Y48.186 E74.04819
G1 X7.336 Y45.678 E74.36126
G1 X7.16 Y43.141 E74.67844
G1 X6.912 Y40.599 E74.997
G1 X6.692 Y38.797 E75.22343
G1 X6.293 Y35.767 E75.60461
G1 X6.215 Y35.098 E75.68861
G1 X6.144 Y33.889 E75.83967
G1 X6.147 Y32.991 E75.95167
G1 X6.156 Y32.682 E75.99023
G1 X6.223 Y31.764 E76.10503
G1 X6.369 Y30.855 E76.21986
G1 X6.599 Y29.944 E76.33705
G1 X6.807 Y29.251 E76.42729
G1 X6.952 Y28.802 E76.48614
G1 X7.281 Y27.942 E76.60099
G1 X7.683 Y27.114 E76.71579
G1 X8.179 Y26.288 E76.83596
G1 X8.561 Y25.713 E76.92206
G1 X8.883 Y25.252 E76.9922
G1 X9.451 Y24.528 E77.10697
G1 X10.08 Y23.855 E77.22186
G1 X10.741 Y23.26 E77.33279
G1 X11.276 Y22.817 E77.41942
G1 X11.731 Y22.458 E77.49171
G1 X12.486 Y21.93 E77.60662
G1 X13.283 Y21.47 E77.7214
G1 X14.077 Y21.098 E77.83076
G1 X14.704 Y20.835 E77.91556
G1 X15.2 Y20.64 E77.98204
G1 X16.073 Y20.348 E78.09685
G1 X16.969 Y20.134 E78.21175
G1 X17.905 Y19.995 E78.32977
G1 X19.446 Y19.839 E78.52296
G1 X20.663 Y19.739 E78.67526
G1 X23.145 Y19.464 E78.98672
G1 X25.625 Y19.118 E79.29904
G1 X28.95 Y18.541 E79.71995
G1 X29.676 Y18.441 E79.81135
G1 X31.353 Y18.27 E80.0216
G1 X32.57 Y18.17 E80.17391
G1 X35.052 Y17.895 E80.48537
G1 X37.532 Y17.549 E80.79768
G1 X40.857 Y16.972 E81.21859
G1 X41.583 Y16.872 E81.31
G1 X43.26 Y16.701 E81.52025
G1 X44.477 Y16.601 E81.67255
G1 X46.959 Y16.326 E81.98401
G1 X49.426 Y15.982 E82.29469
G1 X52.924 Y15.376 E82.73748
G1 X53.285 Y15.32 E82.78304
G1 X53.725 Y15.259 E82.83845
G1 X56.263 Y14.874 E83.15862
G1 X58.766 Y14.422 E83.47586
G1 X61.227 Y13.906 E83.78948
G1 X63.686 Y13.316 E84.10489
G1 X66.146 Y12.652 E84.42269
G1 X68.56 Y11.928 E84.73703
G1 X70.939 Y11.139 E85.04964
G1 X73.35 Y10.264 E85.36955
G1 X75.672 Y9.345 E85.68102
G1 X78.02 Y8.339 E85.99962
G1 X80.288 Y7.29 E86.31129
G1 X82.564 Y6.158 E86.62834
G1 X83.768 Y5.507 E86.79906
G1 X84.166 Y5.313 E86.85428
G1 X85.071 Y4.83 E86.98223
G1 X85.901 Y4.432 E87.09704
G1 X86.762 Y4.107 E87.21182
G1 X87.649 Y3.859 E87.32669
G1 X88.554 Y3.688 E87.44157
G1 X89.47 Y3.597 E87.55638
G1 X90.46 Y3.587 E87.67986
G1 X90.821 Y3.603 E87.72493
G1 X93.492 Y3.766 E88.0587
G1 X96.01 Y3.849 E88.37292
G1 X98.555 Y3.859 E88.69035
G1 X101.064 Y3.8 E89.00338
G1 X103.666 Y3.664 E89.32835
G1 X104.665 Y3.598 E89.45323
G1 X105.585 Y3.577 E89.568
G1 X106.504 Y3.636 E89.68286
G1 X107.109 Y3.719 E89.75903
G1 X107.115 Y3.72 E89.75979
G1 X108.015 Y3.911 E89.87454
G1 X108.896 Y4.179 E89.9894
G1 X109.655 Y4.48 E90.09123
G1 X110.142 Y4.696 E90.15768
G1 X111.847 Y5.476 E90.39154
G1 X114.189 Y6.469 E90.70882
G1 X116.472 Y7.364 E91.01466
G1 X118.908 Y8.237 E91.33742
G1 X121.313 Y9.022 E91.65296
G1 X123.757 Y9.746 E91.97088
G1 X126.184 Y10.39 E92.28406
G1 X128.636 Y10.968 E92.59827
G1 X131.095 Y11.475 E92.91142
G1 X133.63 Y11.922 E93.23248
G1 X136.113 Y12.288 E93.54552
G1 X138.599 Y12.583 E93.85776
G1 X141.159 Y12.813 E94.17835
G1 X143.677 Y12.968 E94.493
G1 X146.186 Y13.052 E94.80611
G1 X148.733 Y13.064 E95.12379
G1 X151.243 Y13.006 E95.43694
G1 X153.785 Y12.874 E95.75441
G1 X156.285 Y12.674 E96.06722
G1 X158.835 Y12.396 E96.38716
G1 X161.314 Y12.056 E96.69925
G1 X163.813 Y11.64 E97.01523
G1 X166.294 Y11.156 E97.3305
G1 X168.74 Y10.605 E97.64323
G1 X171.258 Y9.963 E97.96733
G1 X173.627 Y9.286 E98.27464
G1 X176.01 Y8.533 E98.58634
G1 X178.452 Y7.686 E98.90872
G1 X180.82 Y6.786 E99.22469
