;FLAVOR:Marlin
;TIME:6308
;Filament used: 4.90187m
;Layer height: 0.2
;MINX:113.268
;MINY:49.967
;MINZ:0.2
;MAXX:174.659
;MAXY:188.218
;MAXZ:7
;Generated with Cura_SteamEngine 4.6.1
M82 ;absolute extrusion mode
M201 X500.00 Y500.00 Z100.00 E5000.00 ;Setup machine max acceleration
M203 X500.00 Y500.00 Z10.00 E50.00 ;Setup machine max feedrate
M204 P500.00 R1000.00 T500.00 ;Setup Print/Retract/Travel acceleration
M205 X8.00 Y8.00 Z0.40 E5.00 ;Setup Jerk
M220 S100 ;Reset Feedrate
M221 S100 ;Reset Flowrate

M140 S50; start preheating the bed
M104 S220 T0; start preheating hotend
G28 ;Home
G1 Z2.0 F3000 ;Move Z Axis up
M190 S50; heat to bed setting in Cura and WAIT
M109 S220 T0; heat hotend to setting in Cura and WAIT


G92 E0 ;Reset Extruder
G1 Z2.0 F3000 ;Move Z Axis up
G1 X10.1 Y20 Z0.28 F5000.0 ;Move to start position
G1 X10.1 Y200.0 Z0.28 F1500.0 E15 ;Draw the first line
G1 X10.4 Y200.0 Z0.28 F5000.0 ;Move to side a little
G1 X10.4 Y20 Z0.28 F1500.0 E30 ;Draw the second line
G92 E0 ;Reset Extruder
G1 Z2.0 F3000 ;Move Z Axis up
G92 E0
G92 E0
G1 F3000 E-6.5
;LAYER_COUNT:35
;LAYER:0
M107
M204 S500
G0 F6000 X134.818 Y51.136 Z0.2
;TYPE:SKIRT
G1 F2700 E0
G1 F2400 X135.009 Y50.793 E0.01404
G1 X135.266 Y50.496 E0.02808
G1 X135.578 Y50.256 E0.04215
G1 X135.931 Y50.085 E0.05618
G1 X136.312 Y49.988 E0.07024
G1 X136.595 Y49.967 E0.08038
G1 X166.595 Y49.967 E1.15302
G1 X166.986 Y50.007 E1.16707
G1 X167.361 Y50.125 E1.18113
G1 X167.704 Y50.316 E1.19517
G1 X168.001 Y50.573 E1.20921
G1 X168.241 Y50.885 E1.22328
G1 X168.412 Y51.238 E1.23731
G1 X168.509 Y51.619 E1.25137
G1 X168.53 Y51.902 E1.26151
G1 X168.53 Y99.466 E2.96215
G1 X168.586 Y100.897 E3.01335
G1 X168.749 Y102.274 E3.06293
G1 X169.005 Y103.566 E3.11002
G1 X169.393 Y104.954 E3.16155
G1 X169.855 Y106.205 E3.20923
G1 X170.432 Y107.461 E3.25865
G1 X171.094 Y108.647 E3.30722
G1 X171.869 Y109.812 E3.35725
G1 X172.736 Y110.914 E3.40738
G1 X173.702 Y111.963 E3.45837
G1 X173.803 Y112.081 E3.46392
G1 X174.059 Y112.408 E3.47877
G1 X174.319 Y112.851 E3.49713
G1 X174.469 Y113.208 E3.51098
G1 X174.602 Y113.692 E3.52893
G1 X174.656 Y114.081 E3.54297
G1 X174.659 Y114.583 E3.56092
G1 X174.61 Y114.981 E3.57526
G1 X174.478 Y115.484 E3.59385
G1 X174.333 Y115.835 E3.60743
G1 X174.085 Y116.267 E3.62524
G1 X173.841 Y116.588 E3.63965
G1 X173.475 Y116.955 E3.65819
G1 X173.171 Y117.187 E3.67186
G1 X172.749 Y117.432 E3.68931
G1 X172.391 Y117.583 E3.7032
G1 X171.904 Y117.717 E3.72126
G1 X171.514 Y117.771 E3.73534
G1 X171.013 Y117.774 E3.75325
G1 X170.615 Y117.725 E3.76759
G1 X170.105 Y117.59 E3.78645
G1 X169.746 Y117.44 E3.80036
G1 X169.317 Y117.192 E3.81808
G1 X168.777 Y116.78 E3.84236
G1 X168.627 Y116.771 E3.84774
G1 X168.53 Y117.035 E3.85779
G1 X168.53 Y136.902 E4.56813
G1 X168.49 Y137.293 E4.58218
G1 X168.372 Y137.668 E4.59624
G1 X168.181 Y138.011 E4.61028
G1 X167.924 Y138.308 E4.62432
G1 X167.612 Y138.548 E4.63839
G1 X167.259 Y138.719 E4.65242
G1 X166.878 Y138.816 E4.66648
G1 X166.595 Y138.837 E4.67662
G1 X164.098 Y138.837 E4.7659
G1 X164.119 Y139.471 E4.78858
G1 X164.07 Y139.869 E4.80292
G1 X163.938 Y140.372 E4.82151
G1 X163.793 Y140.723 E4.83509
G1 X163.545 Y141.155 E4.8529
G1 X163.301 Y141.476 E4.86732
G1 X162.935 Y141.843 E4.88585
G1 X162.631 Y142.075 E4.89952
G1 X162.209 Y142.32 E4.91697
G1 X161.851 Y142.471 E4.93086
G1 X161.364 Y142.605 E4.94892
G1 X160.974 Y142.659 E4.963
G1 X160.473 Y142.662 E4.98091
G1 X160.075 Y142.613 E4.99525
G1 X159.565 Y142.478 E5.01411
G1 X159.206 Y142.328 E5.02803
G1 X158.777 Y142.08 E5.04574
G1 X158.237 Y141.668 E5.07003
G1 X158.087 Y141.659 E5.0754
G1 X157.99 Y141.923 E5.08546
G1 X157.99 Y161.79 E5.79579
G1 X157.95 Y162.181 E5.80985
G1 X157.832 Y162.556 E5.8239
G1 X157.641 Y162.899 E5.83794
G1 X157.384 Y163.196 E5.85198
G1 X157.072 Y163.436 E5.86606
G1 X156.719 Y163.607 E5.88008
G1 X156.338 Y163.704 E5.89414
G1 X156.055 Y163.725 E5.90429
G1 X153.265 Y163.725 E6.00404
G1 X153.266 Y163.965 E6.01262
G1 X153.217 Y164.363 E6.02696
G1 X153.085 Y164.866 E6.04555
G1 X152.94 Y165.217 E6.05913
G1 X152.693 Y165.648 E6.07689
G1 X152.45 Y165.968 E6.09126
G1 X152.084 Y166.336 E6.10982
G1 X151.779 Y166.569 E6.12354
G1 X151.354 Y166.815 E6.1411
G1 X150.997 Y166.965 E6.15494
G1 X150.517 Y167.097 E6.17274
G1 X150.126 Y167.152 E6.18686
G1 X149.614 Y167.156 E6.20517
G1 X149.217 Y167.106 E6.21947
G1 X148.719 Y166.974 E6.23789
G1 X148.359 Y166.825 E6.25183
G1 X147.922 Y166.573 E6.26986
G1 X147.382 Y166.159 E6.29419
G1 X147.194 Y166.183 E6.30097
G1 X147.138 Y166.42 E6.30967
G1 X147.138 Y186.283 E7.01987
G1 X147.098 Y186.674 E7.03392
G1 X146.98 Y187.049 E7.04798
G1 X146.789 Y187.392 E7.06202
G1 X146.532 Y187.689 E7.07606
G1 X146.22 Y187.929 E7.09013
G1 X145.867 Y188.1 E7.10416
G1 X145.486 Y188.197 E7.11821
G1 X145.203 Y188.218 E7.12836
G1 X142.203 Y188.218 E7.23562
G1 X141.812 Y188.178 E7.24968
G1 X141.437 Y188.06 E7.26373
G1 X141.094 Y187.869 E7.27777
G1 X140.797 Y187.612 E7.29181
G1 X140.557 Y187.3 E7.30589
G1 X140.386 Y186.947 E7.31991
G1 X140.289 Y186.566 E7.33397
G1 X140.268 Y186.283 E7.34411
G1 X140.268 Y136.313 E9.13077
G1 X140.141 Y133.222 E9.24139
G1 X139.762 Y130.186 E9.35078
G1 X139.143 Y127.33 E9.45526
G1 X138.356 Y124.878 E9.54734
G1 X137.433 Y122.797 E9.62874
G1 X136.46 Y121.173 E9.69643
G1 X135.442 Y119.911 E9.7544
G1 X134.518 Y119.093 E9.79852
G1 X133.613 Y118.552 E9.83622
G1 X132.901 Y118.309 E9.86312
G1 X132.093 Y118.218 E9.89219
G1 X115.203 Y118.218 E10.49609
G1 X114.812 Y118.178 E10.51014
G1 X114.437 Y118.06 E10.5242
G1 X114.094 Y117.869 E10.53823
G1 X113.797 Y117.612 E10.55228
G1 X113.557 Y117.3 E10.56635
G1 X113.386 Y116.947 E10.58038
G1 X113.289 Y116.566 E10.59443
G1 X113.268 Y116.283 E10.60458
G1 X113.268 Y101.283 E11.1409
G1 X113.308 Y100.892 E11.15495
G1 X113.426 Y100.517 E11.16901
G1 X113.617 Y100.174 E11.18305
G1 X113.874 Y99.877 E11.19709
G1 X114.186 Y99.637 E11.21116
G1 X114.539 Y99.466 E11.22519
G1 X114.92 Y99.369 E11.23924
G1 X115.203 Y99.348 E11.24939
G1 X145.203 Y99.348 E12.32203
G1 X145.594 Y99.388 E12.33608
G1 X145.969 Y99.506 E12.35014
G1 X146.312 Y99.697 E12.36418
G1 X146.609 Y99.954 E12.37822
G1 X146.849 Y100.266 E12.39229
G1 X147.02 Y100.619 E12.40632
G1 X147.117 Y101 E12.42037
G1 X147.138 Y101.283 E12.43052
G1 X147.138 Y148.85 E14.13126
G1 X147.194 Y150.278 E14.18236
G1 X147.357 Y151.655 E14.23194
G1 X147.611 Y152.939 E14.27873
G1 X148.002 Y154.339 E14.33071
G1 X148.463 Y155.584 E14.37818
G1 X149.037 Y156.837 E14.42745
G1 X149.713 Y158.045 E14.47695
G1 X150.476 Y159.192 E14.5262
G1 X151.12 Y160.011 E14.56345
G1 X151.12 Y111.82 E16.28651
G1 X150.993 Y108.727 E16.39719
G1 X150.615 Y105.693 E16.50651
G1 X149.996 Y102.836 E16.61103
G1 X149.209 Y100.385 E16.70307
G1 X148.285 Y98.304 E16.78448
G1 X147.312 Y96.68 E16.85217
G1 X146.296 Y95.421 E16.91001
G1 X145.368 Y94.598 E16.95436
G1 X144.469 Y94.06 E16.99182
G1 X143.751 Y93.815 E17.01895
G1 X142.945 Y93.725 E17.04795
G1 X126.055 Y93.725 E17.65184
G1 X125.664 Y93.685 E17.66589
G1 X125.289 Y93.567 E17.67995
G1 X124.946 Y93.376 E17.69399
G1 X124.649 Y93.119 E17.70803
G1 X124.409 Y92.807 E17.7221
G1 X124.238 Y92.454 E17.73613
G1 X124.141 Y92.073 E17.75019
G1 X124.12 Y91.79 E17.76033
G1 X124.12 Y76.79 E18.29665
G1 X124.16 Y76.399 E18.31071
G1 X124.278 Y76.024 E18.32476
G1 X124.469 Y75.681 E18.3388
G1 X124.726 Y75.384 E18.35284
G1 X125.038 Y75.144 E18.36692
G1 X125.391 Y74.973 E18.38094
G1 X125.772 Y74.876 E18.395
G1 X126.055 Y74.855 E18.40514
G1 X156.055 Y74.855 E19.47778
G1 X156.446 Y74.895 E19.49184
G1 X156.821 Y75.013 E19.50589
G1 X157.164 Y75.204 E19.51993
G1 X157.461 Y75.461 E19.53397
G1 X157.701 Y75.773 E19.54805
G1 X157.872 Y76.126 E19.56207
G1 X157.969 Y76.507 E19.57613
G1 X157.99 Y76.79 E19.58627
G1 X157.99 Y124.357 E21.28701
G1 X158.046 Y125.785 E21.33811
G1 X158.209 Y127.162 E21.38769
G1 X158.465 Y128.454 E21.43478
G1 X158.853 Y129.842 E21.48631
G1 X159.315 Y131.093 E21.53399
G1 X159.892 Y132.349 E21.58341
G1 X160.558 Y133.542 E21.63227
G1 X161.329 Y134.7 E21.68201
G1 X161.66 Y135.121 E21.70116
G1 X161.66 Y86.932 E23.42414
G1 X161.533 Y83.842 E23.53471
G1 X161.155 Y80.805 E23.64414
G1 X160.536 Y77.948 E23.74866
G1 X159.749 Y75.498 E23.84066
G1 X158.825 Y73.416 E23.92211
G1 X157.852 Y71.793 E23.98977
G1 X156.834 Y70.529 E24.0478
G1 X155.911 Y69.712 E24.09187
G1 X155.009 Y69.172 E24.12946
G1 X154.291 Y68.927 E24.15658
G1 X153.485 Y68.837 E24.18558
G1 X136.595 Y68.837 E24.78947
G1 X136.204 Y68.797 E24.80353
G1 X135.829 Y68.679 E24.81758
G1 X135.486 Y68.488 E24.83162
G1 X135.189 Y68.231 E24.84566
G1 X134.949 Y67.919 E24.85974
G1 X134.778 Y67.566 E24.87376
G1 X134.681 Y67.185 E24.88782
G1 X134.66 Y66.902 E24.89797
G1 X134.66 Y51.902 E25.43429
G1 X134.665 Y51.86 E25.4358
G0 F2160 X134.7 Y51.511
G0 X134.818 Y51.136
G0 F6000 X135.247 Y51.232
G1 F2400 X135.436 Y50.942 E25.44817
G1 X135.687 Y50.702 E25.46059
G1 X135.985 Y50.526 E25.47297
G1 X136.316 Y50.423 E25.48536
G1 X136.595 Y50.397 E25.49538
G1 X166.595 Y50.397 E26.56802
G1 X166.939 Y50.437 E26.5804
G1 X167.265 Y50.554 E26.59278
G1 X167.555 Y50.743 E26.60516
G1 X167.795 Y50.994 E26.61758
G1 X167.971 Y51.292 E26.62995
G1 X168.074 Y51.623 E26.64235
G1 X168.1 Y51.902 E26.65237
G1 X168.1 Y99.486 E28.35371
G1 X168.157 Y100.927 E28.40528
G1 X168.324 Y102.339 E28.45611
G1 X168.586 Y103.664 E28.50441
G1 X168.983 Y105.083 E28.55709
G1 X169.459 Y106.374 E28.60629
G1 X170.045 Y107.648 E28.65643
G1 X170.739 Y108.891 E28.70733
G1 X171.512 Y110.054 E28.75726
G1 X172.411 Y111.195 E28.8092
G1 X173.386 Y112.254 E28.86066
G1 X173.72 Y112.673 E28.87982
G1 X173.922 Y113.018 E28.89412
G1 X174.072 Y113.375 E28.90796
G1 X174.176 Y113.751 E28.92191
G1 X174.23 Y114.14 E28.93595
G1 X174.233 Y114.531 E28.94993
G1 X174.184 Y114.929 E28.96427
G1 X174.081 Y115.32 E28.97873
G1 X173.936 Y115.671 E28.99231
G1 X173.743 Y116.007 E29.00616
G1 X173.499 Y116.328 E29.02058
G1 X173.214 Y116.613 E29.03499
G1 X172.91 Y116.845 E29.04866
G1 X172.582 Y117.036 E29.06223
G1 X172.224 Y117.187 E29.07612
G1 X171.845 Y117.291 E29.09018
G1 X171.455 Y117.345 E29.10425
G1 X171.065 Y117.348 E29.1182
G1 X170.667 Y117.299 E29.13254
G1 X170.271 Y117.194 E29.14718
G1 X169.912 Y117.044 E29.1611
G1 X169.578 Y116.851 E29.17489
G1 X168.991 Y116.402 E29.20131
G1 X168.851 Y116.343 E29.20674
G1 X168.69 Y116.321 E29.21255
G1 X168.41 Y116.395 E29.22291
G1 X168.282 Y116.492 E29.22865
G1 X168.137 Y116.745 E29.23908
G1 X168.1 Y117.012 E29.24871
G1 X168.1 Y136.902 E29.95987
G1 X168.06 Y137.246 E29.97226
G1 X167.943 Y137.572 E29.98464
G1 X167.754 Y137.862 E29.99702
G1 X167.503 Y138.102 E30.00943
G1 X167.205 Y138.278 E30.02181
G1 X166.874 Y138.381 E30.0342
G1 X166.595 Y138.407 E30.04422
G1 X163.595 Y138.407 E30.15149
G1 X163.636 Y138.639 E30.15991
G1 X163.69 Y139.028 E30.17395
G1 X163.693 Y139.419 E30.18793
G1 X163.644 Y139.817 E30.20227
G1 X163.541 Y140.208 E30.21673
G1 X163.396 Y140.559 E30.23031
G1 X163.203 Y140.895 E30.24416
G1 X162.959 Y141.216 E30.25858
G1 X162.674 Y141.501 E30.27299
G1 X162.37 Y141.733 E30.28666
G1 X162.042 Y141.924 E30.30023
G1 X161.684 Y142.075 E30.31412
G1 X161.305 Y142.179 E30.32818
G1 X160.915 Y142.233 E30.34225
G1 X160.525 Y142.236 E30.3562
G1 X160.127 Y142.187 E30.37054
G1 X159.731 Y142.082 E30.38518
G1 X159.372 Y141.932 E30.39909
G1 X159.038 Y141.739 E30.41289
G1 X158.451 Y141.29 E30.43931
G1 X158.311 Y141.231 E30.44474
G1 X158.15 Y141.209 E30.45055
G1 X157.87 Y141.283 E30.46091
G1 X157.742 Y141.38 E30.46665
G1 X157.597 Y141.633 E30.47708
G1 X157.56 Y141.9 E30.48671
G1 X157.56 Y161.79 E31.19787
G1 X157.52 Y162.134 E31.21026
G1 X157.403 Y162.46 E31.22264
G1 X157.214 Y162.75 E31.23502
G1 X156.963 Y162.99 E31.24743
G1 X156.665 Y163.166 E31.25981
G1 X156.334 Y163.269 E31.2722
G1 X156.055 Y163.295 E31.28222
G1 X153.055 Y163.295 E31.38949
G1 X152.801 Y163.266 E31.39863
G1 X152.837 Y163.523 E31.40791
G1 X152.84 Y163.913 E31.42185
G1 X152.791 Y164.311 E31.43619
G1 X152.688 Y164.702 E31.45064
G1 X152.543 Y165.053 E31.46422
G1 X152.351 Y165.388 E31.47803
G1 X152.108 Y165.708 E31.4924
G1 X151.823 Y165.994 E31.50683
G1 X151.518 Y166.227 E31.52055
G1 X151.187 Y166.418 E31.53422
G1 X150.83 Y166.568 E31.54806
G1 X150.457 Y166.671 E31.5619
G1 X150.066 Y166.726 E31.57602
G1 X149.668 Y166.729 E31.59025
G1 X149.271 Y166.679 E31.60455
G1 X148.883 Y166.577 E31.6189
G1 X148.523 Y166.428 E31.63283
G1 X148.183 Y166.231 E31.64688
G1 X147.601 Y165.785 E31.6731
G1 X147.455 Y165.724 E31.67875
G1 X147.3 Y165.702 E31.68435
G1 X147.149 Y165.722 E31.6898
G1 X146.89 Y165.873 E31.70052
G1 X146.744 Y166.126 E31.71096
G1 X146.708 Y166.39 E31.72049
G1 X146.708 Y186.283 E32.43175
G1 X146.668 Y186.627 E32.44414
G1 X146.551 Y186.953 E32.45652
G1 X146.362 Y187.243 E32.4689
G1 X146.111 Y187.483 E32.48131
G1 X145.813 Y187.659 E32.49369
G1 X145.482 Y187.762 E32.50608
G1 X145.203 Y187.788 E32.5161
G1 X142.203 Y187.788 E32.62337
G1 X141.859 Y187.748 E32.63575
G1 X141.533 Y187.631 E32.64813
G1 X141.243 Y187.442 E32.66051
G1 X141.003 Y187.191 E32.67293
G1 X140.827 Y186.893 E32.6853
G1 X140.724 Y186.562 E32.69769
G1 X140.698 Y186.283 E32.70771
G1 X140.698 Y136.321 E34.49409
G1 X140.569 Y133.178 E34.60656
G1 X140.187 Y130.12 E34.71675
G1 X139.559 Y127.222 E34.82277
G1 X138.756 Y124.719 E34.91675
G1 X137.816 Y122.599 E34.99967
G1 X136.816 Y120.93 E35.06924
G1 X135.752 Y119.611 E35.12983
G1 X134.773 Y118.744 E35.17659
G1 X133.795 Y118.159 E35.21733
G1 X132.998 Y117.887 E35.24744
G1 X132.114 Y117.788 E35.27925
G1 X115.203 Y117.788 E35.88389
G1 X114.859 Y117.748 E35.89628
G1 X114.533 Y117.631 E35.90866
G1 X114.243 Y117.442 E35.92104
G1 X114.003 Y117.191 E35.93345
G1 X113.827 Y116.893 E35.94583
G1 X113.724 Y116.562 E35.95822
G1 X113.698 Y116.283 E35.96824
G1 X113.698 Y101.283 E36.50456
G1 X113.738 Y100.939 E36.51694
G1 X113.855 Y100.613 E36.52933
G1 X114.044 Y100.323 E36.5417
G1 X114.295 Y100.083 E36.55412
G1 X114.593 Y99.907 E36.5665
G1 X114.924 Y99.804 E36.57889
G1 X115.203 Y99.778 E36.58891
G1 X145.203 Y99.778 E37.66155
G1 X145.547 Y99.818 E37.67393
G1 X145.873 Y99.935 E37.68631
G1 X146.163 Y100.124 E37.69869
G1 X146.403 Y100.375 E37.71111
G1 X146.579 Y100.673 E37.72348
G1 X146.682 Y101.004 E37.73588
G1 X146.708 Y101.283 E37.7459
G1 X146.708 Y148.867 E39.44724
G1 X146.765 Y150.308 E39.49881
G1 X146.932 Y151.723 E39.54975
G1 X147.192 Y153.034 E39.59754
G1 X147.593 Y154.471 E39.65088
G1 X148.069 Y155.758 E39.69994
G1 X148.654 Y157.035 E39.75016
G1 X149.344 Y158.267 E39.80065
G1 X150.125 Y159.441 E39.85107
G1 X151.019 Y160.579 E39.90281
G1 X151.55 Y161.155 E39.93082
G1 X151.55 Y111.828 E41.69449
G1 X151.421 Y108.683 E41.80703
G1 X151.04 Y105.627 E41.91715
G1 X150.412 Y102.728 E42.0232
G1 X149.61 Y100.229 E42.11704
G1 X148.666 Y98.103 E42.20021
G1 X147.668 Y96.437 E42.26965
G1 X146.606 Y95.121 E42.33011
G1 X145.623 Y94.249 E42.3771
G1 X144.652 Y93.669 E42.41754
G1 X143.845 Y93.394 E42.44802
G1 X142.966 Y93.295 E42.47965
G1 X126.055 Y93.295 E43.08429
G1 X125.711 Y93.255 E43.09668
G1 X125.385 Y93.138 E43.10906
G1 X125.095 Y92.949 E43.12144
G1 X124.855 Y92.698 E43.13385
G1 X124.679 Y92.4 E43.14623
G1 X124.576 Y92.069 E43.15862
G1 X124.55 Y91.79 E43.16864
G1 X124.55 Y76.79 E43.70496
G1 X124.59 Y76.446 E43.71734
G1 X124.707 Y76.12 E43.72973
G1 X124.896 Y75.83 E43.7421
G1 X125.147 Y75.59 E43.75452
G1 X125.445 Y75.414 E43.7669
G1 X125.776 Y75.311 E43.77929
G1 X126.055 Y75.285 E43.78931
G1 X156.055 Y75.285 E44.86195
G1 X156.399 Y75.325 E44.87433
G1 X156.725 Y75.442 E44.88671
G1 X157.015 Y75.631 E44.89909
G1 X157.255 Y75.882 E44.91151
G1 X157.431 Y76.18 E44.92388
G1 X157.534 Y76.511 E44.93628
G1 X157.56 Y76.79 E44.9463
G1 X157.56 Y124.374 E46.64764
G1 X157.617 Y125.815 E46.69921
G1 X157.784 Y127.23 E46.75015
G1 X158.046 Y128.552 E46.79834
G1 X158.443 Y129.971 E46.85102
G1 X158.919 Y131.262 E46.90022
G1 X159.505 Y132.536 E46.95036
G1 X160.199 Y133.779 E47.00126
G1 X160.972 Y134.942 E47.05119
G1 X161.876 Y136.091 E47.10346
G1 X162.09 Y136.322 E47.11472
G1 X162.09 Y86.94 E48.88036
G1 X161.961 Y83.795 E48.9929
G1 X161.58 Y80.739 E49.10301
G1 X160.952 Y77.84 E49.20907
G1 X160.15 Y75.342 E49.30287
G1 X159.206 Y73.215 E49.38608
